;FLAVOR:Marlin
;TIME:4061
;Filament used: 2.10723m
;Layer height: 0.16
;MINX:50.2
;MINY:80.2
;MINZ:0.2
;MAXX:169.8
;MAXY:139.8
;MAXZ:7.52
;Generated with Cura_SteamEngine 4.4.1
M140 S60
M105
M190 S60
M104 S200
M105
M109 S200
M82 ;absolute extrusion mode
M201 X500.00 Y500.00 Z100.00 E5000.00 ;Setup machine max acceleration
M203 X500.00 Y500.00 Z10.00 E50.00 ;Setup machine max feedrate
M204 P500.00 R1000.00 T500.00 ;Setup Print/Retract/Travel acceleration
M205 X8.00 Y8.00 Z0.40 E5.00 ;Setup Jerk
M220 S100 ;Reset Feedrate
M221 S100 ;Reset Flowrate

G28 ;Home
G29 ;Auto bed level

G92 E0 ;Reset Extruder
G1 Z2.0 F3000 ;Move Z Axis up
G1 X10.1 Y20 Z0.28 F5000.0 ;Move to start position
G1 X10.1 Y200.0 Z0.28 F1500.0 E15 ;Draw the first line
G1 X10.4 Y200.0 Z0.28 F5000.0 ;Move to side a little
G1 X10.4 Y20 Z0.28 F1500.0 E30 ;Draw the second line
G92 E0 ;Reset Extruder
G1 Z2.0 F3000 ;Move Z Axis up
G92 E0
G92 E0
G1 F1500 E-6.5
;LAYER_COUNT:41
;LAYER:0
M107
G0 F6000 X55.007 Y82.015 Z0.2
;TYPE:SKIRT
G1 F1500 E0
G1 F1200 X55.644 Y81.633 E0.0247
G1 X56.166 Y81.353 E0.04441
G1 X56.88 Y81.016 E0.07067
G1 X57.603 Y80.759 E0.09619
G1 X58.164 Y80.59 E0.11567
G1 X58.931 Y80.4 E0.14196
G1 X59.647 Y80.296 E0.16602
G1 X60.234 Y80.238 E0.18564
G1 X61.001 Y80.2 E0.21118
G1 X158.999 Y80.2 E3.47061
G1 X159.766 Y80.238 E3.49615
G1 X160.353 Y80.296 E3.51577
G1 X161.134 Y80.413 E3.54203
G1 X161.836 Y80.59 E3.56611
G1 X162.397 Y80.759 E3.5856
G1 X163.14 Y81.024 E3.61184
G1 X163.834 Y81.353 E3.63738
G1 X164.356 Y81.633 E3.65708
G1 X165.032 Y82.041 E3.68335
G1 X165.624 Y82.483 E3.70792
G1 X166.075 Y82.854 E3.72734
G1 X166.659 Y83.386 E3.75362
G1 X167.141 Y83.92 E3.77754
G1 X167.514 Y84.373 E3.79706
G1 X167.985 Y85.007 E3.82333
G1 X168.367 Y85.644 E3.84803
G1 X168.647 Y86.166 E3.86774
G1 X168.984 Y86.88 E3.894
G1 X169.24 Y87.599 E3.91938
G1 X169.409 Y88.159 E3.93884
G1 X169.599 Y88.926 E3.96512
G1 X169.704 Y89.645 E3.98929
G1 X169.762 Y90.231 E4.00887
G1 X169.8 Y90.999 E4.03445
G1 X169.8 Y128.999 E5.29833
G1 X169.762 Y129.766 E5.32387
G1 X169.704 Y130.353 E5.34349
G1 X169.587 Y131.134 E5.36976
G1 X169.41 Y131.836 E5.39384
G1 X169.241 Y132.397 E5.41332
G1 X168.976 Y133.14 E5.43956
G1 X168.649 Y133.829 E5.46493
G1 X168.37 Y134.35 E5.48458
G1 X167.963 Y135.027 E5.51086
G1 X167.517 Y135.625 E5.53567
G1 X167.145 Y136.077 E5.55514
G1 X166.613 Y136.66 E5.58139
G1 X166.08 Y137.141 E5.60527
G1 X165.627 Y137.514 E5.62479
G1 X164.993 Y137.985 E5.65106
G1 X164.356 Y138.367 E5.67576
G1 X163.834 Y138.647 E5.69546
G1 X163.12 Y138.984 E5.72172
G1 X162.397 Y139.241 E5.74724
G1 X161.836 Y139.41 E5.76673
G1 X161.069 Y139.6 E5.79301
G1 X160.353 Y139.704 E5.81708
G1 X159.766 Y139.762 E5.83669
G1 X158.999 Y139.8 E5.86224
G1 X61.001 Y139.8 E9.12166
G1 X60.234 Y139.762 E9.1472
G1 X59.647 Y139.704 E9.16682
G1 X58.866 Y139.587 E9.19309
G1 X58.164 Y139.41 E9.21717
G1 X57.603 Y139.241 E9.23666
G1 X56.86 Y138.976 E9.26289
G1 X56.166 Y138.647 E9.28844
G1 X55.644 Y138.367 E9.30814
G1 X54.968 Y137.959 E9.3344
G1 X54.373 Y137.514 E9.35911
G1 X53.92 Y137.141 E9.37863
G1 X53.337 Y136.609 E9.40488
G1 X52.855 Y136.077 E9.42876
G1 X52.483 Y135.625 E9.44823
G1 X52.013 Y134.99 E9.4745
G1 X51.63 Y134.35 E9.49931
G1 X51.351 Y133.829 E9.51897
G1 X51.014 Y133.115 E9.54523
G1 X50.759 Y132.397 E9.57057
G1 X50.59 Y131.836 E9.59006
G1 X50.4 Y131.069 E9.61634
G1 X50.296 Y130.356 E9.6403
G1 X50.238 Y129.771 E9.65986
G1 X50.2 Y129.001 E9.6855
G1 X50.2 Y109 E10.35073
G1 X50.24 Y108.211 E10.37701
G1 X50.359 Y107.431 E10.40325
G1 X50.557 Y106.666 E10.42954
G1 X50.831 Y105.926 E10.45578
G1 X51.179 Y105.217 E10.48205
G1 X51.597 Y104.546 E10.50834
G1 X52.022 Y103.997 E10.53144
G1 X51.834 Y103.778 E10.54104
G1 X51.383 Y103.13 E10.56729
G1 X50.999 Y102.439 E10.59359
G1 X50.687 Y101.714 E10.61984
G1 X50.45 Y100.961 E10.6461
G1 X50.291 Y100.187 E10.67238
G1 X50.21 Y99.402 E10.69862
G1 X50.2 Y99 E10.712
G1 X50.2 Y91.001 E10.97805
G1 X50.238 Y90.235 E11.00356
G1 X50.296 Y89.647 E11.02321
G1 X50.413 Y88.866 E11.04947
G1 X50.591 Y88.159 E11.07372
G1 X50.76 Y87.599 E11.09318
G1 X51.026 Y86.856 E11.11943
G1 X51.353 Y86.166 E11.14482
G1 X51.633 Y85.644 E11.16452
G1 X52.041 Y84.968 E11.19079
G1 X52.483 Y84.376 E11.21536
G1 X52.854 Y83.925 E11.23478
G1 X53.386 Y83.341 E11.26106
G1 X53.92 Y82.859 E11.28498
G1 X54.373 Y82.486 E11.3045
G1 X55.007 Y82.015 E11.33077
G0 F6000 X55.246 Y82.337
G1 F1200 X55.833 Y81.986 E11.35352
G1 X56.355 Y81.706 E11.37322
G1 X57.051 Y81.378 E11.39881
G1 X57.719 Y81.142 E11.42237
G1 X58.28 Y80.973 E11.44186
G1 X59.027 Y80.789 E11.46745
G1 X59.686 Y80.694 E11.48959
G1 X60.273 Y80.636 E11.50921
G1 X61.001 Y80.6 E11.53345
G1 X158.999 Y80.6 E14.79288
G1 X159.727 Y80.636 E14.81712
G1 X160.314 Y80.694 E14.83674
G1 X161.074 Y80.809 E14.86231
G1 X161.72 Y80.973 E14.88448
G1 X162.281 Y81.142 E14.90396
G1 X163.005 Y81.401 E14.92954
G1 X163.645 Y81.706 E14.95312
G1 X164.167 Y81.986 E14.97282
G1 X164.825 Y82.384 E14.9984
G1 X165.37 Y82.792 E15.02104
G1 X165.821 Y83.163 E15.04046
G1 X166.389 Y83.682 E15.06605
G1 X166.833 Y84.174 E15.0881
G1 X167.206 Y84.627 E15.10761
G1 X167.663 Y85.246 E15.13321
G1 X168.014 Y85.833 E15.15595
G1 X168.294 Y86.355 E15.17565
G1 X168.622 Y87.051 E15.20125
G1 X168.857 Y87.715 E15.22467
G1 X169.026 Y88.275 E15.24413
G1 X169.21 Y89.022 E15.26972
G1 X169.306 Y89.684 E15.29196
G1 X169.364 Y90.27 E15.31155
G1 X169.4 Y90.999 E15.33583
G1 X169.4 Y128.999 E16.59971
G1 X169.364 Y129.727 E16.62395
G1 X169.306 Y130.314 E16.64357
G1 X169.191 Y131.074 E16.66914
G1 X169.027 Y131.72 E16.69131
G1 X168.858 Y132.281 E16.71079
G1 X168.599 Y133.005 E16.73637
G1 X168.297 Y133.64 E16.75976
G1 X168.018 Y134.161 E16.77941
G1 X167.62 Y134.82 E16.80502
G1 X167.208 Y135.37 E16.82787
G1 X166.836 Y135.822 E16.84734
G1 X166.317 Y136.39 E16.87294
G1 X165.826 Y136.833 E16.89493
G1 X165.373 Y137.206 E16.91445
G1 X164.754 Y137.663 E16.94004
G1 X164.167 Y138.014 E16.96279
G1 X163.645 Y138.294 E16.98249
G1 X162.949 Y138.622 E17.00808
G1 X162.281 Y138.858 E17.03164
G1 X161.72 Y139.027 E17.05113
G1 X160.973 Y139.211 E17.07672
G1 X160.314 Y139.306 E17.09886
G1 X159.727 Y139.364 E17.11848
G1 X158.999 Y139.4 E17.14272
G1 X61.001 Y139.4 E20.40215
G1 X60.273 Y139.364 E20.42639
G1 X59.686 Y139.306 E20.44601
G1 X58.926 Y139.191 E20.47158
G1 X58.28 Y139.027 E20.49375
G1 X57.719 Y138.858 E20.51323
G1 X56.995 Y138.599 E20.53881
G1 X56.355 Y138.294 E20.56239
G1 X55.833 Y138.014 E20.58209
G1 X55.175 Y137.616 E20.60767
G1 X54.627 Y137.206 E20.63043
G1 X54.174 Y136.833 E20.64995
G1 X53.607 Y136.314 E20.67551
G1 X53.164 Y135.822 E20.69753
G1 X52.792 Y135.37 E20.717
G1 X52.335 Y134.752 E20.74257
G1 X51.982 Y134.161 E20.76546
G1 X51.703 Y133.64 E20.78512
G1 X51.376 Y132.944 E20.8107
G1 X51.142 Y132.281 E20.83408
G1 X50.973 Y131.72 E20.85357
G1 X50.789 Y130.973 E20.87916
G1 X50.694 Y130.316 E20.90124
G1 X50.636 Y129.731 E20.92079
G1 X50.6 Y129.001 E20.9451
G1 X50.6 Y109 E21.61033
G1 X50.64 Y108.232 E21.63591
G1 X50.759 Y107.472 E21.6615
G1 X50.957 Y106.729 E21.68707
G1 X51.231 Y106.01 E21.71267
G1 X51.578 Y105.324 E21.73823
G1 X51.994 Y104.677 E21.76382
G1 X52.475 Y104.077 E21.7894
G1 X52.549 Y104.002 E21.7929
G1 X52.53 Y103.984 E21.79377
G1 X52.042 Y103.389 E21.81936
G1 X51.619 Y102.747 E21.84494
G1 X51.264 Y102.064 E21.87054
G1 X50.983 Y101.349 E21.89609
G1 X50.777 Y100.607 E21.9217
G1 X50.649 Y99.849 E21.94727
G1 X50.6 Y99 E21.97555
G1 X50.6 Y91.001 E22.2416
G1 X50.636 Y90.275 E22.26578
G1 X50.694 Y89.687 E22.28543
G1 X50.809 Y88.926 E22.31103
G1 X50.974 Y88.275 E22.33337
G1 X51.143 Y87.715 E22.35282
G1 X51.403 Y86.991 E22.37841
G1 X51.706 Y86.355 E22.40184
G1 X51.986 Y85.833 E22.42154
G1 X52.384 Y85.175 E22.44712
G1 X52.792 Y84.63 E22.46976
G1 X53.163 Y84.179 E22.48919
G1 X53.682 Y83.611 E22.51478
G1 X54.174 Y83.167 E22.53682
G1 X54.627 Y82.794 E22.55634
G1 X55.246 Y82.337 E22.58193
G0 F6000 X55.484 Y82.659
G1 F1200 X56.022 Y82.338 E22.60276
G1 X56.544 Y82.058 E22.62247
G1 X57.221 Y81.741 E22.64733
G1 X57.834 Y81.525 E22.66895
G1 X58.395 Y81.356 E22.68843
G1 X59.122 Y81.178 E22.71333
G1 X59.726 Y81.092 E22.73362
G1 X60.313 Y81.034 E22.75324
G1 X61.001 Y81 E22.77615
G1 X158.999 Y81 E26.03558
G1 X159.687 Y81.034 E26.05849
G1 X160.274 Y81.092 E26.0781
G1 X161.014 Y81.205 E26.103
G1 X161.605 Y81.356 E26.12329
G1 X162.166 Y81.525 E26.14278
G1 X162.87 Y81.778 E26.16766
G1 X163.456 Y82.058 E26.18926
G1 X163.978 Y82.338 E26.20896
G1 X164.617 Y82.727 E26.23384
G1 X165.116 Y83.101 E26.25458
G1 X165.567 Y83.472 E26.27401
G1 X166.119 Y83.977 E26.29889
G1 X166.524 Y84.428 E26.31905
G1 X166.897 Y84.881 E26.33857
G1 X167.341 Y85.484 E26.36348
G1 X167.662 Y86.022 E26.38431
G1 X167.942 Y86.544 E26.40401
G1 X168.259 Y87.221 E26.42888
G1 X168.474 Y87.831 E26.45039
G1 X168.643 Y88.391 E26.46985
G1 X168.821 Y89.117 E26.49471
G1 X168.908 Y89.724 E26.5151
G1 X168.966 Y90.31 E26.53469
G1 X169 Y90.999 E26.55763
G1 X169 Y128.999 E27.82152
G1 X168.966 Y129.687 E27.84443
G1 X168.908 Y130.274 E27.86405
G1 X168.795 Y131.014 E27.88895
G1 X168.644 Y131.605 E27.90923
G1 X168.475 Y132.166 E27.92872
G1 X168.222 Y132.87 E27.9536
G1 X167.944 Y133.452 E27.97505
G1 X167.665 Y133.973 E27.99471
G1 X167.277 Y134.612 E28.01958
G1 X166.899 Y135.116 E28.04053
G1 X166.527 Y135.568 E28.06
G1 X166.021 Y136.12 E28.08491
G1 X165.572 Y136.524 E28.10499
G1 X165.119 Y136.897 E28.12451
G1 X164.516 Y137.341 E28.14942
G1 X163.978 Y137.662 E28.17026
G1 X163.456 Y137.942 E28.18996
G1 X162.779 Y138.259 E28.21482
G1 X162.166 Y138.475 E28.23644
G1 X161.605 Y138.644 E28.25592
G1 X160.878 Y138.822 E28.28082
G1 X160.274 Y138.908 E28.30111
G1 X159.687 Y138.966 E28.32073
G1 X158.999 Y139 E28.34364
G1 X61.001 Y139 E31.60307
G1 X60.313 Y138.966 E31.62598
G1 X59.726 Y138.908 E31.6456
G1 X58.986 Y138.795 E31.67049
G1 X58.395 Y138.644 E31.69078
G1 X57.834 Y138.475 E31.71027
G1 X57.13 Y138.222 E31.73515
G1 X56.544 Y137.942 E31.75675
G1 X56.022 Y137.662 E31.77645
G1 X55.383 Y137.273 E31.80134
G1 X54.881 Y136.897 E31.8222
G1 X54.428 Y136.524 E31.84171
G1 X53.877 Y136.018 E31.8666
G1 X53.473 Y135.568 E31.88671
G1 X53.101 Y135.116 E31.90618
G1 X52.657 Y134.514 E31.93106
G1 X52.335 Y133.973 E31.952
G1 X52.056 Y133.452 E31.97166
G1 X51.739 Y132.774 E31.99655
G1 X51.525 Y132.166 E32.01799
G1 X51.356 Y131.605 E32.03747
G1 X51.178 Y130.878 E32.06237
G1 X51.092 Y130.277 E32.08256
G1 X51.034 Y129.692 E32.10211
G1 X51 Y129.001 E32.12512
G1 X51 Y109 E32.79036
G1 X51.04 Y108.253 E32.81524
G1 X51.159 Y107.515 E32.8401
G1 X51.357 Y106.793 E32.86501
G1 X51.63 Y106.097 E32.88987
G1 X51.977 Y105.434 E32.91476
G1 X52.392 Y104.811 E32.93966
G1 X52.871 Y104.237 E32.96452
G1 X53.114 Y104.002 E32.97577
G1 X52.716 Y103.592 E32.99477
G1 X52.257 Y103.002 E33.01963
G1 X51.862 Y102.366 E33.04454
G1 X51.538 Y101.692 E33.06941
G1 X51.288 Y100.987 E33.09429
G1 X51.114 Y100.259 E33.11918
G1 X51.019 Y99.517 E33.14406
G1 X51 Y99 E33.16127
G1 X51 Y91.001 E33.42732
G1 X51.034 Y90.314 E33.4502
G1 X51.092 Y89.726 E33.46985
G1 X51.205 Y88.986 E33.49475
G1 X51.357 Y88.391 E33.51517
G1 X51.526 Y87.831 E33.53463
G1 X51.78 Y87.127 E33.55952
G1 X52.058 Y86.544 E33.581
G1 X52.338 Y86.022 E33.6007
G1 X52.727 Y85.383 E33.62558
G1 X53.101 Y84.884 E33.64633
G1 X53.472 Y84.433 E33.66575
G1 X53.977 Y83.881 E33.69063
G1 X54.428 Y83.476 E33.71079
G1 X54.881 Y83.103 E33.73031
G1 X55.484 Y82.659 E33.75522
G0 F6000 X55.721 Y82.982
G1 F1200 X56.211 Y82.691 E33.77417
G1 X56.733 Y82.411 E33.79387
G1 X57.391 Y82.103 E33.81804
G1 X57.949 Y81.908 E33.8377
G1 X58.51 Y81.739 E33.85718
G1 X59.216 Y81.568 E33.88135
G1 X59.765 Y81.49 E33.89979
G1 X60.352 Y81.432 E33.91941
G1 X61.001 Y81.4 E33.94102
G1 X158.999 Y81.4 E37.20045
G1 X159.648 Y81.432 E37.22206
G1 X160.235 Y81.49 E37.24168
G1 X160.953 Y81.601 E37.26584
G1 X161.49 Y81.739 E37.28428
G1 X162.051 Y81.908 E37.30377
G1 X162.734 Y82.155 E37.32793
G1 X163.267 Y82.411 E37.34759
G1 X163.789 Y82.691 E37.36729
G1 X164.409 Y83.069 E37.39145
G1 X164.862 Y83.41 E37.4103
G1 X165.313 Y83.781 E37.42973
G1 X165.848 Y84.273 E37.4539
G1 X166.215 Y84.683 E37.4722
G1 X166.588 Y85.136 E37.49172
G1 X167.018 Y85.721 E37.51587
G1 X167.309 Y86.211 E37.53482
G1 X167.589 Y86.733 E37.55453
G1 X167.897 Y87.391 E37.57869
G1 X168.092 Y87.946 E37.59826
G1 X168.261 Y88.506 E37.61771
G1 X168.432 Y89.212 E37.64187
G1 X168.51 Y89.763 E37.66038
G1 X168.568 Y90.349 E37.67997
G1 X168.6 Y90.999 E37.70161
G1 X168.6 Y128.999 E38.9655
G1 X168.568 Y129.648 E38.98711
G1 X168.51 Y130.235 E39.00673
G1 X168.399 Y130.953 E39.03089
G1 X168.261 Y131.49 E39.04933
G1 X168.092 Y132.051 E39.06882
G1 X167.845 Y132.734 E39.09298
G1 X167.591 Y133.263 E39.11249
G1 X167.312 Y133.784 E39.13215
G1 X166.935 Y134.404 E39.15629
G1 X166.59 Y134.862 E39.17536
G1 X166.218 Y135.314 E39.19483
G1 X165.726 Y135.849 E39.219
G1 X165.317 Y136.215 E39.23726
G1 X164.864 Y136.588 E39.25677
G1 X164.279 Y137.018 E39.28092
G1 X163.789 Y137.309 E39.29988
G1 X163.267 Y137.589 E39.31958
G1 X162.609 Y137.897 E39.34374
G1 X162.051 Y138.092 E39.3634
G1 X161.49 Y138.261 E39.38289
G1 X160.784 Y138.432 E39.40705
G1 X160.235 Y138.51 E39.42549
G1 X159.648 Y138.568 E39.44511
G1 X158.999 Y138.6 E39.46672
G1 X61.001 Y138.6 E42.72615
G1 X60.352 Y138.568 E42.74776
G1 X59.765 Y138.51 E42.76738
G1 X59.047 Y138.399 E42.79155
G1 X58.51 Y138.261 E42.80999
G1 X57.949 Y138.092 E42.82947
G1 X57.266 Y137.845 E42.85363
G1 X56.733 Y137.589 E42.8733
G1 X56.211 Y137.309 E42.893
G1 X55.591 Y136.931 E42.91715
G1 X55.136 Y136.588 E42.9361
G1 X54.683 Y136.215 E42.95562
G1 X54.148 Y135.723 E42.97979
G1 X53.782 Y135.314 E42.99805
G1 X53.41 Y134.862 E43.01752
G1 X52.98 Y134.277 E43.04167
G1 X52.688 Y133.784 E43.06073
G1 X52.409 Y133.263 E43.08038
G1 X52.102 Y132.605 E43.10453
G1 X51.908 Y132.051 E43.12406
G1 X51.739 Y131.49 E43.14354
G1 X51.568 Y130.784 E43.1677
G1 X51.49 Y130.237 E43.18608
G1 X51.432 Y129.652 E43.20563
G1 X51.4 Y129.001 E43.22731
G1 X51.4 Y109 E43.89255
G1 X51.44 Y108.275 E43.9167
G1 X51.559 Y107.558 E43.94087
G1 X51.757 Y106.859 E43.96503
G1 X52.03 Y106.186 E43.98919
G1 X52.375 Y105.547 E44.01334
G1 X52.789 Y104.95 E44.03751
G1 X53.265 Y104.402 E44.06165
G1 X53.704 Y103.997 E44.08152
G1 X53.402 Y103.735 E44.09481
G1 X52.909 Y103.201 E44.11899
G1 X52.479 Y102.616 E44.14313
G1 X52.115 Y101.987 E44.1673
G1 X51.822 Y101.322 E44.19147
G1 X51.604 Y100.629 E44.21564
G1 X51.464 Y99.917 E44.23977
G1 X51.4 Y99 E44.27035
G1 X51.4 Y91.001 E44.53639
G1 X51.432 Y90.353 E44.55797
G1 X51.49 Y89.765 E44.57762
G1 X51.601 Y89.047 E44.60179
G1 X51.739 Y88.506 E44.62036
G1 X51.908 Y87.946 E44.63981
G1 X52.156 Y87.263 E44.66398
G1 X52.411 Y86.733 E44.68354
G1 X52.691 Y86.211 E44.70325
G1 X53.069 Y85.591 E44.7274
G1 X53.41 Y85.138 E44.74626
G1 X53.781 Y84.687 E44.76568
G1 X54.273 Y84.152 E44.78985
G1 X54.683 Y83.785 E44.80816
G1 X55.136 Y83.412 E44.82767
G1 X55.721 Y82.982 E44.85182
G0 F6000 X55.958 Y83.305
G1 F1200 X56.4 Y83.043 E44.86891
G1 X56.922 Y82.763 E44.88861
G1 X57.561 Y82.466 E44.91205
G1 X58.065 Y82.291 E44.92979
G1 X58.626 Y82.122 E44.94928
G1 X59.31 Y81.957 E44.97268
G1 X59.804 Y81.888 E44.98927
G1 X60.391 Y81.83 E45.00889
G1 X61.001 Y81.8 E45.02921
G1 X158.999 Y81.8 E48.28863
G1 X159.609 Y81.83 E48.30895
G1 X160.196 Y81.888 E48.32856
G1 X160.891 Y81.997 E48.35196
G1 X161.374 Y82.122 E48.36856
G1 X161.935 Y82.291 E48.38804
G1 X162.597 Y82.532 E48.41148
G1 X163.078 Y82.763 E48.42922
G1 X163.6 Y83.043 E48.44892
G1 X164.2 Y83.411 E48.47234
G1 X164.608 Y83.719 E48.48934
G1 X165.059 Y84.09 E48.50876
G1 X165.576 Y84.567 E48.53216
G1 X165.906 Y84.937 E48.54865
G1 X166.279 Y85.39 E48.56816
G1 X166.695 Y85.958 E48.59158
G1 X166.957 Y86.4 E48.60867
G1 X167.237 Y86.922 E48.62837
G1 X167.534 Y87.561 E48.65181
G1 X167.709 Y88.062 E48.66946
G1 X167.878 Y88.622 E48.68892
G1 X168.042 Y89.306 E48.71231
G1 X168.112 Y89.802 E48.72897
G1 X168.17 Y90.388 E48.74856
G1 X168.2 Y90.999 E48.7689
G1 X168.2 Y128.999 E50.03279
G1 X168.17 Y129.609 E50.0531
G1 X168.112 Y130.196 E50.07272
G1 X168.003 Y130.891 E50.09612
G1 X167.878 Y131.374 E50.11271
G1 X167.709 Y131.935 E50.1322
G1 X167.468 Y132.597 E50.15563
