;FLAVOR:Marlin
;TIME:13139
;Filament used: 6.71735m
;Layer height: 0.16
;MINX:50.2
;MINY:80.2
;MINZ:0.2
;MAXX:169.8
;MAXY:139.8
;MAXZ:14.92
;Generated with Cura_SteamEngine 4.4.1
M140 S60
M105
M190 S60
M104 S200
M105
M109 S200
M82 ;absolute extrusion mode
M201 X500.00 Y500.00 Z100.00 E5000.00 ;Setup machine max acceleration
M203 X500.00 Y500.00 Z10.00 E50.00 ;Setup machine max feedrate
M204 P500.00 R1000.00 T500.00 ;Setup Print/Retract/Travel acceleration
M205 X8.00 Y8.00 Z0.40 E5.00 ;Setup Jerk
M220 S100 ;Reset Feedrate
M221 S100 ;Reset Flowrate

G28 ;Home
G29 ;Auto bed level

G92 E0 ;Reset Extruder
G1 Z2.0 F3000 ;Move Z Axis up
G1 X10.1 Y20 Z0.28 F5000.0 ;Move to start position
G1 X10.1 Y200.0 Z0.28 F1500.0 E15 ;Draw the first line
G1 X10.4 Y200.0 Z0.28 F5000.0 ;Move to side a little
G1 X10.4 Y20 Z0.28 F1500.0 E30 ;Draw the second line
G92 E0 ;Reset Extruder
G1 Z2.0 F3000 ;Move Z Axis up
G92 E0
G92 E0
G1 F1500 E-6.5
;LAYER_COUNT:90
;LAYER:0
M107
G0 F6000 X55.007 Y82.015 Z0.2
;TYPE:SKIRT
G1 F1500 E0
G1 F1200 X55.644 Y81.633 E0.0247
G1 X56.166 Y81.353 E0.04441
G1 X56.88 Y81.016 E0.07067
G1 X57.603 Y80.759 E0.09619
G1 X58.164 Y80.59 E0.11567
G1 X58.931 Y80.4 E0.14196
G1 X59.665 Y80.294 E0.16662
G1 X60.235 Y80.239 E0.18567
G1 X60.953 Y80.203 E0.20958
G1 X61.717 Y80.2 E0.23499
G1 X158.999 Y80.2 E3.4706
G1 X159.766 Y80.238 E3.49614
G1 X160.353 Y80.296 E3.51576
G1 X161.134 Y80.413 E3.54203
G1 X161.836 Y80.59 E3.56611
G1 X162.397 Y80.759 E3.5856
G1 X163.14 Y81.024 E3.61183
G1 X163.834 Y81.353 E3.63738
G1 X164.356 Y81.633 E3.65708
G1 X165.032 Y82.041 E3.68334
G1 X165.624 Y82.483 E3.70791
G1 X166.075 Y82.854 E3.72734
G1 X166.659 Y83.386 E3.75361
G1 X167.141 Y83.92 E3.77754
G1 X167.514 Y84.373 E3.79706
G1 X167.985 Y85.007 E3.82332
G1 X168.367 Y85.644 E3.84803
G1 X168.647 Y86.166 E3.86773
G1 X168.984 Y86.88 E3.89399
G1 X169.24 Y87.599 E3.91938
G1 X169.409 Y88.159 E3.93883
G1 X169.599 Y88.926 E3.96511
G1 X169.706 Y89.663 E3.98988
G1 X169.761 Y90.232 E4.0089
G1 X169.797 Y90.981 E4.03384
G1 X169.8 Y128.998 E5.29829
G1 X169.762 Y129.766 E5.32386
G1 X169.704 Y130.353 E5.34348
G1 X169.587 Y131.134 E5.36975
G1 X169.41 Y131.836 E5.39383
G1 X169.241 Y132.397 E5.41331
G1 X168.976 Y133.14 E5.43955
G1 X168.649 Y133.829 E5.46492
G1 X168.37 Y134.35 E5.48457
G1 X167.963 Y135.027 E5.51085
G1 X167.517 Y135.625 E5.53566
G1 X167.145 Y136.077 E5.55513
G1 X166.613 Y136.66 E5.58138
G1 X166.08 Y137.141 E5.60526
G1 X165.627 Y137.514 E5.62478
G1 X164.993 Y137.985 E5.65104
G1 X164.356 Y138.367 E5.67575
G1 X163.834 Y138.647 E5.69545
G1 X163.12 Y138.984 E5.72171
G1 X162.397 Y139.241 E5.74723
G1 X161.836 Y139.41 E5.76672
G1 X161.069 Y139.6 E5.793
G1 X160.335 Y139.706 E5.81767
G1 X159.765 Y139.761 E5.83671
G1 X159.016 Y139.797 E5.86165
G1 X62.308 Y139.8 E9.07817
G1 X61.001 Y139.8 E9.12165
G1 X60.234 Y139.762 E9.14719
G1 X59.647 Y139.704 E9.16681
G1 X58.866 Y139.587 E9.19307
G1 X58.164 Y139.41 E9.21715
G1 X57.603 Y139.241 E9.23664
G1 X56.86 Y138.976 E9.26288
G1 X56.166 Y138.647 E9.28842
G1 X55.644 Y138.367 E9.30812
G1 X54.968 Y137.959 E9.33438
G1 X54.373 Y137.514 E9.3591
G1 X53.92 Y137.141 E9.37861
G1 X53.337 Y136.609 E9.40486
G1 X52.855 Y136.077 E9.42874
G1 X52.483 Y135.625 E9.44821
G1 X52.013 Y134.99 E9.47449
G1 X51.63 Y134.35 E9.49929
G1 X51.351 Y133.829 E9.51895
G1 X51.014 Y133.115 E9.54521
G1 X50.759 Y132.397 E9.57055
G1 X50.59 Y131.836 E9.59004
G1 X50.4 Y131.069 E9.61632
G1 X50.294 Y130.338 E9.64089
G1 X50.239 Y129.77 E9.65987
G1 X50.203 Y129.019 E9.68488
G1 X50.2 Y91.002 E10.94933
G1 X50.238 Y90.235 E10.97487
G1 X50.296 Y89.647 E10.99452
G1 X50.413 Y88.866 E11.02079
G1 X50.591 Y88.159 E11.04504
G1 X50.76 Y87.599 E11.06449
G1 X51.026 Y86.856 E11.09074
G1 X51.353 Y86.166 E11.11614
G1 X51.633 Y85.644 E11.13584
G1 X52.041 Y84.968 E11.1621
G1 X52.483 Y84.376 E11.18667
G1 X52.854 Y83.925 E11.20609
G1 X53.386 Y83.341 E11.23237
G1 X53.92 Y82.859 E11.2563
G1 X54.373 Y82.486 E11.27581
G1 X55.007 Y82.015 E11.30208
G0 F6000 X55.246 Y82.337
G1 F1200 X55.833 Y81.986 E11.32483
G1 X56.355 Y81.706 E11.34453
G1 X57.051 Y81.378 E11.37012
G1 X57.719 Y81.142 E11.39369
G1 X58.28 Y80.973 E11.41317
G1 X59.027 Y80.789 E11.43876
G1 X59.703 Y80.692 E11.46148
G1 X60.273 Y80.637 E11.48052
G1 X60.955 Y80.603 E11.50323
G1 X61.719 Y80.6 E11.52864
G1 X158.999 Y80.6 E14.76419
G1 X159.727 Y80.636 E14.78843
G1 X160.314 Y80.694 E14.80805
G1 X161.074 Y80.809 E14.83362
G1 X161.72 Y80.973 E14.85579
G1 X162.281 Y81.142 E14.87527
G1 X163.005 Y81.401 E14.90085
G1 X163.645 Y81.706 E14.92443
G1 X164.167 Y81.986 E14.94413
G1 X164.825 Y82.384 E14.96971
G1 X165.37 Y82.792 E14.99235
G1 X165.821 Y83.163 E15.01177
G1 X166.389 Y83.682 E15.03736
G1 X166.833 Y84.174 E15.05941
G1 X167.206 Y84.627 E15.07892
G1 X167.663 Y85.246 E15.10451
G1 X168.014 Y85.833 E15.12726
G1 X168.294 Y86.355 E15.14696
G1 X168.622 Y87.051 E15.17255
G1 X168.857 Y87.715 E15.19598
G1 X169.026 Y88.275 E15.21544
G1 X169.21 Y89.022 E15.24103
G1 X169.308 Y89.701 E15.26384
G1 X169.363 Y90.27 E15.28286
G1 X169.397 Y90.981 E15.30653
G1 X169.4 Y128.998 E16.57098
G1 X169.364 Y129.727 E16.59526
G1 X169.306 Y130.314 E16.61488
G1 X169.191 Y131.074 E16.64044
G1 X169.027 Y131.72 E16.66261
G1 X168.858 Y132.281 E16.6821
G1 X168.599 Y133.005 E16.70767
G1 X168.297 Y133.64 E16.73106
G1 X168.018 Y134.161 E16.75072
G1 X167.62 Y134.82 E16.77632
G1 X167.208 Y135.37 E16.79918
G1 X166.836 Y135.822 E16.81865
G1 X166.317 Y136.39 E16.84424
G1 X165.826 Y136.833 E16.86623
G1 X165.373 Y137.206 E16.88575
G1 X164.754 Y137.663 E16.91134
G1 X164.167 Y138.014 E16.93409
G1 X163.645 Y138.294 E16.95379
G1 X162.949 Y138.622 E16.97938
G1 X162.281 Y138.858 E17.00295
G1 X161.72 Y139.027 E17.02243
G1 X160.973 Y139.211 E17.04802
G1 X160.297 Y139.308 E17.07074
G1 X159.727 Y139.363 E17.08978
G1 X159.016 Y139.397 E17.11346
G1 X62.308 Y139.4 E20.32998
G1 X61.001 Y139.4 E20.37345
G1 X60.273 Y139.364 E20.39769
G1 X59.686 Y139.306 E20.41731
G1 X58.926 Y139.191 E20.44288
G1 X58.28 Y139.027 E20.46504
G1 X57.719 Y138.858 E20.48453
G1 X56.995 Y138.599 E20.51011
G1 X56.355 Y138.294 E20.53369
G1 X55.833 Y138.014 E20.55339
G1 X55.175 Y137.616 E20.57896
G1 X54.627 Y137.206 E20.60173
G1 X54.174 Y136.833 E20.62125
G1 X53.607 Y136.314 E20.64681
G1 X53.164 Y135.822 E20.66883
G1 X52.792 Y135.37 E20.6883
G1 X52.335 Y134.752 E20.71387
G1 X51.982 Y134.161 E20.73676
G1 X51.703 Y133.64 E20.75642
G1 X51.376 Y132.944 E20.782
G1 X51.142 Y132.281 E20.80538
G1 X50.973 Y131.72 E20.82487
G1 X50.789 Y130.973 E20.85046
G1 X50.692 Y130.299 E20.8731
G1 X50.637 Y129.731 E20.89208
G1 X50.603 Y129.019 E20.91579
G1 X50.6 Y91.002 E22.18024
G1 X50.636 Y90.275 E22.20445
G1 X50.694 Y89.687 E22.2241
G1 X50.809 Y88.926 E22.2497
G1 X50.974 Y88.275 E22.27204
G1 X51.143 Y87.715 E22.29149
G1 X51.403 Y86.991 E22.31708
G1 X51.706 Y86.355 E22.34051
G1 X51.986 Y85.833 E22.36021
G1 X52.384 Y85.175 E22.38579
G1 X52.792 Y84.63 E22.40843
G1 X53.163 Y84.179 E22.42786
G1 X53.682 Y83.611 E22.45345
G1 X54.174 Y83.167 E22.47549
G1 X54.627 Y82.794 E22.49501
G1 X55.246 Y82.337 E22.5206
G0 F6000 X55.484 Y82.659
G1 F1200 X56.022 Y82.338 E22.54144
G1 X56.544 Y82.058 E22.56114
G1 X57.221 Y81.741 E22.586
G1 X57.834 Y81.525 E22.60762
G1 X58.395 Y81.356 E22.62711
G1 X59.122 Y81.178 E22.652
G1 X59.742 Y81.09 E22.67283
G1 X60.312 Y81.035 E22.69187
G1 X60.957 Y81.003 E22.71335
G1 X61.721 Y81 E22.73876
G1 X158.999 Y81 E25.97424
G1 X159.687 Y81.034 E25.99715
G1 X160.274 Y81.092 E26.01677
G1 X161.014 Y81.205 E26.04167
G1 X161.605 Y81.356 E26.06196
G1 X162.166 Y81.525 E26.08145
G1 X162.87 Y81.778 E26.10633
G1 X163.456 Y82.058 E26.12793
G1 X163.978 Y82.338 E26.14763
G1 X164.617 Y82.727 E26.17251
G1 X165.116 Y83.101 E26.19325
G1 X165.567 Y83.472 E26.21268
G1 X166.119 Y83.977 E26.23756
G1 X166.524 Y84.428 E26.25772
G1 X166.897 Y84.881 E26.27724
G1 X167.341 Y85.484 E26.30214
G1 X167.662 Y86.022 E26.32298
G1 X167.942 Y86.544 E26.34268
G1 X168.259 Y87.221 E26.36755
G1 X168.474 Y87.831 E26.38906
G1 X168.643 Y88.391 E26.40851
G1 X168.821 Y89.117 E26.43338
G1 X168.91 Y89.74 E26.45431
G1 X168.965 Y90.309 E26.47332
G1 X168.997 Y90.981 E26.4957
G1 X169 Y128.998 E27.76015
G1 X168.966 Y129.687 E27.78309
G1 X168.908 Y130.274 E27.80271
G1 X168.795 Y131.014 E27.82761
G1 X168.644 Y131.605 E27.8479
G1 X168.475 Y132.166 E27.86738
G1 X168.222 Y132.87 E27.89226
G1 X167.944 Y133.452 E27.91372
G1 X167.665 Y133.973 E27.93337
G1 X167.277 Y134.612 E27.95824
G1 X166.899 Y135.116 E27.97919
G1 X166.527 Y135.568 E27.99866
G1 X166.021 Y136.12 E28.02357
G1 X165.572 Y136.524 E28.04366
G1 X165.119 Y136.897 E28.06317
G1 X164.516 Y137.341 E28.08808
G1 X163.978 Y137.662 E28.10892
G1 X163.456 Y137.942 E28.12862
G1 X162.779 Y138.259 E28.15348
G1 X162.166 Y138.475 E28.1751
G1 X161.605 Y138.644 E28.19459
G1 X160.878 Y138.822 E28.21948
G1 X160.258 Y138.91 E28.24031
G1 X159.688 Y138.965 E28.25936
G1 X159.016 Y138.997 E28.28173
G1 X62.308 Y139 E31.49825
G1 X61.001 Y139 E31.54172
G1 X60.313 Y138.966 E31.56464
G1 X59.726 Y138.908 E31.58425
G1 X58.986 Y138.795 E31.60915
G1 X58.395 Y138.644 E31.62944
G1 X57.834 Y138.475 E31.64893
G1 X57.13 Y138.222 E31.67381
G1 X56.544 Y137.942 E31.69541
G1 X56.022 Y137.662 E31.71511
G1 X55.383 Y137.273 E31.73999
G1 X54.881 Y136.897 E31.76085
G1 X54.428 Y136.524 E31.78037
G1 X53.877 Y136.018 E31.80525
G1 X53.473 Y135.568 E31.82537
G1 X53.101 Y135.116 E31.84484
G1 X52.657 Y134.514 E31.86972
G1 X52.335 Y133.973 E31.89066
G1 X52.056 Y133.452 E31.91031
G1 X51.739 Y132.774 E31.93521
G1 X51.525 Y132.166 E31.95664
G1 X51.356 Y131.605 E31.97613
G1 X51.178 Y130.878 E32.00103
G1 X51.091 Y130.261 E32.02175
G1 X51.036 Y129.693 E32.04073
G1 X51.003 Y129.019 E32.06317
G1 X51 Y91.002 E33.32763
G1 X51.034 Y90.314 E33.35054
G1 X51.092 Y89.726 E33.37019
G1 X51.205 Y88.986 E33.39509
G1 X51.357 Y88.391 E33.41551
G1 X51.526 Y87.831 E33.43497
G1 X51.78 Y87.127 E33.45986
G1 X52.058 Y86.544 E33.48134
G1 X52.338 Y86.022 E33.50104
G1 X52.727 Y85.383 E33.52592
G1 X53.101 Y84.884 E33.54667
G1 X53.472 Y84.433 E33.56609
G1 X53.977 Y83.881 E33.59097
G1 X54.428 Y83.476 E33.61113
G1 X54.881 Y83.103 E33.63065
G1 X55.484 Y82.659 E33.65556
G0 F6000 X55.721 Y82.982
G1 F1200 X56.211 Y82.691 E33.67451
G1 X56.733 Y82.411 E33.69421
G1 X57.391 Y82.103 E33.71838
G1 X57.949 Y81.908 E33.73804
G1 X58.51 Y81.739 E33.75752
G1 X59.216 Y81.568 E33.78169
G1 X59.78 Y81.489 E33.80063
G1 X60.35 Y81.434 E33.81967
G1 X60.958 Y81.403 E33.83992
G1 X61.722 Y81.4 E33.86533
G1 X158.999 Y81.4 E37.10078
G1 X159.648 Y81.432 E37.12239
G1 X160.235 Y81.49 E37.14201
G1 X160.953 Y81.601 E37.16617
G1 X161.49 Y81.739 E37.18462
G1 X162.051 Y81.908 E37.2041
G1 X162.734 Y82.155 E37.22826
G1 X163.267 Y82.411 E37.24793
G1 X163.789 Y82.691 E37.26763
G1 X164.409 Y83.069 E37.29178
G1 X164.862 Y83.41 E37.31064
G1 X165.313 Y83.781 E37.33006
G1 X165.848 Y84.273 E37.35424
G1 X166.215 Y84.683 E37.37254
G1 X166.588 Y85.136 E37.39205
G1 X167.018 Y85.721 E37.4162
G1 X167.309 Y86.211 E37.43516
G1 X167.589 Y86.733 E37.45486
G1 X167.897 Y87.391 E37.47902
G1 X168.092 Y87.946 E37.49859
G1 X168.261 Y88.506 E37.51804
G1 X168.432 Y89.212 E37.5422
G1 X168.511 Y89.778 E37.56121
G1 X168.566 Y90.347 E37.58023
G1 X168.597 Y90.981 E37.60134
G1 X168.6 Y128.998 E38.86579
G1 X168.568 Y129.648 E38.88743
G1 X168.51 Y130.235 E38.90705
G1 X168.399 Y130.953 E38.93122
G1 X168.261 Y131.49 E38.94966
G1 X168.092 Y132.051 E38.96915
G1 X167.845 Y132.734 E38.9933
G1 X167.591 Y133.263 E39.01282
G1 X167.312 Y133.784 E39.03248
G1 X166.935 Y134.404 E39.05661
G1 X166.59 Y134.862 E39.07568
G1 X166.218 Y135.314 E39.09515
G1 X165.726 Y135.849 E39.11933
G1 X165.317 Y136.215 E39.13758
G1 X164.864 Y136.588 E39.1571
G1 X164.279 Y137.018 E39.18125
G1 X163.789 Y137.309 E39.2002
G1 X163.267 Y137.589 E39.2199
G1 X162.609 Y137.897 E39.24407
G1 X162.051 Y138.092 E39.26373
G1 X161.49 Y138.261 E39.28321
G1 X160.784 Y138.432 E39.30738
G1 X160.22 Y138.511 E39.32632
G1 X159.65 Y138.566 E39.34536
G1 X159.016 Y138.597 E39.36648
G1 X62.308 Y138.6 E42.583
G1 X61.001 Y138.6 E42.62647
G1 X60.352 Y138.568 E42.64808
G1 X59.765 Y138.51 E42.6677
G1 X59.047 Y138.399 E42.69186
G1 X58.51 Y138.261 E42.7103
G1 X57.949 Y138.092 E42.72979
G1 X57.266 Y137.845 E42.75395
G1 X56.733 Y137.589 E42.77361
G1 X56.211 Y137.309 E42.79332
G1 X55.591 Y136.931 E42.81747
G1 X55.136 Y136.588 E42.83642
G1 X54.683 Y136.215 E42.85594
G1 X54.148 Y135.723 E42.88011
G1 X53.782 Y135.314 E42.89837
G1 X53.41 Y134.862 E42.91784
G1 X52.98 Y134.277 E42.94198
G1 X52.688 Y133.784 E42.96104
G1 X52.409 Y133.263 E42.9807
G1 X52.102 Y132.605 E43.00485
G1 X51.908 Y132.051 E43.02437
G1 X51.739 Y131.49 E43.04386
G1 X51.568 Y130.784 E43.06802
G1 X51.489 Y130.222 E43.0869
G1 X51.434 Y129.654 E43.10588
G1 X51.403 Y129.019 E43.12702
G1 X51.4 Y91.002 E44.39147
G1 X51.432 Y90.353 E44.41308
G1 X51.49 Y89.765 E44.43274
G1 X51.601 Y89.047 E44.4569
G1 X51.739 Y88.506 E44.47547
G1 X51.908 Y87.946 E44.49493
G1 X52.156 Y87.263 E44.51909
G1 X52.411 Y86.733 E44.53866
G1 X52.691 Y86.211 E44.55836
G1 X53.069 Y85.591 E44.58251
G1 X53.41 Y85.138 E44.60137
G1 X53.781 Y84.687 E44.62079
G1 X54.273 Y84.152 E44.64497
G1 X54.683 Y83.785 E44.66327
G1 X55.136 Y83.412 E44.68278
G1 X55.721 Y82.982 E44.70693
G0 F6000 X55.958 Y83.305
G1 F1200 X56.4 Y83.043 E44.72402
G1 X56.922 Y82.763 E44.74372
G1 X57.561 Y82.466 E44.76716
G1 X58.065 Y82.291 E44.78491
G1 X58.626 Y82.122 E44.80439
G1 X59.31 Y81.957 E44.82779
G1 X59.819 Y81.887 E44.84488
G1 X60.389 Y81.832 E44.86393
G1 X60.96 Y81.803 E44.88295
G1 X61.724 Y81.8 E44.90836
G1 X158.999 Y81.8 E48.14374
G1 X159.609 Y81.83 E48.16405
G1 X160.196 Y81.888 E48.18367
G1 X160.891 Y81.997 E48.20707
G1 X161.374 Y82.122 E48.22366
G1 X161.935 Y82.291 E48.24315
G1 X162.597 Y82.532 E48.26658
G1 X163.078 Y82.763 E48.28433
G1 X163.6 Y83.043 E48.30403
G1 X164.2 Y83.411 E48.32744
G1 X164.608 Y83.719 E48.34444
G1 X165.059 Y84.09 E48.36387
G1 X165.576 Y84.567 E48.38726
G1 X165.906 Y84.937 E48.40375
G1 X166.279 Y85.39 E48.42327
G1 X166.695 Y85.958 E48.44669
G1 X166.957 Y86.4 E48.46378
G1 X167.237 Y86.922 E48.48348
G1 X167.534 Y87.561 E48.50691
G1 X167.709 Y88.062 E48.52456
G1 X167.878 Y88.622 E48.54402
G1 X168.042 Y89.306 E48.56741
G1 X168.113 Y89.816 E48.58454
G1 X168.168 Y90.385 E48.60355
G1 X168.197 Y90.982 E48.62343
G1 X168.2 Y128.999 E49.88788
G1 X168.17 Y129.609 E49.9082
G1 X168.112 Y130.196 E49.92782
G1 X168.003 Y130.891 E49.95121
G1 X167.878 Y131.374 E49.96781
G1 X167.709 Y131.935 E49.9873
G1 X167.468 Y132.597 E50.01073
G1 X167.239 Y133.074 E50.02833
G1 X166.96 Y133.595 E50.04798
G1 X166.593 Y134.196 E50.0714
G1 X166.281 Y134.608 E50.08859
G1 X165.909 Y135.06 E50.10806
G1 X165.432 Y135.577 E50.13146
G1 X165.063 Y135.906 E50.1479
G1 X164.61 Y136.279 E50.16742
G1 X164.042 Y136.695 E50.19084
G1 X163.6 Y136.957 E50.20793
G1 X163.078 Y137.237 E50.22763
G1 X162.439 Y137.534 E50.25107
G1 X161.935 Y137.709 E50.26881
G1 X161.374 Y137.878 E50.2883
G1 X160.69 Y138.043 E50.3117
G1 X160.181 Y138.113 E50.32879
G1 X159.611 Y138.168 E50.34783
G1 X159.016 Y138.197 E50.36765
G1 X62.308 Y138.2 E53.58417
G1 X61.001 Y138.2 E53.62764
G1 X60.391 Y138.17 E53.64795
G1 X59.804 Y138.112 E53.66757
G1 X59.109 Y138.003 E53.69097
G1 X58.626 Y137.878 E53.70756
G1 X58.065 Y137.709 E53.72705
G1 X57.403 Y137.468 E53.75048
G1 X56.922 Y137.237 E53.76823
G1 X56.4 Y136.957 E53.78793
G1 X55.8 Y136.589 E53.81134
G1 X55.39 Y136.279 E53.82844
G1 X54.937 Y135.906 E53.84796
G1 X54.42 Y135.429 E53.87135
G1 X54.091 Y135.06 E53.8878
G1 X53.719 Y134.608 E53.90727
G1 X53.303 Y134.04 E53.93068
G1 X53.04 Y133.595 E53.94787
G1 X52.761 Y133.074 E53.96753
G1 X52.465 Y132.435 E53.99095
G1 X52.291 Y131.935 E54.00856
G1 X52.122 Y131.374 E54.02805
G1 X51.957 Y130.69 E54.05145
G1 X51.887 Y130.184 E54.06844
G1 X51.832 Y129.616 E54.08742
G1 X51.803 Y129.018 E54.10734
G1 X51.8 Y91.001 E55.37179
G1 X51.83 Y90.392 E55.39207
G1 X51.888 Y89.804 E55.41172
G1 X51.997 Y89.109 E55.43512
G1 X52.122 Y88.622 E55.45184
G1 X52.291 Y88.062 E55.47129
G1 X52.533 Y87.4 E55.49474
G1 X52.763 Y86.922 E55.51238
G1 X53.043 Y86.4 E55.53208
G1 X53.411 Y85.8 E55.55549
G1 X53.719 Y85.392 E55.5725
