;FLAVOR:Marlin
;TIME:776
;Filament used: 0.433204m
;Layer height: 0.2
;MINX:87.2
;MINY:97.2
;MINZ:0.2
;MAXX:132.8
;MAXY:122.8
;MAXZ:7
;Generated with Cura_SteamEngine 4.4.1
M140 S60
M105
M190 S60
M104 S200
M105
M109 S200
M82 ;absolute extrusion mode
M201 X500.00 Y500.00 Z100.00 E5000.00 ;Setup machine max acceleration
M203 X500.00 Y500.00 Z10.00 E50.00 ;Setup machine max feedrate
M204 P500.00 R1000.00 T500.00 ;Setup Print/Retract/Travel acceleration
M205 X8.00 Y8.00 Z0.40 E5.00 ;Setup Jerk
M220 S100 ;Reset Feedrate
M221 S100 ;Reset Flowrate

G28 ;Home
G29 ;Auto bed level

G92 E0 ;Reset Extruder
G1 Z2.0 F3000 ;Move Z Axis up
G1 X10.1 Y20 Z0.28 F5000.0 ;Move to start position
G1 X10.1 Y200.0 Z0.28 F1500.0 E15 ;Draw the first line
G1 X10.4 Y200.0 Z0.28 F5000.0 ;Move to side a little
G1 X10.4 Y20 Z0.28 F1500.0 E30 ;Draw the second line
G92 E0 ;Reset Extruder
G1 Z2.0 F3000 ;Move Z Axis up
G92 E0
G92 E0
G1 F1500 E-6.5
;LAYER_COUNT:35
;LAYER:0
M107
G0 F6000 X90.683 Y100.062 Z0.2
;TYPE:SKIRT
G1 F1500 E0
G1 F1200 X90.935 Y99.837 E0.01124
G1 X91.603 Y99.303 E0.03968
G1 X91.878 Y99.107 E0.05091
G1 X92.621 Y98.638 E0.08014
G1 X92.913 Y98.476 E0.09124
G1 X93.709 Y98.092 E0.12064
G1 X94.02 Y97.963 E0.13184
G1 X94.85 Y97.673 E0.16108
G1 X95.173 Y97.58 E0.17226
G1 X96.041 Y97.382 E0.20187
G1 X96.375 Y97.326 E0.21313
G1 X97.223 Y97.232 E0.24151
G1 X97.558 Y97.213 E0.25267
G1 X98 Y97.2 E0.26738
G1 X122 Y97.2 E1.06562
G1 X122.442 Y97.213 E1.08033
G1 X122.777 Y97.232 E1.09149
G1 X123.625 Y97.326 E1.11987
G1 X123.959 Y97.382 E1.13113
G1 X124.827 Y97.58 E1.16074
G1 X125.15 Y97.673 E1.17192
G1 X125.977 Y97.962 E1.20106
G1 X126.286 Y98.09 E1.21218
G1 X127.083 Y98.474 E1.24161
G1 X127.377 Y98.637 E1.25279
G1 X128.118 Y99.104 E1.28192
G1 X128.392 Y99.299 E1.29311
G1 X129.063 Y99.834 E1.32165
G1 X129.314 Y100.058 E1.33284
G1 X129.938 Y100.683 E1.36221
G1 X130.163 Y100.935 E1.37345
G1 X130.692 Y101.596 E1.40161
G1 X130.887 Y101.869 E1.41277
G1 X131.362 Y102.621 E1.44235
G1 X131.525 Y102.915 E1.45353
G1 X131.908 Y103.709 E1.48285
G1 X132.037 Y104.02 E1.49405
G1 X132.327 Y104.85 E1.52329
G1 X132.42 Y105.173 E1.53447
G1 X132.616 Y106.034 E1.56384
G1 X132.672 Y106.366 E1.57504
G1 X132.769 Y107.223 E1.60372
G1 X132.788 Y107.559 E1.61492
G1 X132.8 Y107.999 E1.62956
G1 X132.8 Y112 E1.76263
G1 X132.787 Y112.442 E1.77734
G1 X132.768 Y112.777 E1.7885
G1 X132.675 Y113.614 E1.81651
G1 X132.62 Y113.945 E1.82767
G1 X132.423 Y114.818 E1.85743
G1 X132.33 Y115.142 E1.86865
G1 X132.038 Y115.978 E1.8981
G1 X131.909 Y116.289 E1.9093
G1 X131.526 Y117.083 E1.93862
G1 X131.363 Y117.377 E1.9498
G1 X130.896 Y118.118 E1.97893
G1 X130.701 Y118.392 E1.99012
G1 X130.166 Y119.063 E2.01866
G1 X129.942 Y119.314 E2.02985
G1 X129.317 Y119.938 E2.05922
G1 X129.065 Y120.163 E2.07046
G1 X128.386 Y120.705 E2.09936
G1 X128.11 Y120.901 E2.11061
G1 X127.388 Y121.356 E2.139
G1 X127.097 Y121.518 E2.15008
G1 X126.291 Y121.908 E2.17986
G1 X125.98 Y122.037 E2.19106
G1 X125.15 Y122.327 E2.2203
G1 X124.827 Y122.42 E2.23148
G1 X123.959 Y122.618 E2.26109
G1 X123.625 Y122.674 E2.27235
G1 X122.777 Y122.768 E2.30073
G1 X122.442 Y122.787 E2.31189
G1 X122 Y122.8 E2.3266
G1 X98 Y122.8 E3.12484
G1 X97.558 Y122.787 E3.13955
G1 X97.223 Y122.768 E3.15071
G1 X96.375 Y122.674 E3.17909
G1 X96.041 Y122.618 E3.19035
G1 X95.173 Y122.42 E3.21996
G1 X94.85 Y122.327 E3.23114
G1 X94.02 Y122.037 E3.26038
G1 X93.709 Y121.908 E3.27158
G1 X92.903 Y121.518 E3.30136
G1 X92.612 Y121.356 E3.31244
G1 X91.89 Y120.901 E3.34082
G1 X91.614 Y120.705 E3.35208
G1 X90.935 Y120.163 E3.38098
G1 X90.683 Y119.938 E3.39222
G1 X90.058 Y119.314 E3.42159
G1 X89.834 Y119.063 E3.43278
G1 X89.299 Y118.392 E3.46132
G1 X89.104 Y118.118 E3.47251
G1 X88.637 Y117.377 E3.50164
G1 X88.474 Y117.083 E3.51282
G1 X88.091 Y116.289 E3.54214
G1 X87.962 Y115.978 E3.55334
G1 X87.67 Y115.142 E3.58279
G1 X87.577 Y114.818 E3.594
G1 X87.38 Y113.945 E3.62377
G1 X87.325 Y113.614 E3.63493
G1 X87.232 Y112.778 E3.66291
G1 X87.213 Y112.444 E3.67403
G1 X87.2 Y112.001 E3.68878
G1 X87.2 Y108 E3.82185
G1 X87.213 Y107.558 E3.83656
G1 X87.232 Y107.223 E3.84772
G1 X87.325 Y106.386 E3.87573
G1 X87.38 Y106.055 E3.88689
G1 X87.577 Y105.182 E3.91665
G1 X87.67 Y104.858 E3.92786
G1 X87.962 Y104.022 E3.95732
G1 X88.091 Y103.711 E3.96852
G1 X88.474 Y102.917 E3.99784
G1 X88.637 Y102.623 E4.00902
G1 X89.104 Y101.882 E4.03815
G1 X89.299 Y101.608 E4.04933
G1 X89.834 Y100.937 E4.07788
G1 X90.058 Y100.686 E4.08907
G1 X90.683 Y100.062 E4.11844
G0 F6000 X90.949 Y100.36
G1 F1200 X91.201 Y100.135 E4.12968
G1 X91.835 Y99.629 E4.15666
G1 X92.11 Y99.433 E4.16789
G1 X92.815 Y98.988 E4.19562
G1 X93.107 Y98.826 E4.20672
G1 X93.862 Y98.462 E4.2346
G1 X94.173 Y98.333 E4.2458
G1 X94.961 Y98.057 E4.27357
G1 X95.284 Y97.964 E4.28475
G1 X96.107 Y97.777 E4.31282
G1 X96.441 Y97.721 E4.32408
G1 X97.246 Y97.631 E4.35103
G1 X97.581 Y97.612 E4.36219
G1 X98 Y97.6 E4.37613
G1 X122 Y97.6 E5.17437
G1 X122.419 Y97.612 E5.18831
G1 X122.754 Y97.631 E5.19947
G1 X123.559 Y97.721 E5.22641
G1 X123.893 Y97.777 E5.23768
G1 X124.716 Y97.964 E5.26575
G1 X125.039 Y98.057 E5.27693
G1 X125.824 Y98.331 E5.30458
G1 X126.133 Y98.459 E5.31571
G1 X126.889 Y98.824 E5.34363
G1 X127.183 Y98.987 E5.35481
G1 X127.886 Y99.43 E5.38245
G1 X128.16 Y99.625 E5.39363
G1 X128.796 Y100.133 E5.4207
G1 X129.047 Y100.357 E5.43189
G1 X129.64 Y100.949 E5.45976
G1 X129.865 Y101.201 E5.471
G1 X130.367 Y101.829 E5.49774
G1 X130.562 Y102.102 E5.5089
G1 X131.012 Y102.815 E5.53694
G1 X131.175 Y103.109 E5.54812
G1 X131.538 Y103.862 E5.57593
G1 X131.667 Y104.173 E5.58712
G1 X131.943 Y104.961 E5.61489
G1 X132.036 Y105.284 E5.62607
G1 X132.222 Y106.1 E5.65391
G1 X132.278 Y106.432 E5.66511
G1 X132.369 Y107.245 E5.69232
G1 X132.388 Y107.581 E5.70351
G1 X132.4 Y107.999 E5.71742
G1 X132.4 Y112 E5.85049
G1 X132.388 Y112.419 E5.86443
G1 X132.369 Y112.754 E5.87559
G1 X132.281 Y113.548 E5.90216
G1 X132.226 Y113.879 E5.91332
G1 X132.039 Y114.708 E5.94159
G1 X131.946 Y115.032 E5.9528
G1 X131.668 Y115.825 E5.98075
G1 X131.539 Y116.136 E5.99195
G1 X131.176 Y116.889 E6.01975
G1 X131.013 Y117.183 E6.03093
G1 X130.57 Y117.886 E6.05857
G1 X130.375 Y118.16 E6.06976
G1 X129.867 Y118.796 E6.09683
G1 X129.643 Y119.047 E6.10802
G1 X129.051 Y119.64 E6.13589
G1 X128.799 Y119.865 E6.14712
G1 X128.155 Y120.378 E6.17451
G1 X127.879 Y120.574 E6.18577
G1 X127.193 Y121.007 E6.21275
G1 X126.902 Y121.169 E6.22383
G1 X126.138 Y121.538 E6.25205
G1 X125.827 Y121.667 E6.26324
G1 X125.039 Y121.943 E6.29101
G1 X124.716 Y122.036 E6.30219
G1 X123.893 Y122.223 E6.33026
G1 X123.559 Y122.279 E6.34153
G1 X122.754 Y122.369 E6.36847
G1 X122.419 Y122.388 E6.37963
G1 X122 Y122.4 E6.39357
G1 X98 Y122.4 E7.19181
G1 X97.581 Y122.388 E7.20576
G1 X97.246 Y122.369 E7.21692
G1 X96.441 Y122.279 E7.24386
G1 X96.107 Y122.223 E7.25512
G1 X95.284 Y122.036 E7.28319
G1 X94.961 Y121.943 E7.29437
G1 X94.173 Y121.667 E7.32214
G1 X93.862 Y121.538 E7.33334
G1 X93.098 Y121.169 E7.36156
G1 X92.807 Y121.007 E7.37264
G1 X92.121 Y120.574 E7.39962
G1 X91.845 Y120.378 E7.41088
G1 X91.201 Y119.865 E7.43826
G1 X90.949 Y119.64 E7.4495
G1 X90.357 Y119.047 E7.47737
G1 X90.133 Y118.796 E7.48856
G1 X89.625 Y118.16 E7.51563
G1 X89.43 Y117.886 E7.52682
G1 X88.987 Y117.183 E7.55445
G1 X88.824 Y116.889 E7.56563
G1 X88.461 Y116.136 E7.59344
G1 X88.332 Y115.825 E7.60464
G1 X88.054 Y115.032 E7.63258
G1 X87.961 Y114.708 E7.6438
G1 X87.774 Y113.879 E7.67206
G1 X87.719 Y113.548 E7.68322
G1 X87.631 Y112.755 E7.70976
G1 X87.612 Y112.421 E7.72089
G1 X87.6 Y112.001 E7.73486
G1 X87.6 Y108 E7.86793
G1 X87.612 Y107.581 E7.88188
G1 X87.631 Y107.246 E7.89304
G1 X87.719 Y106.452 E7.91961
G1 X87.774 Y106.121 E7.93077
G1 X87.961 Y105.292 E7.95903
G1 X88.054 Y104.968 E7.97024
G1 X88.332 Y104.175 E7.99819
G1 X88.461 Y103.864 E8.00939
G1 X88.824 Y103.111 E8.03719
G1 X88.987 Y102.817 E8.04837
G1 X89.43 Y102.114 E8.07601
G1 X89.625 Y101.84 E8.0872
G1 X90.133 Y101.204 E8.11427
G1 X90.357 Y100.953 E8.12546
G1 X90.949 Y100.36 E8.15333
G0 F6000 X91.216 Y100.658
G1 F1200 X91.468 Y100.433 E8.16457
G1 X92.067 Y99.955 E8.19005
G1 X92.342 Y99.759 E8.20129
G1 X93.009 Y99.338 E8.22752
G1 X93.301 Y99.176 E8.23863
G1 X94.015 Y98.831 E8.265
G1 X94.326 Y98.702 E8.2762
G1 X95.071 Y98.441 E8.30245
G1 X95.394 Y98.348 E8.31363
G1 X96.174 Y98.171 E8.34024
G1 X96.508 Y98.115 E8.3515
G1 X97.269 Y98.03 E8.37697
G1 X97.604 Y98.011 E8.38813
G1 X98 Y98 E8.40131
G1 X122 Y98 E9.19955
G1 X122.396 Y98.011 E9.21272
G1 X122.731 Y98.03 E9.22388
G1 X123.492 Y98.115 E9.24935
G1 X123.826 Y98.171 E9.26062
G1 X124.606 Y98.348 E9.28722
G1 X124.929 Y98.441 E9.2984
G1 X125.671 Y98.701 E9.32455
G1 X125.98 Y98.829 E9.33567
G1 X126.695 Y99.174 E9.36208
G1 X126.989 Y99.337 E9.37326
G1 X127.654 Y99.756 E9.3994
G1 X127.928 Y99.951 E9.41059
G1 X128.53 Y100.431 E9.43619
G1 X128.781 Y100.655 E9.44738
G1 X129.342 Y101.216 E9.47377
G1 X129.567 Y101.468 E9.48501
G1 X130.041 Y102.061 E9.51026
G1 X130.236 Y102.334 E9.52142
G1 X130.662 Y103.009 E9.54796
G1 X130.825 Y103.303 E9.55915
G1 X131.169 Y104.015 E9.58545
G1 X131.298 Y104.326 E9.59664
G1 X131.559 Y105.071 E9.6229
G1 X131.652 Y105.394 E9.63408
G1 X131.827 Y106.167 E9.66044
G1 X131.883 Y106.499 E9.67164
G1 X131.97 Y107.268 E9.69738
G1 X131.989 Y107.604 E9.70857
G1 X132 Y107.999 E9.72171
G1 X132 Y112 E9.85479
G1 X131.989 Y112.396 E9.86796
G1 X131.97 Y112.731 E9.87912
G1 X131.886 Y113.482 E9.90426
G1 X131.831 Y113.813 E9.91542
G1 X131.654 Y114.597 E9.94215
G1 X131.561 Y114.921 E9.95336
G1 X131.299 Y115.672 E9.97982
G1 X131.17 Y115.983 E9.99102
G1 X130.826 Y116.695 E10.01732
G1 X130.663 Y116.989 E10.0285
G1 X130.244 Y117.654 E10.05464
G1 X130.049 Y117.928 E10.06582
G1 X129.569 Y118.53 E10.09143
G1 X129.345 Y118.781 E10.10262
G1 X128.784 Y119.342 E10.12901
G1 X128.532 Y119.567 E10.14025
G1 X127.923 Y120.052 E10.16614
G1 X127.647 Y120.248 E10.1774
G1 X126.999 Y120.657 E10.20289
G1 X126.708 Y120.819 E10.21396
G1 X125.985 Y121.169 E10.24068
G1 X125.674 Y121.298 E10.25188
G1 X124.929 Y121.559 E10.27813
G1 X124.606 Y121.652 E10.28931
G1 X123.826 Y121.829 E10.31591
G1 X123.492 Y121.885 E10.32718
G1 X122.731 Y121.97 E10.35265
G1 X122.396 Y121.989 E10.36381
G1 X122 Y122 E10.37698
G1 X98 Y122 E11.17523
G1 X97.604 Y121.989 E11.1884
G1 X97.269 Y121.97 E11.19956
G1 X96.508 Y121.885 E11.22503
G1 X96.174 Y121.829 E11.2363
G1 X95.394 Y121.652 E11.2629
G1 X95.071 Y121.559 E11.27408
G1 X94.326 Y121.298 E11.30033
G1 X94.015 Y121.169 E11.31153
G1 X93.292 Y120.819 E11.33825
G1 X93.001 Y120.657 E11.34932
G1 X92.353 Y120.248 E11.37481
G1 X92.077 Y120.052 E11.38607
G1 X91.468 Y119.567 E11.41196
G1 X91.216 Y119.342 E11.4232
G1 X90.655 Y118.781 E11.44959
G1 X90.431 Y118.53 E11.46078
G1 X89.951 Y117.928 E11.48639
G1 X89.756 Y117.654 E11.49757
G1 X89.337 Y116.989 E11.52371
G1 X89.174 Y116.695 E11.53489
G1 X88.83 Y115.983 E11.56119
G1 X88.701 Y115.672 E11.57239
G1 X88.439 Y114.921 E11.59885
G1 X88.346 Y114.597 E11.61006
G1 X88.169 Y113.813 E11.63679
G1 X88.114 Y113.482 E11.64795
G1 X88.03 Y112.733 E11.67302
G1 X88.011 Y112.399 E11.68415
G1 X88 Y112.001 E11.69739
G1 X88 Y108 E11.83046
G1 X88.011 Y107.604 E11.84364
G1 X88.03 Y107.269 E11.8548
G1 X88.114 Y106.518 E11.87993
G1 X88.169 Y106.187 E11.89109
G1 X88.346 Y105.403 E11.91783
G1 X88.439 Y105.079 E11.92904
G1 X88.701 Y104.328 E11.95549
G1 X88.83 Y104.017 E11.96669
G1 X89.174 Y103.305 E11.99299
G1 X89.337 Y103.011 E12.00417
G1 X89.756 Y102.346 E12.03031
G1 X89.951 Y102.072 E12.0415
G1 X90.431 Y101.47 E12.06711
G1 X90.655 Y101.219 E12.0783
G1 X91.216 Y100.658 E12.10468
G0 F6000 X91.482 Y100.957
G1 F1200 X91.734 Y100.732 E12.11592
G1 X92.299 Y100.28 E12.13999
G1 X92.574 Y100.084 E12.15122
G1 X93.203 Y99.688 E12.17594
G1 X93.495 Y99.526 E12.18705
G1 X94.168 Y99.201 E12.2119
G1 X94.479 Y99.072 E12.2231
G1 X95.182 Y98.826 E12.24787
G1 X95.505 Y98.733 E12.25905
G1 X96.24 Y98.566 E12.28412
G1 X96.574 Y98.51 E12.29539
G1 X97.291 Y98.43 E12.31938
G1 X97.626 Y98.411 E12.33054
G1 X98 Y98.4 E12.34299
G1 X122 Y98.4 E13.14123
G1 X122.374 Y98.411 E13.15367
G1 X122.709 Y98.43 E13.16483
G1 X123.426 Y98.51 E13.18883
G1 X123.76 Y98.566 E13.20009
G1 X124.495 Y98.733 E13.22516
G1 X124.818 Y98.826 E13.23634
G1 X125.518 Y99.07 E13.261
G1 X125.827 Y99.198 E13.27212
G1 X126.501 Y99.524 E13.29703
G1 X126.795 Y99.687 E13.30821
G1 X127.422 Y100.082 E13.33285
G1 X127.696 Y100.277 E13.34404
G1 X128.264 Y100.73 E13.3682
G1 X128.515 Y100.954 E13.37939
G1 X129.043 Y101.482 E13.40423
G1 X129.268 Y101.734 E13.41546
G1 X129.716 Y102.294 E13.43932
G1 X129.911 Y102.567 E13.45048
G1 X130.312 Y103.203 E13.47548
G1 X130.475 Y103.497 E13.48666
G1 X130.799 Y104.168 E13.51145
G1 X130.928 Y104.479 E13.52264
G1 X131.174 Y105.182 E13.54742
G1 X131.267 Y105.505 E13.5586
G1 X131.433 Y106.233 E13.58343
G1 X131.489 Y106.565 E13.59463
G1 X131.57 Y107.29 E13.61889
G1 X131.589 Y107.626 E13.63009
G1 X131.6 Y107.999 E13.6425
G1 X131.6 Y112 E13.77557
G1 X131.589 Y112.374 E13.78802
G1 X131.57 Y112.709 E13.79918
G1 X131.492 Y113.417 E13.82287
G1 X131.437 Y113.748 E13.83403
G1 X131.27 Y114.487 E13.85923
G1 X131.177 Y114.811 E13.87044
G1 X130.929 Y115.519 E13.89539
G1 X130.8 Y115.83 E13.90659
G1 X130.476 Y116.501 E13.93137
G1 X130.313 Y116.795 E13.94255
G1 X129.918 Y117.422 E13.9672
G1 X129.723 Y117.696 E13.97838
G1 X129.27 Y118.264 E14.00255
G1 X129.046 Y118.515 E14.01374
G1 X128.518 Y119.043 E14.03857
G1 X128.266 Y119.268 E14.04981
G1 X127.691 Y119.726 E14.07426
G1 X127.415 Y119.922 E14.08552
G1 X126.804 Y120.308 E14.10956
G1 X126.513 Y120.47 E14.12063
G1 X125.832 Y120.799 E14.14579
G1 X125.521 Y120.928 E14.15699
G1 X124.818 Y121.174 E14.18176
G1 X124.495 Y121.267 E14.19294
G1 X123.76 Y121.434 E14.21801
G1 X123.426 Y121.49 E14.22927
G1 X122.709 Y121.57 E14.25327
G1 X122.374 Y121.589 E14.26443
G1 X122 Y121.6 E14.27687
G1 X98 Y121.6 E15.07511
G1 X97.626 Y121.589 E15.08756
G1 X97.291 Y121.57 E15.09872
G1 X96.574 Y121.49 E15.12271
G1 X96.24 Y121.434 E15.13398
G1 X95.505 Y121.267 E15.15905
G1 X95.182 Y121.174 E15.17023
G1 X94.479 Y120.928 E15.195
G1 X94.168 Y120.799 E15.2062
G1 X93.487 Y120.47 E15.23135
G1 X93.196 Y120.308 E15.24243
G1 X92.585 Y119.922 E15.26647
G1 X92.309 Y119.726 E15.27773
G1 X91.734 Y119.268 E15.30218
G1 X91.482 Y119.043 E15.31341
G1 X90.954 Y118.515 E15.33825
G1 X90.73 Y118.264 E15.34944
G1 X90.277 Y117.696 E15.3736
G1 X90.082 Y117.422 E15.38479
G1 X89.687 Y116.795 E15.40944
G1 X89.524 Y116.501 E15.42062
G1 X89.2 Y115.83 E15.4454
G1 X89.071 Y115.519 E15.4566
G1 X88.823 Y114.811 E15.48155
G1 X88.73 Y114.487 E15.49276
G1 X88.563 Y113.748 E15.51796
G1 X88.508 Y113.417 E15.52912
G1 X88.43 Y112.71 E15.55278
G1 X88.411 Y112.376 E15.5639
G1 X88.4 Y112.001 E15.57638
G1 X88.4 Y108 E15.70946
G1 X88.411 Y107.626 E15.7219
G1 X88.43 Y107.291 E15.73306
G1 X88.508 Y106.583 E15.75675
G1 X88.563 Y106.252 E15.76791
G1 X88.73 Y105.513 E15.79311
G1 X88.823 Y105.189 E15.80432
G1 X89.071 Y104.481 E15.82927
G1 X89.2 Y104.17 E15.84047
G1 X89.524 Y103.499 E15.86525
G1 X89.687 Y103.205 E15.87643
G1 X90.082 Y102.578 E15.90108
G1 X90.277 Y102.304 E15.91227
G1 X90.73 Y101.736 E15.93643
G1 X90.954 Y101.485 E15.94762
G1 X91.482 Y100.957 E15.97246
G0 F6000 X91.749 Y101.255
G1 F1200 X92.001 Y101.03 E15.98369
G1 X92.532 Y100.606 E16.00629
G1 X92.807 Y100.41 E16.01753
G1 X93.397 Y100.037 E16.04074
G1 X93.689 Y99.875 E16.05185
G1 X94.322 Y99.57 E16.07522
G1 X94.633 Y99.441 E16.08642
G1 X95.293 Y99.21 E16.10967
G1 X95.616 Y99.117 E16.12085
G1 X96.306 Y98.96 E16.14439
G1 X96.64 Y98.904 E16.15565
G1 X97.314 Y98.829 E16.17821
G1 X97.649 Y98.81 E16.18937
G1 X98 Y98.8 E16.20105
G1 X122 Y98.8 E16.99929
G1 X122.351 Y98.81 E17.01097
G1 X122.686 Y98.829 E17.02213
G1 X123.36 Y98.904 E17.04469
G1 X123.694 Y98.96 E17.05595
G1 X124.384 Y99.117 E17.07949
G1 X124.707 Y99.21 E17.09067
G1 X125.365 Y99.44 E17.11385
G1 X125.674 Y99.568 E17.12497
G1 X126.307 Y99.874 E17.14836
G1 X126.601 Y100.037 E17.15954
G1 X127.19 Y100.408 E17.18269
G1 X127.464 Y100.603 E17.19388
G1 X127.997 Y101.028 E17.21655
G1 X128.248 Y101.252 E17.22774
G1 X128.745 Y101.749 E17.25112
G1 X128.97 Y102.001 E17.26235
G1 X129.39 Y102.526 E17.28472
