;FLAVOR:Marlin
;TIME:1220
;Filament used: 0.580006m
;Layer height: 0.16
;MINX:89.7
;MINY:94.7
;MINZ:0.2
;MAXX:130.3
;MAXY:125.299
;MAXZ:10
;Generated with Cura_SteamEngine 4.4.1
M140 S60
M105
M190 S60
M104 S200
M105
M109 S200
M82 ;absolute extrusion mode
M201 X500.00 Y500.00 Z100.00 E5000.00 ;Setup machine max acceleration
M203 X500.00 Y500.00 Z10.00 E50.00 ;Setup machine max feedrate
M204 P500.00 R1000.00 T500.00 ;Setup Print/Retract/Travel acceleration
M205 X8.00 Y8.00 Z0.40 E5.00 ;Setup Jerk
M220 S100 ;Reset Feedrate
M221 S100 ;Reset Flowrate

G28 ;Home
G29 ;Auto bed level

G92 E0 ;Reset Extruder
G1 Z2.0 F3000 ;Move Z Axis up
G1 X10.1 Y20 Z0.28 F5000.0 ;Move to start position
G1 X10.1 Y200.0 Z0.28 F1500.0 E15 ;Draw the first line
G1 X10.4 Y200.0 Z0.28 F5000.0 ;Move to side a little
G1 X10.4 Y20 Z0.28 F1500.0 E30 ;Draw the second line
G92 E0 ;Reset Extruder
G1 Z2.0 F3000 ;Move Z Axis up
G92 E0
G92 E0
G1 F1500 E-6.5
;LAYER_COUNT:55
;LAYER:0
M107
G0 F6000 X92.123 Y96.849 Z0.2
;TYPE:SKIRT
G1 F1500 E0
G1 F1200 X92.722 Y96.335 E0.02625
G1 X93.37 Y95.883 E0.05253
G1 X94.06 Y95.5 E0.07878
G1 X94.786 Y95.188 E0.10506
G1 X95.539 Y94.951 E0.13132
G1 X96.312 Y94.791 E0.15757
G1 X97.098 Y94.71 E0.18385
G1 X97.5 Y94.7 E0.19723
G1 X122.5 Y94.7 E1.02873
G1 X123.289 Y94.74 E1.05501
G1 X124.069 Y94.859 E1.08125
G1 X124.834 Y95.057 E1.10753
G1 X125.574 Y95.331 E1.13378
G1 X126.283 Y95.679 E1.16005
G1 X126.954 Y96.097 E1.18634
G1 X127.578 Y96.58 E1.21259
G1 X128.151 Y97.123 E1.23884
G1 X128.666 Y97.722 E1.26512
G1 X129.117 Y98.37 E1.29137
G1 X129.501 Y99.061 E1.31767
G1 X129.813 Y99.786 E1.34392
G1 X130.05 Y100.539 E1.37017
G1 X130.209 Y101.313 E1.39646
G1 X130.29 Y102.098 E1.4227
G1 X130.3 Y102.5 E1.43608
G1 X130.3 Y117.5 E1.93498
G1 X130.26 Y118.289 E1.96126
G1 X130.141 Y119.069 E1.9875
G1 X129.943 Y119.834 E2.01378
G1 X129.669 Y120.574 E2.04003
G1 X129.321 Y121.283 E2.0663
G1 X128.903 Y121.954 E2.09259
G1 X128.42 Y122.578 E2.11884
G1 X127.877 Y123.151 E2.14509
G1 X127.278 Y123.666 E2.17137
G1 X126.63 Y124.117 E2.19762
G1 X125.939 Y124.501 E2.22392
G1 X125.214 Y124.813 E2.25017
G1 X124.461 Y125.05 E2.27642
G1 X123.687 Y125.209 E2.30271
G1 X122.902 Y125.29 E2.32895
G1 X122.112 Y125.29 E2.35523
G1 X121.326 Y125.211 E2.3815
G1 X120.553 Y125.053 E2.40775
G1 X119.799 Y124.817 E2.43402
G1 X119.073 Y124.507 E2.46028
G1 X118.382 Y124.124 E2.48656
G1 X117.733 Y123.674 E2.51282
G1 X117.133 Y123.16 E2.5391
G1 X116.409 Y122.373 E2.57467
G1 X112.409 Y117.373 E2.78764
G1 X112.091 Y116.931 E2.80575
G1 X112.046 Y116.903 E2.80751
G1 X111.422 Y116.42 E2.83376
G1 X110.849 Y115.877 E2.86001
G1 X110.334 Y115.278 E2.88629
G1 X110 Y114.798 E2.90573
G1 X109.903 Y114.954 E2.91184
G1 X109.42 Y115.578 E2.93809
G1 X108.877 Y116.151 E2.96435
G1 X108.278 Y116.666 E2.99062
G1 X107.908 Y116.923 E3.0056
G1 X107.591 Y117.372 E3.02388
G1 X103.592 Y122.372 E3.23683
G1 X103.069 Y122.963 E3.26308
G1 X102.488 Y123.498 E3.28935
G1 X101.856 Y123.971 E3.3156
G1 X101.179 Y124.378 E3.34188
G1 X100.465 Y124.715 E3.36814
G1 X99.72 Y124.978 E3.39442
G1 X98.953 Y125.164 E3.42067
G1 X98.17 Y125.271 E3.44695
G1 X97.381 Y125.299 E3.47321
G1 X96.593 Y125.247 E3.49947
G1 X95.814 Y125.115 E3.52575
G1 X95.053 Y124.906 E3.552
G1 X94.317 Y124.62 E3.57826
G1 X93.613 Y124.262 E3.60453
G1 X92.949 Y123.834 E3.63081
G1 X92.332 Y123.342 E3.65706
G1 X91.768 Y122.789 E3.68333
G1 X91.263 Y122.182 E3.70959
G1 X90.821 Y121.527 E3.73587
G1 X90.448 Y120.831 E3.76213
G1 X90.147 Y120.101 E3.7884
G1 X89.922 Y119.344 E3.81466
G1 X89.775 Y118.569 E3.8409
G1 X89.701 Y117.501 E3.87651
G1 X89.7 Y102.501 E4.37541
G1 X89.74 Y101.712 E4.40169
G1 X89.859 Y100.931 E4.42796
G1 X90.057 Y100.167 E4.45421
G1 X90.331 Y99.426 E4.48049
G1 X90.679 Y98.717 E4.50676
G1 X91.096 Y98.047 E4.533
G1 X91.579 Y97.422 E4.55928
G1 X92.123 Y96.849 E4.58556
G0 F6000 X92.516 Y97.03
G1 F1200 X93.111 Y96.542 E4.61115
G1 X93.753 Y96.119 E4.63672
G1 X94.435 Y95.764 E4.66229
G1 X95.151 Y95.483 E4.68788
G1 X95.892 Y95.277 E4.71346
G1 X96.651 Y95.149 E4.73906
G1 X97.5 Y95.1 E4.76734
G1 X122.5 Y95.1 E5.59885
G1 X123.268 Y95.14 E5.62442
G1 X124.028 Y95.259 E5.65001
G1 X124.771 Y95.457 E5.67558
G1 X125.49 Y95.731 E5.70118
G1 X126.176 Y96.078 E5.72675
G1 X126.823 Y96.494 E5.75233
G1 X127.423 Y96.975 E5.77791
G1 X127.97 Y97.516 E5.80349
G1 X128.458 Y98.111 E5.82909
G1 X128.881 Y98.753 E5.85466
G1 X129.236 Y99.436 E5.88026
G1 X129.517 Y100.151 E5.90581
G1 X129.723 Y100.893 E5.93143
G1 X129.851 Y101.651 E5.95699
G1 X129.9 Y102.5 E5.98528
G1 X129.9 Y117.5 E6.48418
G1 X129.86 Y118.268 E6.50976
G1 X129.741 Y119.028 E6.53535
G1 X129.543 Y119.771 E6.56092
G1 X129.269 Y120.49 E6.58651
G1 X128.922 Y121.176 E6.61208
G1 X128.506 Y121.823 E6.63767
G1 X128.025 Y122.423 E6.66324
G1 X127.484 Y122.97 E6.68883
G1 X126.889 Y123.458 E6.71443
G1 X126.247 Y123.881 E6.74
G1 X125.564 Y124.236 E6.7656
G1 X124.849 Y124.517 E6.79115
G1 X124.107 Y124.723 E6.81676
G1 X123.349 Y124.851 E6.84233
G1 X122.581 Y124.9 E6.86793
G1 X121.813 Y124.868 E6.89349
G1 X121.052 Y124.757 E6.91907
G1 X120.306 Y124.567 E6.94468
G1 X119.585 Y124.301 E6.97024
G1 X118.894 Y123.962 E6.99584
G1 X118.243 Y123.553 E7.02141
G1 X117.638 Y123.078 E7.04699
G1 X117.085 Y122.544 E7.07256
G1 X116.722 Y122.123 E7.09105
G1 X112.722 Y117.123 E7.30402
G1 X112.366 Y116.628 E7.3243
G1 X112.177 Y116.506 E7.33178
G1 X111.577 Y116.025 E7.35735
G1 X111.03 Y115.484 E7.38294
G1 X110.542 Y114.889 E7.40854
G1 X110.119 Y114.247 E7.43411
G1 X110.001 Y114.02 E7.44262
G1 X109.922 Y114.176 E7.44843
G1 X109.506 Y114.823 E7.47402
G1 X109.025 Y115.423 E7.49959
G1 X108.484 Y115.97 E7.52518
G1 X107.889 Y116.458 E7.55078
G1 X107.636 Y116.625 E7.56086
G1 X107.553 Y116.757 E7.56605
G1 X107.279 Y117.122 E7.58123
G1 X103.28 Y122.122 E7.79417
G1 X102.769 Y122.697 E7.81976
G1 X102.201 Y123.216 E7.84535
G1 X101.582 Y123.673 E7.87094
G1 X100.92 Y124.063 E7.8965
G1 X100.22 Y124.382 E7.92208
G1 X99.491 Y124.627 E7.94766
G1 X98.74 Y124.795 E7.97326
G1 X97.976 Y124.885 E7.99884
G1 X97.207 Y124.894 E8.02442
G1 X96.441 Y124.824 E8.05001
G1 X95.687 Y124.674 E8.07557
G1 X94.952 Y124.447 E8.10116
G1 X94.245 Y124.145 E8.12673
G1 X93.572 Y123.771 E8.15234
G1 X92.943 Y123.329 E8.17791
G1 X92.362 Y122.825 E8.20349
G1 X91.837 Y122.263 E8.22907
G1 X91.374 Y121.649 E8.25465
G1 X90.976 Y120.991 E8.28022
G1 X90.649 Y120.294 E8.30583
G1 X90.396 Y119.568 E8.3314
G1 X90.22 Y118.819 E8.35699
G1 X90.122 Y118.057 E8.38255
G1 X90.101 Y117.5 E8.40108
G1 X90.1 Y102.5 E8.89999
G1 X90.14 Y101.732 E8.92556
G1 X90.259 Y100.973 E8.95112
G1 X90.457 Y100.229 E8.97672
G1 X90.731 Y99.51 E9.00232
G1 X91.078 Y98.824 E9.02789
G1 X91.494 Y98.177 E9.05347
G1 X91.975 Y97.577 E9.07905
G1 X92.516 Y97.03 E9.10463
G0 F6000 X92.908 Y97.217
G1 F1200 X93.498 Y96.757 E9.12952
G1 X94.134 Y96.363 E9.1544
G1 X94.808 Y96.038 E9.17929
G1 X95.513 Y95.788 E9.20417
G1 X96.24 Y95.614 E9.22903
G1 X96.982 Y95.519 E9.25391
G1 X97.5 Y95.5 E9.27115
G1 X122.5 Y95.5 E10.10265
G1 X123.247 Y95.54 E10.12754
G1 X123.985 Y95.659 E10.1524
G1 X124.707 Y95.857 E10.1773
G1 X125.403 Y96.13 E10.20217
G1 X126.066 Y96.477 E10.22705
G1 X126.689 Y96.892 E10.25195
G1 X127.263 Y97.371 E10.27682
G1 X127.784 Y97.908 E10.3017
G1 X128.243 Y98.498 E10.32657
G1 X128.638 Y99.134 E10.35147
G1 X128.962 Y99.808 E10.37634
G1 X129.212 Y100.513 E10.40122
G1 X129.386 Y101.241 E10.42611
G1 X129.481 Y101.983 E10.45099
G1 X129.5 Y102.5 E10.4682
G1 X129.5 Y117.5 E10.9671
G1 X129.46 Y118.247 E10.99198
G1 X129.341 Y118.985 E11.01685
G1 X129.143 Y119.707 E11.04175
G1 X128.87 Y120.403 E11.06661
G1 X128.523 Y121.066 E11.0915
G1 X128.108 Y121.689 E11.1164
G1 X127.629 Y122.263 E11.14127
G1 X127.092 Y122.784 E11.16615
G1 X126.502 Y123.243 E11.19101
G1 X125.866 Y123.638 E11.21592
G1 X125.192 Y123.962 E11.24079
G1 X124.487 Y124.212 E11.26567
G1 X123.759 Y124.386 E11.29056
G1 X123.017 Y124.481 E11.31544
G1 X122.269 Y124.496 E11.34033
G1 X121.524 Y124.432 E11.3652
G1 X120.79 Y124.288 E11.39008
G1 X120.075 Y124.067 E11.41497
G1 X119.388 Y123.77 E11.43986
G1 X118.737 Y123.403 E11.46472
G1 X118.129 Y122.967 E11.4896
G1 X117.57 Y122.47 E11.51448
G1 X117.034 Y121.873 E11.54116
G1 X113.034 Y116.873 E11.75413
G1 X112.645 Y116.33 E11.77635
G1 X112.311 Y116.108 E11.78969
G1 X111.737 Y115.629 E11.81455
G1 X111.216 Y115.092 E11.83944
G1 X110.757 Y114.502 E11.8643
G1 X110.362 Y113.866 E11.8892
G1 X110.038 Y113.192 E11.91407
G1 X109.998 Y113.078 E11.91809
G1 X109.87 Y113.403 E11.92971
G1 X109.523 Y114.066 E11.9546
G1 X109.108 Y114.689 E11.9795
G1 X108.629 Y115.263 E12.00436
G1 X108.092 Y115.784 E12.02925
G1 X107.502 Y116.243 E12.05411
G1 X107.35 Y116.338 E12.06007
G1 X106.967 Y116.872 E12.08193
G1 X102.968 Y121.872 E12.29488
G1 X102.47 Y122.431 E12.31978
G1 X101.915 Y122.933 E12.34467
G1 X101.31 Y123.373 E12.36955
G1 X100.662 Y123.746 E12.39442
G1 X99.977 Y124.047 E12.4193
G1 X99.265 Y124.274 E12.44416
G1 X98.532 Y124.424 E12.46904
G1 X97.787 Y124.494 E12.49393
G1 X97.039 Y124.485 E12.51881
G1 X96.296 Y124.396 E12.5437
G1 X95.567 Y124.228 E12.56858
G1 X94.86 Y123.983 E12.59347
G1 X94.184 Y123.664 E12.61833
G1 X93.545 Y123.275 E12.64321
G1 X92.951 Y122.82 E12.6681
G1 X92.409 Y122.304 E12.69299
G1 X91.926 Y121.733 E12.71786
G1 X91.506 Y121.114 E12.74274
G1 X91.155 Y120.453 E12.76764
G1 X90.876 Y119.759 E12.79251
G1 X90.672 Y119.039 E12.8174
G1 X90.547 Y118.302 E12.84227
G1 X90.501 Y117.5 E12.86899
G1 X90.5 Y102.5 E13.36789
G1 X90.54 Y101.753 E13.39277
G1 X90.659 Y101.015 E13.41763
G1 X90.857 Y100.293 E13.44253
G1 X91.13 Y99.597 E13.4674
G1 X91.476 Y98.934 E13.49227
G1 X91.891 Y98.312 E13.51714
G1 X92.37 Y97.737 E13.54203
G1 X92.908 Y97.217 E13.56692
G0 F6000 X92.765 Y97.902
G1 F1200 X93.299 Y97.41 E13.59107
G1 X93.884 Y96.979 E13.61524
G1 X94.512 Y96.615 E13.63938
G1 X95.177 Y96.322 E13.66355
G1 X95.87 Y96.104 E13.68771
G1 X96.583 Y95.964 E13.71188
G1 X97.5 Y95.9 E13.74245
G1 X122.5 Y95.9 E14.57396
G1 X123.225 Y95.94 E14.59811
G1 X123.942 Y96.059 E14.62228
G1 X124.641 Y96.257 E14.64644
G1 X125.314 Y96.53 E14.6706
G1 X125.953 Y96.875 E14.69475
G1 X126.55 Y97.289 E14.71892
G1 X127.098 Y97.765 E14.74306
G1 X127.591 Y98.299 E14.76723
G1 X128.021 Y98.884 E14.79138
G1 X128.385 Y99.513 E14.81555
G1 X128.678 Y100.178 E14.83972
G1 X128.896 Y100.871 E14.86388
G1 X129.036 Y101.583 E14.88802
G1 X129.1 Y102.5 E14.91859
G1 X129.1 Y117.5 E15.41749
G1 X129.06 Y118.225 E15.44164
G1 X128.941 Y118.942 E15.46582
G1 X128.743 Y119.641 E15.48998
G1 X128.47 Y120.314 E15.51414
G1 X128.125 Y120.953 E15.53829
G1 X127.711 Y121.55 E15.56245
G1 X127.235 Y122.098 E15.5866
G1 X126.701 Y122.591 E15.61077
G1 X126.116 Y123.021 E15.63492
G1 X125.487 Y123.385 E15.65909
G1 X124.822 Y123.678 E15.68326
G1 X124.129 Y123.896 E15.70742
G1 X123.417 Y124.036 E15.73155
G1 X122.693 Y124.097 E15.75572
G1 X121.967 Y124.078 E15.77988
G1 X121.247 Y123.98 E15.80404
G1 X120.543 Y123.803 E15.82819
G1 X119.862 Y123.55 E15.85235
G1 X119.213 Y123.223 E15.87652
G1 X118.604 Y122.827 E15.90068
G1 X118.042 Y122.367 E15.92484
G1 X117.346 Y121.623 E15.95872
G1 X113.346 Y116.623 E16.17169
G1 X112.935 Y116.047 E16.19523
G1 X112.45 Y115.711 E16.21485
G1 X111.902 Y115.235 E16.23899
G1 X111.409 Y114.701 E16.26317
G1 X110.979 Y114.116 E16.28731
G1 X110.615 Y113.487 E16.31148
G1 X110.322 Y112.822 E16.33565
G1 X110.104 Y112.129 E16.35982
G1 X109.999 Y111.594 E16.37795
G1 X109.941 Y111.942 E16.38968
G1 X109.743 Y112.641 E16.41385
G1 X109.47 Y113.314 E16.438
G1 X109.125 Y113.953 E16.46216
G1 X108.711 Y114.55 E16.48632
G1 X108.235 Y115.098 E16.51046
G1 X107.701 Y115.591 E16.53464
G1 X107.116 Y116.021 E16.55878
G1 X107.029 Y116.071 E16.56212
G1 X106.654 Y116.622 E16.58429
G1 X102.655 Y121.622 E16.79724
G1 X102.171 Y122.164 E16.82141
G1 X101.63 Y122.649 E16.84557
G1 X101.039 Y123.071 E16.86972
G1 X100.406 Y123.426 E16.89386
G1 X99.737 Y123.71 E16.91804
G1 X99.041 Y123.918 E16.9422
G1 X98.327 Y124.048 E16.96634
G1 X97.602 Y124.099 E16.99051
G1 X96.876 Y124.07 E17.01467
G1 X96.158 Y123.962 E17.03882
G1 X95.456 Y123.775 E17.06299
G1 X94.779 Y123.512 E17.08714
G1 X94.135 Y123.177 E17.11129
G1 X93.531 Y122.773 E17.13546
G1 X92.976 Y122.304 E17.15962
G1 X92.475 Y121.778 E17.18378
G1 X92.036 Y121.2 E17.20793
G1 X91.662 Y120.577 E17.23209
G1 X91.359 Y119.917 E17.25625
G1 X91.131 Y119.227 E17.28042
G1 X90.98 Y118.517 E17.30456
G1 X90.901 Y117.5 E17.33849
G1 X90.9 Y102.5 E17.83739
G1 X90.94 Y101.775 E17.86154
G1 X91.059 Y101.059 E17.88568
G1 X91.257 Y100.36 E17.90985
G1 X91.53 Y99.687 E17.934
G1 X91.875 Y99.048 E17.95815
G1 X92.288 Y98.45 E17.98233
G1 X92.765 Y97.902 E18.00649
G0 F6000 X93.159 Y98.073
G1 F1200 X93.689 Y97.61 E18.0299
G1 X94.268 Y97.209 E18.05332
G1 X94.888 Y96.877 E18.07671
G1 X95.543 Y96.617 E18.10015
G1 X96.222 Y96.433 E18.12355
G1 X96.918 Y96.327 E18.14697
G1 X97.5 Y96.3 E18.16634
G1 X122.5 Y96.3 E18.99785
G1 X123.203 Y96.34 E19.02127
G1 X123.897 Y96.459 E19.04469
G1 X124.572 Y96.657 E19.06808
G1 X125.221 Y96.929 E19.09149
G1 X125.835 Y97.274 E19.11491
G1 X126.406 Y97.685 E19.13831
G1 X126.927 Y98.159 E19.16174
G1 X127.391 Y98.689 E19.18517
G1 X127.791 Y99.268 E19.20858
G1 X128.123 Y99.889 E19.232
G1 X128.383 Y100.543 E19.2554
G1 X128.567 Y101.223 E19.27883
G1 X128.673 Y101.919 E19.30225
G1 X128.7 Y102.5 E19.3216
G1 X128.7 Y117.5 E19.8205
G1 X128.66 Y118.203 E19.84392
G1 X128.541 Y118.897 E19.86734
G1 X128.343 Y119.572 E19.89073
G1 X128.071 Y120.221 E19.91414
G1 X127.726 Y120.835 E19.93756
G1 X127.315 Y121.406 E19.96096
G1 X126.841 Y121.927 E19.98439
G1 X126.311 Y122.391 E20.00782
G1 X125.732 Y122.791 E20.03122
G1 X125.111 Y123.123 E20.05465
G1 X124.457 Y123.383 E20.07805
G1 X123.777 Y123.567 E20.10148
G1 X123.081 Y123.673 E20.1249
G1 X122.378 Y123.699 E20.1483
G1 X121.676 Y123.645 E20.17172
G1 X120.985 Y123.512 E20.19512
G1 X120.313 Y123.301 E20.21855
G1 X119.669 Y123.016 E20.24197
G1 X119.062 Y122.66 E20.26538
G1 X118.499 Y122.237 E20.2888
G1 X117.988 Y121.753 E20.31221
G1 X117.659 Y121.373 E20.32892
G1 X113.659 Y116.373 E20.54189
G1 X113.251 Y115.799 E20.56532
G1 X113.231 Y115.763 E20.56669
G1 X113.165 Y115.726 E20.5692
G1 X112.594 Y115.315 E20.5926
G1 X112.073 Y114.841 E20.61603
G1 X111.609 Y114.311 E20.63946
G1 X111.209 Y113.732 E20.66286
G1 X110.877 Y113.111 E20.68628
G1 X110.617 Y112.457 E20.70969
G1 X110.433 Y111.777 E20.73312
G1 X110.327 Y111.081 E20.75654
G1 X110.309 Y110.7 E20.76923
G1 X109.689 Y110.7 E20.78985
G1 X109.66 Y111.203 E20.8066
G1 X109.541 Y111.897 E20.83002
G1 X109.343 Y112.572 E20.85342
G1 X109.071 Y113.221 E20.87682
G1 X108.726 Y113.835 E20.90025
G1 X108.315 Y114.406 E20.92365
G1 X107.841 Y114.927 E20.94708
G1 X107.311 Y115.391 E20.97051
G1 X106.756 Y115.774 E20.99293
G1 X106.66 Y115.938 E20.99925
G1 X106.342 Y116.373 E21.01718
G1 X102.343 Y121.373 E21.23012
G1 X101.873 Y121.896 E21.25351
G1 X101.346 Y122.364 E21.27695
G1 X100.77 Y122.768 E21.30035
G1 X100.152 Y123.105 E21.32377
G1 X99.499 Y123.369 E21.34719
G1 X98.821 Y123.558 E21.3706
G1 X98.126 Y123.668 E21.39401
G1 X97.422 Y123.7 E21.41745
G1 X96.72 Y123.651 E21.44085
G1 X96.028 Y123.522 E21.46426
G1 X95.355 Y123.317 E21.48766
G1 X94.709 Y123.036 E21.51109
G1 X94.1 Y122.684 E21.53449
G1 X93.534 Y122.265 E21.55791
G1 X93.019 Y121.784 E21.58135
G1 X92.562 Y121.248 E21.60478
G1 X92.169 Y120.664 E21.62819
G1 X91.845 Y120.04 E21.65157
G1 X91.594 Y119.382 E21.675
G1 X91.418 Y118.7 E21.69842
G1 X91.321 Y118.003 E21.72183
G1 X91.301 Y117.5 E21.73857
G1 X91.3 Y102.5 E22.23748
G1 X91.34 Y101.798 E22.26086
G1 X91.459 Y101.104 E22.28428
G1 X91.656 Y100.428 E22.3077
G1 X91.929 Y99.779 E22.33112
G1 X92.273 Y99.165 E22.35453
G1 X92.685 Y98.594 E22.37795
G1 X93.159 Y98.073 E22.40137
G0 F6000 X93.552 Y98.251
G1 F1200 X94.077 Y97.817 E22.42403
G1 X94.65 Y97.449 E22.44668
G1 X95.261 Y97.149 E22.46932
G1 X95.904 Y96.924 E22.49198
G1 X96.568 Y96.775 E22.51461
G1 X97.5 Y96.7 E22.54571
G1 X122.5 Y96.7 E23.37721
G1 X123.18 Y96.74 E23.39987
G1 X123.85 Y96.859 E23.4225
G1 X124.502 Y97.056 E23.44515
G1 X125.126 Y97.328 E23.46779
G1 X125.714 Y97.672 E23.49045
G1 X126.258 Y98.082 E23.51311
G1 X126.749 Y98.553 E23.53574
G1 X127.183 Y99.078 E23.55839
