;FLAVOR:Marlin
;TIME:3198
;Filament used: 1.17943m
;Layer height: 0.16
;MINX:68.7
;MINY:66.2
;MINZ:0.2
;MAXX:151.3
;MAXY:153.8
;MAXZ:24
;Generated with Cura_SteamEngine 4.4.1
M140 S60
M105
M190 S60
M104 S200
M105
M109 S200
M82 ;absolute extrusion mode
M201 X500.00 Y500.00 Z100.00 E5000.00 ;Setup machine max acceleration
M203 X500.00 Y500.00 Z10.00 E50.00 ;Setup machine max feedrate
M204 P500.00 R1000.00 T500.00 ;Setup Print/Retract/Travel acceleration
M205 X8.00 Y8.00 Z0.40 E5.00 ;Setup Jerk
M220 S100 ;Reset Feedrate
M221 S100 ;Reset Flowrate

G28 ;Home
G29 ;Auto bed level

G92 E0 ;Reset Extruder
G1 Z2.0 F3000 ;Move Z Axis up
G1 X10.1 Y20 Z0.28 F5000.0 ;Move to start position
G1 X10.1 Y200.0 Z0.28 F1500.0 E15 ;Draw the first line
G1 X10.4 Y200.0 Z0.28 F5000.0 ;Move to side a little
G1 X10.4 Y20 Z0.28 F1500.0 E30 ;Draw the second line
G92 E0 ;Reset Extruder
G1 Z2.0 F3000 ;Move Z Axis up
G92 E0
G92 E0
G1 F1500 E-6.5
;LAYER_COUNT:126
;LAYER:0
M107
G0 F6000 X71.722 Y89.167 Z0.2
;TYPE:SKIRT
G1 F1500 E0
G1 F1200 X72.37 Y88.716 E0.02626
G1 X73.061 Y88.332 E0.05255
G1 X73.786 Y88.02 E0.0788
G1 X74.539 Y87.783 E0.10506
G1 X75.313 Y87.624 E0.13134
G1 X76.098 Y87.543 E0.15759
G1 X76.5 Y87.533 E0.17096
G1 X99.2 Y87.533 E0.92597
G1 X99.2 Y74 E1.37608
G1 X99.24 Y73.211 E1.40235
G1 X99.359 Y72.431 E1.4286
G1 X99.557 Y71.666 E1.45488
G1 X99.831 Y70.926 E1.48112
G1 X100.179 Y70.217 E1.50739
G1 X100.597 Y69.546 E1.53369
G1 X101.08 Y68.922 E1.55993
G1 X101.623 Y68.349 E1.58619
G1 X102.222 Y67.834 E1.61246
G1 X102.87 Y67.383 E1.63872
G1 X103.561 Y66.999 E1.66501
G1 X104.286 Y66.687 E1.69127
G1 X105.039 Y66.45 E1.71752
G1 X105.813 Y66.291 E1.7438
G1 X106.598 Y66.21 E1.77005
G1 X107 Y66.2 E1.78343
G1 X113 Y66.2 E1.98299
G1 X113.789 Y66.24 E2.00926
G1 X114.569 Y66.359 E2.03551
G1 X115.334 Y66.557 E2.06179
G1 X116.074 Y66.831 E2.08803
G1 X116.783 Y67.179 E2.1143
G1 X117.454 Y67.597 E2.1406
G1 X118.078 Y68.08 E2.16684
G1 X118.651 Y68.623 E2.1931
G1 X119.166 Y69.222 E2.21937
G1 X119.617 Y69.87 E2.24563
G1 X120.001 Y70.561 E2.27192
G1 X120.313 Y71.286 E2.29817
G1 X120.55 Y72.039 E2.32443
G1 X120.709 Y72.813 E2.35071
G1 X120.79 Y73.598 E2.37696
G1 X120.8 Y74 E2.39033
G1 X120.8 Y87.533 E2.84044
G1 X143.5 Y87.533 E3.59545
G1 X144.289 Y87.573 E3.62172
G1 X145.069 Y87.692 E3.64797
G1 X145.834 Y87.89 E3.67425
G1 X146.574 Y88.164 E3.7005
G1 X147.283 Y88.512 E3.72676
G1 X147.954 Y88.93 E3.75306
G1 X148.578 Y89.413 E3.7793
G1 X149.151 Y89.956 E3.80556
G1 X149.666 Y90.555 E3.83183
G1 X150.117 Y91.203 E3.85809
G1 X150.501 Y91.894 E3.88439
G1 X150.813 Y92.619 E3.91064
G1 X151.05 Y93.372 E3.93689
G1 X151.209 Y94.146 E3.96317
G1 X151.29 Y94.931 E3.98942
G1 X151.3 Y95.333 E4.0028
G1 X151.3 Y101.333 E4.20236
G1 X151.26 Y102.122 E4.22863
G1 X151.141 Y102.902 E4.25488
G1 X150.943 Y103.667 E4.28116
G1 X150.669 Y104.407 E4.3074
G1 X150.321 Y105.116 E4.33367
G1 X149.903 Y105.787 E4.35997
G1 X149.42 Y106.411 E4.38621
G1 X148.877 Y106.984 E4.41247
G1 X148.278 Y107.499 E4.43874
G1 X147.63 Y107.95 E4.465
G1 X146.939 Y108.334 E4.49129
G1 X146.214 Y108.646 E4.51755
G1 X145.461 Y108.883 E4.5438
G1 X144.687 Y109.042 E4.57008
G1 X143.902 Y109.123 E4.59633
G1 X143.5 Y109.133 E4.60971
G1 X120.8 Y109.133 E5.36471
G1 X120.8 Y110.867 E5.42238
G1 X143.5 Y110.867 E6.17739
G1 X144.289 Y110.907 E6.20366
G1 X145.069 Y111.026 E6.22991
G1 X145.834 Y111.224 E6.25619
G1 X146.574 Y111.498 E6.28244
G1 X147.283 Y111.846 E6.3087
G1 X147.954 Y112.264 E6.335
G1 X148.578 Y112.747 E6.36124
G1 X149.151 Y113.29 E6.3875
G1 X149.666 Y113.889 E6.41377
G1 X150.117 Y114.537 E6.44003
G1 X150.501 Y115.228 E6.46633
G1 X150.813 Y115.953 E6.49258
G1 X151.05 Y116.706 E6.51883
G1 X151.209 Y117.48 E6.54511
G1 X151.29 Y118.265 E6.57136
G1 X151.3 Y118.667 E6.58474
G1 X151.3 Y124.667 E6.7843
G1 X151.26 Y125.456 E6.81057
G1 X151.141 Y126.236 E6.83682
G1 X150.943 Y127.001 E6.8631
G1 X150.669 Y127.741 E6.88934
G1 X150.321 Y128.45 E6.91561
G1 X149.903 Y129.121 E6.94191
G1 X149.42 Y129.745 E6.96815
G1 X148.877 Y130.318 E6.99441
G1 X148.278 Y130.833 E7.02068
G1 X147.63 Y131.284 E7.04694
G1 X146.939 Y131.668 E7.07323
G1 X146.214 Y131.98 E7.09949
G1 X145.461 Y132.217 E7.12574
G1 X144.687 Y132.376 E7.15202
G1 X143.902 Y132.457 E7.17827
G1 X143.5 Y132.467 E7.19165
G1 X120.8 Y132.467 E7.94665
G1 X120.8 Y146 E8.39676
G1 X120.76 Y146.789 E8.42304
G1 X120.641 Y147.569 E8.44928
G1 X120.443 Y148.334 E8.47556
G1 X120.169 Y149.074 E8.50181
G1 X119.821 Y149.783 E8.52808
G1 X119.403 Y150.454 E8.55437
G1 X118.92 Y151.078 E8.58062
G1 X118.377 Y151.651 E8.60687
G1 X117.778 Y152.166 E8.63315
G1 X117.13 Y152.617 E8.6594
G1 X116.439 Y153.001 E8.6857
G1 X115.714 Y153.313 E8.71195
G1 X114.961 Y153.55 E8.7382
G1 X114.187 Y153.709 E8.76449
G1 X113.402 Y153.79 E8.79073
G1 X113 Y153.8 E8.80411
G1 X107 Y153.8 E9.00367
G1 X106.211 Y153.76 E9.02995
G1 X105.431 Y153.641 E9.05619
G1 X104.666 Y153.443 E9.08247
G1 X103.926 Y153.169 E9.10872
G1 X103.217 Y152.821 E9.13498
G1 X102.546 Y152.403 E9.16128
G1 X101.922 Y151.92 E9.18752
G1 X101.349 Y151.377 E9.21378
G1 X100.834 Y150.778 E9.24005
G1 X100.383 Y150.13 E9.26631
G1 X99.999 Y149.439 E9.29261
G1 X99.687 Y148.714 E9.31886
G1 X99.45 Y147.961 E9.34511
G1 X99.291 Y147.187 E9.37139
G1 X99.21 Y146.402 E9.39764
G1 X99.2 Y146 E9.41102
G1 X99.2 Y132.467 E9.86113
G1 X76.5 Y132.467 E10.61613
G1 X75.711 Y132.427 E10.64241
G1 X74.931 Y132.308 E10.66865
G1 X74.166 Y132.11 E10.69493
G1 X73.426 Y131.836 E10.72118
G1 X72.717 Y131.488 E10.74745
G1 X72.046 Y131.07 E10.77374
G1 X71.422 Y130.587 E10.79999
G1 X70.849 Y130.044 E10.82624
G1 X70.334 Y129.445 E10.85252
G1 X69.883 Y128.797 E10.87878
G1 X69.499 Y128.106 E10.90507
G1 X69.187 Y127.381 E10.93132
G1 X68.95 Y126.628 E10.95758
G1 X68.791 Y125.854 E10.98386
G1 X68.71 Y125.069 E11.0101
G1 X68.7 Y124.667 E11.02348
G1 X68.7 Y118.667 E11.22304
G1 X68.74 Y117.878 E11.24932
G1 X68.859 Y117.098 E11.27556
G1 X69.057 Y116.333 E11.30184
G1 X69.331 Y115.593 E11.32809
G1 X69.679 Y114.884 E11.35436
G1 X70.097 Y114.213 E11.38065
G1 X70.58 Y113.589 E11.4069
G1 X71.123 Y113.016 E11.43315
G1 X71.722 Y112.501 E11.45943
G1 X72.37 Y112.05 E11.48568
G1 X73.061 Y111.666 E11.51198
G1 X73.786 Y111.354 E11.53823
G1 X74.539 Y111.117 E11.56448
G1 X75.313 Y110.958 E11.59077
G1 X76.098 Y110.877 E11.61701
G1 X76.5 Y110.867 E11.63039
G1 X99.2 Y110.867 E12.38539
G1 X99.2 Y109.133 E12.44307
G1 X76.5 Y109.133 E13.19807
G1 X75.711 Y109.093 E13.22435
G1 X74.931 Y108.974 E13.25059
G1 X74.166 Y108.776 E13.27687
G1 X73.426 Y108.502 E13.30312
G1 X72.717 Y108.154 E13.32939
G1 X72.046 Y107.736 E13.35568
G1 X71.422 Y107.253 E13.38193
G1 X70.849 Y106.71 E13.40818
G1 X70.334 Y106.111 E13.43446
G1 X69.883 Y105.463 E13.46072
G1 X69.499 Y104.772 E13.48701
G1 X69.187 Y104.047 E13.51326
G1 X68.95 Y103.294 E13.53952
G1 X68.791 Y102.52 E13.5658
G1 X68.71 Y101.735 E13.59204
G1 X68.7 Y101.333 E13.60542
G1 X68.7 Y95.333 E13.80498
G1 X68.74 Y94.544 E13.83126
G1 X68.859 Y93.764 E13.8575
G1 X69.057 Y92.999 E13.88378
G1 X69.331 Y92.259 E13.91003
G1 X69.679 Y91.55 E13.9363
G1 X70.097 Y90.879 E13.96259
G1 X70.58 Y90.255 E13.98884
G1 X71.123 Y89.682 E14.01509
G1 X71.722 Y89.167 E14.04137
G0 F6000 X72.111 Y89.375
G1 F1200 X72.753 Y88.952 E14.06694
G1 X73.436 Y88.597 E14.09254
G1 X74.151 Y88.316 E14.11809
G1 X74.893 Y88.11 E14.1437
G1 X75.651 Y87.982 E14.16927
G1 X76.5 Y87.933 E14.19756
G1 X99.6 Y87.933 E14.96586
G1 X99.6 Y74 E15.42928
G1 X99.64 Y73.232 E15.45486
G1 X99.759 Y72.472 E15.48044
G1 X99.957 Y71.729 E15.50602
G1 X100.231 Y71.01 E15.53161
G1 X100.578 Y70.324 E15.55718
G1 X100.994 Y69.677 E15.58276
G1 X101.475 Y69.077 E15.60834
G1 X102.016 Y68.53 E15.63393
G1 X102.611 Y68.042 E15.65952
G1 X103.253 Y67.619 E15.68509
G1 X103.936 Y67.264 E15.71069
G1 X104.651 Y66.983 E15.73625
G1 X105.393 Y66.777 E15.76186
G1 X106.151 Y66.649 E15.78743
G1 X107 Y66.6 E15.81571
G1 X113 Y66.6 E16.01527
G1 X113.768 Y66.64 E16.04085
G1 X114.528 Y66.759 E16.06644
G1 X115.271 Y66.957 E16.09201
G1 X115.99 Y67.231 E16.1176
G1 X116.676 Y67.578 E16.14317
G1 X117.323 Y67.994 E16.16876
G1 X117.923 Y68.475 E16.19433
G1 X118.47 Y69.016 E16.21992
G1 X118.958 Y69.611 E16.24552
G1 X119.381 Y70.253 E16.27109
G1 X119.736 Y70.936 E16.29669
G1 X120.017 Y71.651 E16.32224
G1 X120.223 Y72.393 E16.34785
G1 X120.351 Y73.151 E16.37342
G1 X120.4 Y74 E16.40171
G1 X120.4 Y87.933 E16.86512
G1 X143.5 Y87.933 E17.63343
G1 X144.268 Y87.973 E17.65901
G1 X145.028 Y88.092 E17.68459
G1 X145.771 Y88.29 E17.71017
G1 X146.49 Y88.564 E17.73576
G1 X147.176 Y88.911 E17.76133
G1 X147.823 Y89.327 E17.78691
G1 X148.423 Y89.808 E17.81249
G1 X148.97 Y90.349 E17.83808
G1 X149.458 Y90.944 E17.86367
G1 X149.881 Y91.586 E17.88924
G1 X150.236 Y92.269 E17.91485
G1 X150.517 Y92.984 E17.9404
G1 X150.723 Y93.726 E17.96601
G1 X150.851 Y94.484 E17.99158
G1 X150.9 Y95.333 E18.01986
G1 X150.9 Y101.333 E18.21942
G1 X150.86 Y102.101 E18.245
G1 X150.741 Y102.861 E18.27059
G1 X150.543 Y103.604 E18.29616
G1 X150.269 Y104.323 E18.32175
G1 X149.922 Y105.009 E18.34732
G1 X149.506 Y105.656 E18.37291
G1 X149.025 Y106.256 E18.39848
G1 X148.484 Y106.803 E18.42407
G1 X147.889 Y107.291 E18.44967
G1 X147.247 Y107.714 E18.47524
G1 X146.564 Y108.069 E18.50084
G1 X145.849 Y108.35 E18.52639
G1 X145.107 Y108.556 E18.552
G1 X144.349 Y108.684 E18.57757
G1 X143.5 Y108.733 E18.60586
G1 X120.4 Y108.733 E19.37417
G1 X120.4 Y111.267 E19.45845
G1 X143.5 Y111.267 E20.22676
G1 X144.268 Y111.307 E20.25234
G1 X145.028 Y111.426 E20.27792
G1 X145.771 Y111.624 E20.3035
G1 X146.49 Y111.898 E20.32909
G1 X147.176 Y112.245 E20.35466
G1 X147.823 Y112.661 E20.38024
G1 X148.423 Y113.142 E20.40582
G1 X148.97 Y113.683 E20.43141
G1 X149.458 Y114.278 E20.457
G1 X149.881 Y114.92 E20.48257
G1 X150.236 Y115.603 E20.50817
G1 X150.517 Y116.318 E20.53372
G1 X150.723 Y117.06 E20.55934
G1 X150.851 Y117.818 E20.58491
G1 X150.9 Y118.667 E20.61319
G1 X150.9 Y124.667 E20.81275
G1 X150.86 Y125.435 E20.83833
G1 X150.741 Y126.195 E20.86392
G1 X150.543 Y126.938 E20.88949
G1 X150.269 Y127.657 E20.91508
G1 X149.922 Y128.343 E20.94065
G1 X149.506 Y128.99 E20.96623
G1 X149.025 Y129.59 E20.99181
G1 X148.484 Y130.137 E21.0174
G1 X147.889 Y130.625 E21.04299
G1 X147.247 Y131.048 E21.06857
G1 X146.564 Y131.403 E21.09417
G1 X145.849 Y131.684 E21.11972
G1 X145.107 Y131.89 E21.14533
G1 X144.349 Y132.018 E21.1709
G1 X143.5 Y132.067 E21.19918
G1 X120.4 Y132.067 E21.96749
G1 X120.4 Y146 E22.43091
G1 X120.36 Y146.768 E22.45649
G1 X120.241 Y147.528 E22.48207
G1 X120.043 Y148.271 E22.50765
G1 X119.769 Y148.99 E22.53324
G1 X119.422 Y149.676 E22.55881
G1 X119.006 Y150.323 E22.58439
G1 X118.525 Y150.923 E22.60997
G1 X117.984 Y151.47 E22.63556
G1 X117.389 Y151.958 E22.66115
G1 X116.747 Y152.381 E22.68672
G1 X116.064 Y152.736 E22.71232
G1 X115.349 Y153.017 E22.73788
G1 X114.607 Y153.223 E22.76349
G1 X113.849 Y153.351 E22.78906
G1 X113 Y153.4 E22.81734
G1 X107 Y153.4 E23.0169
G1 X106.232 Y153.36 E23.04248
G1 X105.472 Y153.241 E23.06807
G1 X104.729 Y153.043 E23.09364
G1 X104.01 Y152.769 E23.11923
G1 X103.324 Y152.422 E23.1448
G1 X102.677 Y152.006 E23.17039
G1 X102.077 Y151.525 E23.19596
G1 X101.53 Y150.984 E23.22155
G1 X101.042 Y150.389 E23.24715
G1 X100.619 Y149.747 E23.27272
G1 X100.264 Y149.064 E23.29832
G1 X99.983 Y148.349 E23.32387
G1 X99.777 Y147.607 E23.34948
G1 X99.649 Y146.849 E23.37505
G1 X99.6 Y146 E23.40334
G1 X99.6 Y132.067 E23.86675
G1 X76.5 Y132.067 E24.63506
G1 X75.732 Y132.027 E24.66064
G1 X74.972 Y131.908 E24.68622
G1 X74.229 Y131.71 E24.7118
G1 X73.51 Y131.436 E24.73739
G1 X72.824 Y131.089 E24.76296
G1 X72.177 Y130.673 E24.78854
G1 X71.577 Y130.192 E24.81412
G1 X71.03 Y129.651 E24.83971
G1 X70.542 Y129.056 E24.8653
G1 X70.119 Y128.414 E24.89087
G1 X69.764 Y127.731 E24.91647
G1 X69.483 Y127.016 E24.94203
G1 X69.277 Y126.274 E24.96764
G1 X69.149 Y125.516 E24.99321
G1 X69.1 Y124.667 E25.02149
G1 X69.1 Y118.667 E25.22105
G1 X69.14 Y117.899 E25.24663
G1 X69.259 Y117.139 E25.27222
G1 X69.457 Y116.396 E25.29779
G1 X69.731 Y115.677 E25.32338
G1 X70.078 Y114.991 E25.34895
G1 X70.494 Y114.344 E25.37454
G1 X70.975 Y113.744 E25.40011
G1 X71.516 Y113.197 E25.4257
G1 X72.111 Y112.709 E25.4513
G1 X72.753 Y112.286 E25.47687
G1 X73.436 Y111.931 E25.50247
G1 X74.151 Y111.65 E25.52802
G1 X74.893 Y111.444 E25.55363
G1 X75.651 Y111.316 E25.5792
G1 X76.5 Y111.267 E25.60749
G1 X99.6 Y111.267 E26.3758
G1 X99.6 Y108.733 E26.46008
G1 X76.5 Y108.733 E27.22839
G1 X75.732 Y108.693 E27.25396
G1 X74.972 Y108.574 E27.27955
G1 X74.229 Y108.376 E27.30512
G1 X73.51 Y108.102 E27.33072
G1 X72.824 Y107.755 E27.35629
G1 X72.177 Y107.339 E27.38187
G1 X71.577 Y106.858 E27.40745
G1 X71.03 Y106.317 E27.43303
G1 X70.542 Y105.722 E27.45863
G1 X70.119 Y105.08 E27.4842
G1 X69.764 Y104.397 E27.5098
G1 X69.483 Y103.682 E27.53535
G1 X69.277 Y102.94 E27.56097
G1 X69.149 Y102.182 E27.58653
G1 X69.1 Y101.333 E27.61482
G1 X69.1 Y95.333 E27.81438
G1 X69.14 Y94.565 E27.83996
G1 X69.259 Y93.805 E27.86554
G1 X69.457 Y93.062 E27.89112
G1 X69.731 Y92.343 E27.91671
G1 X70.078 Y91.657 E27.94228
G1 X70.494 Y91.01 E27.96786
G1 X70.975 Y90.41 E27.99344
G1 X71.516 Y89.863 E28.01903
G1 X72.111 Y89.375 E28.04462
G0 F6000 X72.498 Y89.59
G1 F1200 X73.134 Y89.195 E28.06953
G1 X73.808 Y88.871 E28.0944
G1 X74.513 Y88.621 E28.11928
G1 X75.241 Y88.447 E28.14417
G1 X75.983 Y88.352 E28.16905
G1 X76.5 Y88.333 E28.18626
G1 X100 Y88.333 E28.96787
G1 X100 Y74 E29.44459
G1 X100.04 Y73.253 E29.46947
G1 X100.159 Y72.515 E29.49433
G1 X100.357 Y71.793 E29.51924
G1 X100.63 Y71.097 E29.5441
G1 X100.977 Y70.434 E29.56899
G1 X101.392 Y69.811 E29.59389
G1 X101.871 Y69.237 E29.61875
G1 X102.408 Y68.716 E29.64364
G1 X102.998 Y68.257 E29.6685
G1 X103.634 Y67.862 E29.6934
G1 X104.308 Y67.538 E29.71828
G1 X105.013 Y67.288 E29.74315
G1 X105.741 Y67.114 E29.76805
G1 X106.483 Y67.019 E29.79293
G1 X107 Y67 E29.81014
G1 X113 Y67 E30.0097
G1 X113.747 Y67.04 E30.03458
G1 X114.485 Y67.159 E30.05944
G1 X115.207 Y67.357 E30.08434
G1 X115.903 Y67.63 E30.10921
G1 X116.566 Y67.977 E30.1341
G1 X117.189 Y68.392 E30.159
G1 X117.763 Y68.871 E30.18386
G1 X118.284 Y69.408 E30.20875
G1 X118.743 Y69.998 E30.23361
G1 X119.138 Y70.634 E30.25851
G1 X119.462 Y71.308 E30.28338
G1 X119.712 Y72.013 E30.30826
G1 X119.886 Y72.741 E30.33316
G1 X119.981 Y73.483 E30.35804
G1 X120 Y74 E30.37525
G1 X120 Y88.333 E30.85196
G1 X143.5 Y88.333 E31.63358
G1 X144.247 Y88.373 E31.65846
G1 X144.985 Y88.492 E31.68332
G1 X145.707 Y88.69 E31.70822
G1 X146.403 Y88.963 E31.73309
G1 X147.066 Y89.31 E31.75798
G1 X147.689 Y89.725 E31.78287
G1 X148.263 Y90.204 E31.80774
G1 X148.784 Y90.741 E31.83262
G1 X149.243 Y91.331 E31.85749
G1 X149.638 Y91.967 E31.88239
G1 X149.962 Y92.641 E31.90726
G1 X150.212 Y93.346 E31.93214
G1 X150.386 Y94.074 E31.95703
G1 X150.481 Y94.816 E31.98192
G1 X150.5 Y95.333 E31.99912
G1 X150.5 Y101.333 E32.19868
G1 X150.46 Y102.08 E32.22356
G1 X150.341 Y102.818 E32.24843
G1 X150.143 Y103.54 E32.27333
G1 X149.87 Y104.236 E32.29819
G1 X149.523 Y104.899 E32.32308
G1 X149.108 Y105.522 E32.34798
G1 X148.629 Y106.096 E32.37285
G1 X148.092 Y106.617 E32.39773
G1 X147.502 Y107.076 E32.42259
G1 X146.866 Y107.471 E32.44749
G1 X146.192 Y107.795 E32.47237
G1 X145.487 Y108.045 E32.49725
G1 X144.759 Y108.219 E32.52214
G1 X144.017 Y108.314 E32.54702
G1 X143.5 Y108.333 E32.56423
G1 X120 Y108.333 E33.34584
G1 X120 Y111.667 E33.45673
G1 X143.5 Y111.667 E34.23835
G1 X144.247 Y111.707 E34.26323
G1 X144.985 Y111.826 E34.28809
G1 X145.707 Y112.024 E34.31299
G1 X146.403 Y112.297 E34.33786
G1 X147.066 Y112.644 E34.36275
G1 X147.689 Y113.059 E34.38764
G1 X148.263 Y113.538 E34.41251
G1 X148.784 Y114.075 E34.43739
G1 X149.243 Y114.665 E34.46226
G1 X149.638 Y115.301 E34.48716
G1 X149.962 Y115.975 E34.51203
G1 X150.212 Y116.68 E34.53691
G1 X150.386 Y117.408 E34.5618
G1 X150.481 Y118.15 E34.58669
G1 X150.5 Y118.667 E34.60389
G1 X150.5 Y124.667 E34.80345
G1 X150.46 Y125.414 E34.82833
G1 X150.341 Y126.152 E34.8532
G1 X150.143 Y126.874 E34.8781
G1 X149.87 Y127.57 E34.90296
G1 X149.523 Y128.233 E34.92785
G1 X149.108 Y128.856 E34.95275
G1 X148.629 Y129.43 E34.97762
G1 X148.092 Y129.951 E35.0025
