;FLAVOR:Marlin
;TIME:6564
;Filament used: 2.97453m
;Layer height: 0.16
;MINX:95.161
;MINY:80.017
;MINZ:0.2
;MAXX:123.922
;MAXY:139.984
;MAXZ:33.04
;Generated with Cura_SteamEngine 4.4.1
M140 S60
M105
M190 S60
M104 S200
M105
M109 S200
M82 ;absolute extrusion mode
M201 X500.00 Y500.00 Z100.00 E5000.00 ;Setup machine max acceleration
M203 X500.00 Y500.00 Z10.00 E50.00 ;Setup machine max feedrate
M204 P500.00 R1000.00 T500.00 ;Setup Print/Retract/Travel acceleration
M205 X8.00 Y8.00 Z0.40 E5.00 ;Setup Jerk
M220 S100 ;Reset Feedrate
M221 S100 ;Reset Flowrate

G28 ;Home
G29 ;Auto bed level

G92 E0 ;Reset Extruder
G1 Z2.0 F3000 ;Move Z Axis up
G1 X10.1 Y20 Z0.28 F5000.0 ;Move to start position
G1 X10.1 Y200.0 Z0.28 F1500.0 E15 ;Draw the first line
G1 X10.4 Y200.0 Z0.28 F5000.0 ;Move to side a little
G1 X10.4 Y20 Z0.28 F1500.0 E30 ;Draw the second line
G92 E0 ;Reset Extruder
G1 Z2.0 F3000 ;Move Z Axis up
G92 E0
G92 E0
G1 F1500 E-6.5
;LAYER_COUNT:223
;LAYER:0
M107
G0 F6000 X97.042 Y84.438 Z0.2
;TYPE:SKIRT
G1 F1500 E0
G1 F1200 X97.586 Y83.866 E0.02625
G1 X98.185 Y83.351 E0.05253
G1 X98.813 Y82.912 E0.07801
G1 X99.351 Y82.574 E0.09915
G1 X100.04 Y82.189 E0.1254
G1 X100.764 Y81.875 E0.15164
G1 X101.517 Y81.635 E0.17793
G1 X102.29 Y81.473 E0.2042
G1 X103.075 Y81.391 E0.23045
G1 X103.501 Y81.379 E0.24463
G1 X115.5 Y81.381 E0.64371
G1 X116.46 Y81.44 E0.6757
G1 X116.75 Y81.476 E0.68542
G1 X117.528 Y81.613 E0.7117
G1 X118.288 Y81.828 E0.73797
G1 X119.022 Y82.119 E0.76423
G1 X119.723 Y82.482 E0.79048
G1 X120.384 Y82.914 E0.81675
G1 X121 Y83.413 E0.84312
G1 X121.333 Y83.712 E0.858
G1 X121.893 Y84.269 E0.88427
G1 X122.394 Y84.879 E0.91053
G1 X122.831 Y85.537 E0.9368
G1 X123.199 Y86.236 E0.96307
G1 X123.494 Y86.968 E0.98932
G1 X123.714 Y87.727 E1.0156
G1 X123.856 Y88.504 E1.04188
G1 X123.922 Y89.516 E1.07561
G1 X123.922 Y130.485 E2.43824
G1 X123.882 Y131.274 E2.46452
G1 X123.763 Y132.054 E2.49076
G1 X123.565 Y132.819 E2.51704
G1 X123.291 Y133.559 E2.54329
G1 X122.943 Y134.268 E2.56956
G1 X122.525 Y134.939 E2.59585
G1 X122.042 Y135.563 E2.6221
G1 X121.49 Y136.144 E2.64875
G1 X121.237 Y136.384 E2.66035
G1 X120.433 Y137.05 E2.69507
G1 X120.354 Y137.107 E2.69831
G1 X119.691 Y137.536 E2.72458
G1 X118.988 Y137.896 E2.75085
G1 X118.252 Y138.183 E2.77712
G1 X117.491 Y138.394 E2.80339
G1 X116.797 Y138.517 E2.82683
G1 X116.505 Y138.555 E2.83662
G1 X115.513 Y138.62 E2.86969
G1 X115.008 Y138.621 E2.88649
G1 X103.5 Y138.621 E3.26924
G1 X102.711 Y138.581 E3.29552
G1 X101.931 Y138.462 E3.32176
G1 X101.166 Y138.264 E3.34805
G1 X100.426 Y137.99 E3.37429
G1 X99.717 Y137.642 E3.40056
G1 X99.351 Y137.426 E3.41469
G1 X98.813 Y137.088 E3.43583
G1 X98.166 Y136.634 E3.46212
G1 X97.569 Y136.118 E3.48836
G1 X97.027 Y135.544 E3.51462
G1 X96.545 Y134.918 E3.5409
G1 X96.13 Y134.246 E3.56717
G1 X95.784 Y133.536 E3.59343
G1 X95.512 Y132.795 E3.61969
G1 X95.317 Y132.029 E3.64598
G1 X95.2 Y131.248 E3.67224
G1 X95.162 Y130.484 E3.69769
G1 X95.161 Y123.219 E3.93932
G1 X95.161 Y123.218 E3.93935
G1 X95.162 Y89.517 E5.06025
G1 X95.202 Y88.728 E5.08653
G1 X95.322 Y87.948 E5.11278
G1 X95.519 Y87.183 E5.13905
G1 X95.794 Y86.442 E5.16534
G1 X96.141 Y85.733 E5.19159
G1 X96.559 Y85.063 E5.21786
G1 X97.042 Y84.438 E5.24413
G0 F6000 X97.438 Y84.594
G1 F1200 X97.978 Y84.047 E5.2697
G1 X98.573 Y83.559 E5.29529
G1 X99.025 Y83.251 E5.31348
G1 X99.563 Y82.913 E5.33462
G1 X100.235 Y82.538 E5.36021
G1 X100.942 Y82.235 E5.38579
G1 X101.677 Y82.007 E5.41139
G1 X102.431 Y81.857 E5.43696
G1 X103.501 Y81.779 E5.47264
G1 X115.5 Y81.781 E5.87173
G1 X116.411 Y81.837 E5.90209
G1 X116.701 Y81.873 E5.91181
G1 X117.458 Y82.008 E5.93738
G1 X118.197 Y82.22 E5.96295
G1 X118.911 Y82.508 E5.98856
G1 X119.59 Y82.868 E6.01412
G1 X120.229 Y83.297 E6.03972
G1 X120.733 Y83.711 E6.06141
G1 X121.066 Y84.01 E6.0763
G1 X121.611 Y84.553 E6.10189
G1 X122.096 Y85.149 E6.12744
G1 X122.517 Y85.793 E6.15303
G1 X122.869 Y86.477 E6.17862
G1 X123.148 Y87.194 E6.20421
G1 X123.351 Y87.936 E6.2298
G1 X123.476 Y88.695 E6.25538
G1 X123.522 Y89.516 E6.28273
G1 X123.522 Y130.485 E7.64536
G1 X123.482 Y131.253 E7.67094
G1 X123.363 Y132.013 E7.69653
G1 X123.165 Y132.756 E7.7221
G1 X122.891 Y133.475 E7.74769
G1 X122.544 Y134.161 E7.77326
G1 X122.128 Y134.808 E7.79885
G1 X121.647 Y135.408 E7.82442
G1 X121.215 Y135.854 E7.84508
G1 X120.962 Y136.094 E7.85667
G1 X120.199 Y136.726 E7.88963
G1 X120.12 Y136.783 E7.89287
G1 X119.474 Y137.2 E7.91844
G1 X118.787 Y137.548 E7.94406
G1 X118.069 Y137.822 E7.96962
G1 X117.326 Y138.021 E7.9952
G1 X116.745 Y138.12 E8.0148
G1 X116.453 Y138.158 E8.0246
G1 X115.513 Y138.22 E8.05593
G1 X115.008 Y138.221 E8.07272
G1 X103.5 Y138.221 E8.45548
G1 X102.732 Y138.181 E8.48106
G1 X101.972 Y138.062 E8.50665
G1 X101.229 Y137.864 E8.53222
G1 X100.51 Y137.59 E8.55781
G1 X99.563 Y137.087 E8.59348
G1 X99.025 Y136.749 E8.61461
G1 X98.396 Y136.307 E8.64018
G1 X97.816 Y135.801 E8.66578
G1 X97.292 Y135.238 E8.69136
G1 X96.829 Y134.624 E8.71694
G1 X96.432 Y133.965 E8.74253
G1 X96.106 Y133.269 E8.76809
G1 X95.854 Y132.542 E8.79368
G1 X95.679 Y131.793 E8.81926
G1 X95.582 Y131.03 E8.84484
G1 X95.562 Y130.484 E8.86302
G1 X95.561 Y123.219 E9.10465
G1 X95.561 Y123.218 E9.10469
G1 X95.562 Y89.517 E10.22558
G1 X95.602 Y88.749 E10.25116
G1 X95.722 Y87.989 E10.27675
G1 X95.919 Y87.246 E10.30232
G1 X96.193 Y86.527 E10.32791
G1 X96.54 Y85.84 E10.35351
G1 X96.956 Y85.194 E10.37907
G1 X97.438 Y84.594 E10.40466
G0 F6000 X97.833 Y84.753
G1 F1200 X98.37 Y84.233 E10.42953
G1 X99.238 Y83.59 E10.46545
G1 X99.776 Y83.252 E10.48659
G1 X100.43 Y82.888 E10.51148
G1 X101.119 Y82.596 E10.53637
G1 X101.835 Y82.38 E10.56125
G1 X102.57 Y82.241 E10.58612
G1 X103.501 Y82.179 E10.61716
G1 X115.5 Y82.181 E11.01625
G1 X116.361 Y82.234 E11.04494
G1 X116.651 Y82.27 E11.05466
G1 X117.388 Y82.402 E11.07956
G1 X118.106 Y82.612 E11.10444
G1 X118.798 Y82.896 E11.12932
G1 X119.455 Y83.254 E11.15421
G1 X120.07 Y83.679 E11.17907
G1 X120.466 Y84.009 E11.19621
G1 X120.799 Y84.308 E11.2111
G1 X121.328 Y84.836 E11.23596
G1 X121.797 Y85.419 E11.26085
G1 X122.202 Y86.048 E11.28573
G1 X122.538 Y86.716 E11.3106
G1 X122.8 Y87.417 E11.33549
G1 X122.986 Y88.142 E11.36038
G1 X123.093 Y88.882 E11.38525
G1 X123.122 Y89.516 E11.40636
G1 X123.122 Y130.485 E12.76899
G1 X123.082 Y131.232 E12.79388
G1 X122.963 Y131.97 E12.81874
G1 X122.765 Y132.692 E12.84364
G1 X122.492 Y133.388 E12.8685
G1 X122.145 Y134.051 E12.89339
G1 X121.73 Y134.674 E12.91829
G1 X121.251 Y135.248 E12.94316
G1 X120.94 Y135.564 E12.9579
G1 X120.687 Y135.804 E12.9695
G1 X119.965 Y136.402 E13.00068
G1 X119.886 Y136.459 E13.00392
G1 X119.257 Y136.863 E13.02879
G1 X118.588 Y137.199 E13.05369
G1 X117.887 Y137.46 E13.07857
G1 X117.163 Y137.646 E13.10343
G1 X116.693 Y137.723 E13.11927
G1 X116.401 Y137.761 E13.12906
G1 X115.512 Y137.82 E13.1587
G1 X115.007 Y137.821 E13.17549
G1 X103.5 Y137.821 E13.55822
G1 X102.753 Y137.781 E13.5831
G1 X102.015 Y137.662 E13.60796
G1 X101.293 Y137.464 E13.63286
G1 X100.597 Y137.191 E13.65773
G1 X99.776 Y136.748 E13.68876
G1 X99.238 Y136.41 E13.70989
G1 X98.627 Y135.979 E13.73476
G1 X98.065 Y135.485 E13.75964
G1 X97.559 Y134.934 E13.78453
G1 X97.115 Y134.332 E13.80941
G1 X96.738 Y133.686 E13.83428
G1 X96.432 Y133.004 E13.85914
G1 X96.2 Y132.292 E13.88405
G1 X96.045 Y131.56 E13.90894
G1 X95.962 Y130.484 E13.94483
G1 X95.961 Y123.219 E14.18647
G1 X95.961 Y123.218 E14.1865
G1 X95.962 Y89.517 E15.3074
G1 X96.002 Y88.77 E15.33228
G1 X96.121 Y88.031 E15.35718
G1 X96.319 Y87.31 E15.38204
G1 X96.593 Y86.614 E15.40692
G1 X96.939 Y85.95 E15.43183
G1 X97.354 Y85.328 E15.4567
G1 X97.833 Y84.753 E15.48159
G0 F6000 X97.751 Y85.467
G1 F1200 X98.227 Y84.919 E15.50573
G1 X98.761 Y84.426 E15.5299
G1 X99.451 Y83.928 E15.5582
G1 X99.989 Y83.59 E15.57934
G1 X100.624 Y83.238 E15.60349
G1 X101.295 Y82.958 E15.62767
G1 X101.991 Y82.754 E15.65179
G1 X102.707 Y82.627 E15.67598
G1 X103.501 Y82.579 E15.70243
G1 X115.5 Y82.581 E16.10152
G1 X116.312 Y82.631 E16.12858
G1 X116.602 Y82.667 E16.1383
G1 X117.317 Y82.796 E16.16246
G1 X118.013 Y83.003 E16.18662
G1 X118.683 Y83.285 E16.21079
G1 X119.317 Y83.639 E16.23494
G1 X119.908 Y84.06 E16.25908
G1 X120.198 Y84.306 E16.27173
G1 X120.531 Y84.605 E16.28661
G1 X121.044 Y85.119 E16.31077
G1 X121.498 Y85.687 E16.33495
G1 X121.886 Y86.301 E16.35911
G1 X122.204 Y86.954 E16.38327
G1 X122.449 Y87.638 E16.40743
G1 X122.617 Y88.344 E16.43157
G1 X122.707 Y89.065 E16.45574
G1 X122.722 Y89.516 E16.47074
G1 X122.722 Y130.485 E17.83338
G1 X122.682 Y131.21 E17.85753
G1 X122.563 Y131.927 E17.8817
G1 X122.365 Y132.626 E17.90587
G1 X122.092 Y133.299 E17.93002
G1 X121.747 Y133.938 E17.95417
G1 X121.333 Y134.535 E17.97834
G1 X120.664 Y135.273 E18.01147
G1 X120.411 Y135.513 E18.02307
G1 X119.731 Y136.077 E18.05245
G1 X119.652 Y136.134 E18.05569
G1 X119.04 Y136.526 E18.07986
G1 X118.389 Y136.849 E18.10403
G1 X117.707 Y137.097 E18.12817
G1 X117.001 Y137.27 E18.15235
G1 X116.642 Y137.327 E18.16444
G1 X116.35 Y137.365 E18.17423
G1 X115.511 Y137.42 E18.2022
G1 X115.006 Y137.421 E18.21899
G1 X103.5 Y137.421 E18.60168
G1 X102.775 Y137.381 E18.62583
G1 X102.058 Y137.262 E18.65001
G1 X101.359 Y137.064 E18.67417
G1 X100.686 Y136.791 E18.69833
G1 X99.989 Y136.41 E18.72475
G1 X99.451 Y136.072 E18.74588
G1 X98.858 Y135.652 E18.77005
G1 X98.315 Y135.17 E18.7942
G1 X97.828 Y134.631 E18.81836
G1 X97.403 Y134.041 E18.84254
G1 X97.046 Y133.409 E18.86669
G1 X96.76 Y132.741 E18.89085
G1 X96.55 Y132.046 E18.915
G1 X96.417 Y131.332 E18.93916
G1 X96.362 Y130.484 E18.96742
G1 X96.361 Y123.219 E19.20906
G1 X96.361 Y123.218 E19.20909
G1 X96.362 Y89.517 E20.32999
G1 X96.402 Y88.792 E20.35414
G1 X96.521 Y88.075 E20.37831
G1 X96.719 Y87.376 E20.40248
G1 X96.992 Y86.703 E20.42663
G1 X97.337 Y86.064 E20.45079
G1 X97.751 Y85.467 E20.47495
G0 F6000 X98.148 Y85.61
G1 F1200 X98.621 Y85.09 E20.49833
G1 X99.151 Y84.626 E20.52176
G1 X99.664 Y84.267 E20.54258
G1 X100.202 Y83.929 E20.56372
G1 X100.818 Y83.589 E20.58712
G1 X101.469 Y83.321 E20.61053
G1 X102.146 Y83.129 E20.63394
G1 X102.841 Y83.014 E20.65737
G1 X103.501 Y82.979 E20.67935
G1 X115.5 Y82.981 E21.07844
G1 X116.263 Y83.028 E21.10386
G1 X116.553 Y83.064 E21.11358
G1 X117.245 Y83.19 E21.13698
G1 X117.919 Y83.394 E21.1604
G1 X118.566 Y83.673 E21.18384
G1 X119.176 Y84.024 E21.20724
G1 X119.931 Y84.604 E21.23891
G1 X120.264 Y84.903 E21.25379
G1 X120.76 Y85.402 E21.27719
G1 X121.197 Y85.954 E21.30061
G1 X121.568 Y86.553 E21.32405
G1 X121.869 Y87.189 E21.34745
G1 X122.096 Y87.856 E21.37088
G1 X122.245 Y88.544 E21.3943
G1 X122.322 Y89.516 E21.42673
G1 X122.322 Y130.485 E22.78936
G1 X122.282 Y131.188 E22.81278
G1 X122.163 Y131.882 E22.8362
G1 X121.965 Y132.557 E22.8596
G1 X121.693 Y133.206 E22.883
G1 X121.348 Y133.82 E22.90643
G1 X120.937 Y134.391 E22.92983
G1 X120.389 Y134.983 E22.95666
G1 X120.136 Y135.223 E22.96826
G1 X119.497 Y135.753 E22.99587
G1 X119.418 Y135.81 E22.99911
G1 X118.824 Y136.189 E23.02254
G1 X118.192 Y136.498 E23.04594
G1 X117.528 Y136.733 E23.06937
G1 X116.59 Y136.93 E23.10125
G1 X116.298 Y136.968 E23.11104
G1 X115.51 Y137.02 E23.13731
G1 X115.005 Y137.021 E23.1541
G1 X103.5 Y137.021 E23.53676
G1 X102.797 Y136.981 E23.56018
G1 X102.103 Y136.862 E23.5836
G1 X101.428 Y136.664 E23.607
G1 X100.779 Y136.392 E23.6304
G1 X100.202 Y136.071 E23.65236
G1 X99.664 Y135.733 E23.6735
G1 X99.09 Y135.325 E23.69692
G1 X98.566 Y134.855 E23.72033
G1 X98.099 Y134.328 E23.74375
G1 X97.694 Y133.752 E23.76717
G1 X97.357 Y133.134 E23.79058
G1 X97.093 Y132.482 E23.81398
G1 X96.904 Y131.803 E23.83742
G1 X96.794 Y131.108 E23.86082
G1 X96.762 Y130.484 E23.88161
G1 X96.761 Y123.219 E24.12324
G1 X96.761 Y123.218 E24.12327
G1 X96.762 Y89.517 E25.24417
G1 X96.802 Y88.814 E25.26759
G1 X96.921 Y88.12 E25.29101
G1 X97.119 Y87.444 E25.31444
G1 X97.391 Y86.795 E25.33785
G1 X97.736 Y86.181 E25.36127
G1 X98.148 Y85.61 E25.38469
G0 F6000 X98.543 Y85.76
G1 F1200 X99.014 Y85.268 E25.40734
G1 X99.539 Y84.835 E25.42998
G1 X99.877 Y84.606 E25.44356
G1 X100.415 Y84.268 E25.46469
G1 X101.011 Y83.94 E25.48732
G1 X101.642 Y83.685 E25.50995
G1 X102.299 Y83.505 E25.53261
G1 X102.972 Y83.403 E25.55525
G1 X103.501 Y83.379 E25.57286
G1 X115.5 Y83.381 E25.97195
G1 X116.214 Y83.425 E25.99574
G1 X116.504 Y83.461 E26.00546
G1 X117.173 Y83.585 E26.02809
G1 X117.824 Y83.786 E26.05075
G1 X118.446 Y84.061 E26.07337
G1 X119.032 Y84.408 E26.09602
G1 X119.664 Y84.901 E26.12268
G1 X119.997 Y85.2 E26.13757
G1 X120.476 Y85.684 E26.16022
G1 X120.895 Y86.221 E26.18287
G1 X121.248 Y86.803 E26.20551
G1 X121.531 Y87.422 E26.22815
G1 X121.739 Y88.071 E26.25082
G1 X121.87 Y88.739 E26.27346
G1 X121.922 Y89.516 E26.29936
G1 X121.922 Y130.485 E27.66199
G1 X121.882 Y131.165 E27.68465
G1 X121.763 Y131.835 E27.70728
G1 X121.566 Y132.487 E27.72994
G1 X121.294 Y133.111 E27.75258
G1 X120.95 Y133.699 E27.77523
G1 X120.54 Y134.243 E27.79789
G1 X120.114 Y134.693 E27.8185
G1 X119.861 Y134.933 E27.8301
G1 X119.263 Y135.429 E27.85594
G1 X119.184 Y135.486 E27.85918
G1 X118.609 Y135.851 E27.88183
G1 X117.996 Y136.146 E27.90446
G1 X117.352 Y136.368 E27.92711
G1 X116.538 Y136.534 E27.95475
G1 X116.246 Y136.572 E27.96454
G1 X115.509 Y136.62 E27.9891
G1 X115.004 Y136.621 E28.0059
G1 X103.5 Y136.621 E28.38853
G1 X102.82 Y136.581 E28.41118
G1 X102.15 Y136.462 E28.43381
G1 X101.498 Y136.265 E28.45647
G1 X100.874 Y135.993 E28.47911
G1 X100.415 Y135.732 E28.49667
G1 X99.877 Y135.394 E28.5178
G1 X99.322 Y134.999 E28.54046
G1 X98.818 Y134.541 E28.56311
G1 X98.371 Y134.028 E28.58574
G1 X97.987 Y133.465 E28.60841
G1 X97.672 Y132.862 E28.63104
G1 X97.43 Y132.225 E28.6537
G1 X97.264 Y131.565 E28.67634
G1 X97.176 Y130.89 E28.69898
G1 X97.162 Y130.484 E28.71249
G1 X97.161 Y123.219 E28.95412
G1 X97.162 Y89.518 E30.07502
G1 X97.202 Y88.838 E30.09768
G1 X97.321 Y88.168 E30.12031
G1 X97.518 Y87.516 E30.14296
G1 X97.79 Y86.892 E30.16561
G1 X98.133 Y86.304 E30.18825
G1 X98.543 Y85.76 E30.2109
G0 F6000 X98.939 Y85.915
G1 F1200 X99.406 Y85.453 E30.23275
G1 X100.089 Y84.945 E30.26106
G1 X100.627 Y84.607 E30.2822
G1 X101.204 Y84.292 E30.30406
G1 X101.814 Y84.049 E30.3259
G1 X102.45 Y83.882 E30.34777
G1 X103.101 Y83.794 E30.36962
G1 X103.501 Y83.779 E30.38293
G1 X115.5 Y83.781 E30.78202
G1 X116.164 Y83.822 E30.80415
G1 X116.454 Y83.858 E30.81387
G1 X117.1 Y83.979 E30.83573
G1 X117.726 Y84.177 E30.85756
G1 X118.324 Y84.449 E30.87942
G1 X118.884 Y84.792 E30.90126
G1 X119.397 Y85.199 E30.92304
G1 X119.73 Y85.498 E30.93792
G1 X120.191 Y85.966 E30.95977
G1 X120.592 Y86.486 E30.98161
G1 X120.927 Y87.051 E31.00346
G1 X121.191 Y87.653 E31.02532
G1 X121.379 Y88.282 E31.04716
G1 X121.49 Y88.93 E31.06902
G1 X121.522 Y89.516 E31.08854
G1 X121.522 Y130.485 E32.45118
G1 X121.482 Y131.141 E32.47304
G1 X121.363 Y131.787 E32.49488
G1 X121.166 Y132.414 E32.51674
G1 X120.894 Y133.012 E32.53859
G1 X120.552 Y133.573 E32.56045
G1 X120.144 Y134.088 E32.5823
G1 X119.838 Y134.403 E32.59691
G1 X119.585 Y134.643 E32.60851
G1 X119.029 Y135.104 E32.63253
G1 X118.95 Y135.161 E32.63577
G1 X118.394 Y135.512 E32.65764
G1 X117.801 Y135.794 E32.67948
G1 X117.177 Y136.001 E32.70134
G1 X116.487 Y136.137 E32.72473
G1 X116.195 Y136.175 E32.73453
G1 X115.509 Y136.22 E32.75739
G1 X115.004 Y136.221 E32.77419
G1 X103.5 Y136.221 E33.15681
G1 X102.844 Y136.181 E33.17867
G1 X102.198 Y136.062 E33.20052
G1 X101.571 Y135.865 E33.22238
G1 X100.973 Y135.593 E33.24423
G1 X100.627 Y135.393 E33.25752
G1 X100.089 Y135.055 E33.27866
G1 X99.555 Y134.673 E33.30049
G1 X99.072 Y134.228 E33.32234
G1 X98.646 Y133.728 E33.34418
G1 X98.284 Y133.18 E33.36603
G1 X97.991 Y132.592 E33.38788
G1 X97.771 Y131.972 E33.40976
G1 X97.629 Y131.331 E33.4316
G1 X97.562 Y130.484 E33.45986
G1 X97.561 Y123.219 E33.70149
G1 X97.562 Y89.518 E34.82239
G1 X97.602 Y88.862 E34.84425
G1 X97.721 Y88.216 E34.8661
G1 X97.918 Y87.589 E34.88796
G1 X98.189 Y86.991 E34.90979
G1 X98.531 Y86.43 E34.93165
G1 X98.939 Y85.915 E34.9535
G0 F6000 X99.334 Y86.076
G1 F1200 X99.797 Y85.646 E34.97451
G1 X100.302 Y85.283 E34.9952
G1 X100.84 Y84.945 E35.01633
G1 X101.396 Y84.643 E35.03738
G1 X101.985 Y84.414 E35.0584
G1 X102.598 Y84.261 E35.07941
