;FLAVOR:Marlin
;TIME:1038
;Filament used: 0.704983m
;Layer height: 0.16
;MINX:79
;MINY:91.55
;MINZ:0.2
;MAXX:141
;MAXY:128.45
;MAXZ:2.4
;Generated with Cura_SteamEngine 4.4.1
M140 S60
M105
M190 S60
M104 S200
M105
M109 S200
M82 ;absolute extrusion mode
M201 X500.00 Y500.00 Z100.00 E5000.00 ;Setup machine max acceleration
M203 X500.00 Y500.00 Z10.00 E50.00 ;Setup machine max feedrate
M204 P500.00 R1000.00 T500.00 ;Setup Print/Retract/Travel acceleration
M205 X8.00 Y8.00 Z0.40 E5.00 ;Setup Jerk
M220 S100 ;Reset Feedrate
M221 S100 ;Reset Flowrate

G28 ;Home
G29 ;Auto bed level

G92 E0 ;Reset Extruder
G1 Z2.0 F3000 ;Move Z Axis up
G1 X10.1 Y20 Z0.28 F5000.0 ;Move to start position
G1 X10.1 Y200.0 Z0.28 F1500.0 E15 ;Draw the first line
G1 X10.4 Y200.0 Z0.28 F5000.0 ;Move to side a little
G1 X10.4 Y20 Z0.28 F1500.0 E30 ;Draw the second line
G92 E0 ;Reset Extruder
G1 Z2.0 F3000 ;Move Z Axis up
G92 E0
G92 E0
G1 F1500 E-6.5
;LAYER_COUNT:13
;LAYER:0
M107
G0 F6000 X81.423 Y93.699 Z0.2
;TYPE:SKIRT
G1 F1500 E0
G1 F1200 X82.022 Y93.184 E0.02627
G1 X82.67 Y92.733 E0.05253
G1 X83.361 Y92.349 E0.07883
G1 X84.086 Y92.037 E0.10508
G1 X84.839 Y91.8 E0.13133
G1 X85.613 Y91.641 E0.15761
G1 X86.398 Y91.56 E0.18386
G1 X86.8 Y91.55 E0.19724
G1 X133.2 Y91.55 E1.74051
G1 X133.989 Y91.59 E1.76678
G1 X134.769 Y91.709 E1.79303
G1 X135.534 Y91.907 E1.81931
G1 X136.274 Y92.181 E1.84555
G1 X136.983 Y92.529 E1.87182
G1 X137.654 Y92.947 E1.89812
G1 X138.278 Y93.43 E1.92436
G1 X138.851 Y93.973 E1.95062
G1 X139.366 Y94.572 E1.97689
G1 X139.817 Y95.22 E2.00315
G1 X140.201 Y95.911 E2.02944
G1 X140.513 Y96.636 E2.0557
G1 X140.75 Y97.389 E2.08195
G1 X140.909 Y98.163 E2.10823
G1 X140.99 Y98.948 E2.13448
G1 X141 Y99.35 E2.14786
G1 X141 Y120.65 E2.8563
G1 X140.96 Y121.439 E2.88257
G1 X140.841 Y122.219 E2.90882
G1 X140.643 Y122.984 E2.9351
G1 X140.369 Y123.724 E2.96134
G1 X140.021 Y124.433 E2.98761
G1 X139.603 Y125.104 E3.01391
G1 X139.12 Y125.728 E3.04015
G1 X138.577 Y126.301 E3.06641
G1 X137.978 Y126.816 E3.09268
G1 X137.33 Y127.267 E3.11894
G1 X136.639 Y127.651 E3.14523
G1 X135.914 Y127.963 E3.17148
G1 X135.161 Y128.2 E3.19774
G1 X134.387 Y128.359 E3.22402
G1 X133.602 Y128.44 E3.25027
G1 X133.2 Y128.45 E3.26364
G1 X117.5 Y128.45 E3.78583
G1 X116.711 Y128.41 E3.8121
G1 X115.931 Y128.291 E3.83835
G1 X115.166 Y128.093 E3.86463
G1 X114.426 Y127.819 E3.89088
G1 X113.717 Y127.471 E3.91714
G1 X113.046 Y127.053 E3.94344
G1 X112.422 Y126.57 E3.96968
G1 X111.849 Y126.027 E3.99594
G1 X111.334 Y125.428 E4.02221
G1 X110.883 Y124.78 E4.04847
G1 X110.7 Y124.45 E4.06102
G1 X109.31 Y124.45 E4.10725
G1 X108.903 Y125.104 E4.13287
G1 X108.42 Y125.728 E4.15912
G1 X107.877 Y126.301 E4.18538
G1 X107.278 Y126.816 E4.21165
G1 X106.63 Y127.267 E4.23791
G1 X105.939 Y127.651 E4.2642
G1 X105.214 Y127.963 E4.29045
G1 X104.461 Y128.2 E4.31671
G1 X103.687 Y128.359 E4.34299
G1 X102.902 Y128.44 E4.36924
G1 X102.5 Y128.45 E4.38261
G1 X86.8 Y128.45 E4.9048
G1 X86.011 Y128.41 E4.93107
G1 X85.231 Y128.291 E4.95732
G1 X84.466 Y128.093 E4.9836
G1 X83.726 Y127.819 E5.00984
G1 X83.017 Y127.471 E5.03611
G1 X82.346 Y127.053 E5.06241
G1 X81.722 Y126.57 E5.08865
G1 X81.149 Y126.027 E5.11491
G1 X80.634 Y125.428 E5.14118
G1 X80.183 Y124.78 E5.16744
G1 X79.799 Y124.089 E5.19373
G1 X79.487 Y123.364 E5.21999
G1 X79.25 Y122.611 E5.24624
G1 X79.091 Y121.837 E5.27252
G1 X79.01 Y121.052 E5.29877
G1 X79 Y120.65 E5.31215
G1 X79 Y99.35 E6.02059
G1 X79.04 Y98.561 E6.04686
G1 X79.159 Y97.781 E6.0731
G1 X79.357 Y97.016 E6.09939
G1 X79.631 Y96.276 E6.12563
G1 X79.979 Y95.567 E6.1519
G1 X80.397 Y94.896 E6.1782
G1 X80.88 Y94.272 E6.20444
G1 X81.423 Y93.699 E6.2307
G0 F6000 X81.816 Y93.88
G1 F1200 X82.411 Y93.392 E6.25629
G1 X83.053 Y92.969 E6.28186
G1 X83.736 Y92.614 E6.30746
G1 X84.451 Y92.333 E6.33302
G1 X85.193 Y92.127 E6.35863
G1 X85.951 Y91.999 E6.3842
G1 X86.8 Y91.95 E6.41248
G1 X133.2 Y91.95 E7.95575
G1 X133.968 Y91.99 E7.98133
G1 X134.728 Y92.109 E8.00692
G1 X135.471 Y92.307 E8.03249
G1 X136.19 Y92.581 E8.05808
G1 X136.876 Y92.928 E8.08365
G1 X137.523 Y93.344 E8.10924
G1 X138.123 Y93.825 E8.13481
G1 X138.67 Y94.366 E8.1604
G1 X139.158 Y94.961 E8.186
G1 X139.581 Y95.603 E8.21157
G1 X139.936 Y96.286 E8.23717
G1 X140.217 Y97.001 E8.26272
G1 X140.423 Y97.743 E8.28833
G1 X140.551 Y98.501 E8.3139
G1 X140.6 Y99.35 E8.34219
G1 X140.6 Y120.65 E9.05063
G1 X140.56 Y121.418 E9.0762
G1 X140.441 Y122.178 E9.10179
G1 X140.243 Y122.921 E9.12737
G1 X139.969 Y123.64 E9.15296
G1 X139.622 Y124.326 E9.17853
G1 X139.206 Y124.973 E9.20411
G1 X138.725 Y125.573 E9.22969
G1 X138.184 Y126.12 E9.25528
G1 X137.589 Y126.608 E9.28087
G1 X136.947 Y127.031 E9.30644
G1 X136.264 Y127.386 E9.33204
G1 X135.549 Y127.667 E9.35759
G1 X134.807 Y127.873 E9.38321
G1 X134.049 Y128.001 E9.40878
G1 X133.2 Y128.05 E9.43706
G1 X117.5 Y128.05 E9.95924
G1 X116.732 Y128.01 E9.98482
G1 X115.972 Y127.891 E10.01041
G1 X115.229 Y127.693 E10.03598
G1 X114.51 Y127.419 E10.06157
G1 X113.824 Y127.072 E10.08714
G1 X113.177 Y126.656 E10.11273
G1 X112.577 Y126.175 E10.1383
G1 X112.03 Y125.634 E10.16389
G1 X111.542 Y125.039 E10.18949
G1 X111.119 Y124.397 E10.21506
G1 X110.939 Y124.05 E10.22806
G1 X109.062 Y124.05 E10.29049
G1 X108.922 Y124.326 E10.30078
G1 X108.506 Y124.973 E10.32637
G1 X108.025 Y125.573 E10.35194
G1 X107.484 Y126.12 E10.37753
G1 X106.889 Y126.608 E10.40313
G1 X106.247 Y127.031 E10.4287
G1 X105.564 Y127.386 E10.4543
G1 X104.849 Y127.667 E10.47985
G1 X104.107 Y127.873 E10.50546
G1 X103.349 Y128.001 E10.53103
G1 X102.5 Y128.05 E10.55932
G1 X86.8 Y128.05 E11.0815
G1 X86.032 Y128.01 E11.10708
G1 X85.272 Y127.891 E11.13267
G1 X84.529 Y127.693 E11.15824
G1 X83.81 Y127.419 E11.18383
G1 X83.124 Y127.072 E11.2094
G1 X82.477 Y126.656 E11.23498
G1 X81.877 Y126.175 E11.26056
G1 X81.33 Y125.634 E11.28615
G1 X80.842 Y125.039 E11.31174
G1 X80.419 Y124.397 E11.33732
G1 X80.064 Y123.714 E11.36292
G1 X79.783 Y122.999 E11.38847
G1 X79.577 Y122.257 E11.41408
G1 X79.449 Y121.499 E11.43965
G1 X79.4 Y120.65 E11.46793
G1 X79.4 Y99.35 E12.17638
G1 X79.44 Y98.582 E12.20195
G1 X79.559 Y97.822 E12.22754
G1 X79.757 Y97.079 E12.25311
G1 X80.031 Y96.36 E12.27871
G1 X80.378 Y95.674 E12.30428
G1 X80.794 Y95.027 E12.32986
G1 X81.275 Y94.427 E12.35544
G1 X81.816 Y93.88 E12.38102
G0 F6000 X82.208 Y94.066
G1 F1200 X82.798 Y93.607 E12.40589
G1 X83.434 Y93.212 E12.43079
G1 X84.108 Y92.888 E12.45566
G1 X84.813 Y92.638 E12.48054
G1 X85.541 Y92.464 E12.50544
G1 X86.283 Y92.369 E12.53032
G1 X86.8 Y92.35 E12.54752
G1 X133.2 Y92.35 E14.09079
G1 X133.947 Y92.39 E14.11567
G1 X134.685 Y92.509 E14.14054
G1 X135.407 Y92.707 E14.16544
G1 X136.103 Y92.98 E14.1903
G1 X136.766 Y93.327 E14.21519
G1 X137.389 Y93.742 E14.24009
G1 X137.963 Y94.221 E14.26496
G1 X138.484 Y94.758 E14.28984
G1 X138.943 Y95.348 E14.3147
G1 X139.338 Y95.984 E14.33961
G1 X139.662 Y96.658 E14.36448
G1 X139.912 Y97.363 E14.38936
G1 X140.086 Y98.091 E14.41425
G1 X140.181 Y98.833 E14.43913
G1 X140.2 Y99.35 E14.45634
G1 X140.2 Y120.65 E15.16478
G1 X140.16 Y121.397 E15.18966
G1 X140.041 Y122.135 E15.21453
G1 X139.843 Y122.857 E15.23943
G1 X139.57 Y123.553 E15.26429
G1 X139.223 Y124.216 E15.28918
G1 X138.808 Y124.839 E15.31408
G1 X138.329 Y125.413 E15.33894
G1 X137.792 Y125.934 E15.36383
G1 X137.202 Y126.393 E15.38869
G1 X136.566 Y126.788 E15.41359
G1 X135.892 Y127.112 E15.43847
G1 X135.187 Y127.362 E15.46335
G1 X134.459 Y127.536 E15.48824
G1 X133.717 Y127.631 E15.51312
G1 X133.2 Y127.65 E15.53033
G1 X117.5 Y127.65 E16.05251
G1 X116.753 Y127.61 E16.07739
G1 X116.015 Y127.491 E16.10226
G1 X115.293 Y127.293 E16.12716
G1 X114.597 Y127.02 E16.15202
G1 X113.934 Y126.673 E16.17691
G1 X113.311 Y126.258 E16.20181
G1 X112.737 Y125.779 E16.22667
G1 X112.216 Y125.242 E16.25156
G1 X111.757 Y124.652 E16.27642
G1 X111.362 Y124.016 E16.30132
G1 X111.186 Y123.65 E16.31483
G1 X108.819 Y123.65 E16.39356
G1 X108.523 Y124.216 E16.4148
G1 X108.108 Y124.839 E16.4397
G1 X107.629 Y125.413 E16.46457
G1 X107.092 Y125.934 E16.48945
G1 X106.502 Y126.393 E16.51431
G1 X105.866 Y126.788 E16.53921
G1 X105.192 Y127.112 E16.56409
G1 X104.487 Y127.362 E16.58897
G1 X103.759 Y127.536 E16.61386
G1 X103.017 Y127.631 E16.63874
G1 X102.5 Y127.65 E16.65595
G1 X86.8 Y127.65 E17.17813
G1 X86.053 Y127.61 E17.20301
G1 X85.315 Y127.491 E17.22788
G1 X84.593 Y127.293 E17.25278
G1 X83.897 Y127.02 E17.27764
G1 X83.234 Y126.673 E17.30253
G1 X82.611 Y126.258 E17.32743
G1 X82.037 Y125.779 E17.3523
G1 X81.516 Y125.242 E17.37718
G1 X81.057 Y124.652 E17.40204
G1 X80.662 Y124.016 E17.42695
G1 X80.338 Y123.342 E17.45182
G1 X80.088 Y122.637 E17.4767
G1 X79.914 Y121.909 E17.50159
G1 X79.819 Y121.167 E17.52647
G1 X79.8 Y120.65 E17.54368
G1 X79.8 Y99.35 E18.25212
G1 X79.84 Y98.603 E18.277
G1 X79.959 Y97.865 E18.30186
G1 X80.157 Y97.143 E18.32677
G1 X80.43 Y96.447 E18.35163
G1 X80.777 Y95.784 E18.37652
G1 X81.192 Y95.161 E18.40142
G1 X81.671 Y94.587 E18.42628
G1 X82.208 Y94.066 E18.45117
G0 F6000 X82.065 Y94.752
G1 F1200 X82.599 Y94.259 E18.47534
G1 X83.184 Y93.829 E18.49949
G1 X83.813 Y93.465 E18.52366
G1 X84.478 Y93.172 E18.54783
G1 X85.171 Y92.954 E18.57199
G1 X85.883 Y92.814 E18.59613
G1 X86.8 Y92.75 E18.6267
G1 X133.2 Y92.75 E20.16997
G1 X133.925 Y92.79 E20.19412
G1 X134.642 Y92.909 E20.2183
G1 X135.341 Y93.107 E20.24246
G1 X136.014 Y93.38 E20.26662
G1 X136.653 Y93.725 E20.29077
G1 X137.25 Y94.139 E20.31493
G1 X137.798 Y94.615 E20.33907
G1 X138.291 Y95.149 E20.36325
G1 X138.721 Y95.734 E20.38739
G1 X139.085 Y96.363 E20.41157
G1 X139.378 Y97.028 E20.43574
G1 X139.596 Y97.721 E20.4599
G1 X139.736 Y98.433 E20.48403
G1 X139.8 Y99.35 E20.51461
G1 X139.8 Y120.65 E21.22305
G1 X139.76 Y121.375 E21.2472
G1 X139.641 Y122.092 E21.27137
G1 X139.443 Y122.791 E21.29554
G1 X139.17 Y123.464 E21.31969
G1 X138.825 Y124.103 E21.34384
G1 X138.411 Y124.7 E21.36801
G1 X137.935 Y125.248 E21.39215
G1 X137.401 Y125.741 E21.41632
G1 X136.816 Y126.171 E21.44047
G1 X136.187 Y126.535 E21.46464
G1 X135.522 Y126.828 E21.48881
G1 X134.829 Y127.046 E21.51297
G1 X134.117 Y127.186 E21.53711
G1 X133.2 Y127.25 E21.56768
G1 X117.5 Y127.25 E22.08987
G1 X116.775 Y127.21 E22.11402
G1 X116.058 Y127.091 E22.13819
G1 X115.359 Y126.893 E22.16235
G1 X114.686 Y126.62 E22.18651
G1 X114.047 Y126.275 E22.21066
G1 X113.45 Y125.861 E22.23483
G1 X112.902 Y125.385 E22.25897
G1 X112.409 Y124.851 E22.28314
G1 X111.979 Y124.266 E22.30729
G1 X111.615 Y123.637 E22.33146
G1 X111.444 Y123.25 E22.34553
G1 X108.557 Y123.25 E22.44156
G1 X108.47 Y123.464 E22.44924
G1 X108.125 Y124.103 E22.47339
G1 X107.711 Y124.7 E22.49756
G1 X107.235 Y125.248 E22.5217
G1 X106.701 Y125.741 E22.54587
G1 X106.116 Y126.171 E22.57002
G1 X105.487 Y126.535 E22.59419
G1 X104.822 Y126.828 E22.61836
G1 X104.129 Y127.046 E22.64252
G1 X103.417 Y127.186 E22.66666
G1 X102.5 Y127.25 E22.69723
G1 X86.8 Y127.25 E23.21941
G1 X86.075 Y127.21 E23.24356
G1 X85.358 Y127.091 E23.26774
G1 X84.659 Y126.893 E23.2919
G1 X83.986 Y126.62 E23.31606
G1 X83.347 Y126.275 E23.34021
G1 X82.75 Y125.861 E23.36437
G1 X82.202 Y125.385 E23.38852
G1 X81.709 Y124.851 E23.41269
G1 X81.279 Y124.266 E23.43684
G1 X80.915 Y123.637 E23.46101
G1 X80.622 Y122.972 E23.48518
G1 X80.404 Y122.279 E23.50934
G1 X80.264 Y121.567 E23.53348
G1 X80.2 Y120.65 E23.56405
G1 X80.2 Y99.35 E24.27249
G1 X80.24 Y98.625 E24.29664
G1 X80.359 Y97.908 E24.32081
G1 X80.557 Y97.209 E24.34498
G1 X80.83 Y96.536 E24.36913
G1 X81.175 Y95.897 E24.39329
G1 X81.589 Y95.3 E24.41745
G1 X82.065 Y94.752 E24.44159
G0 F6000 X82.459 Y94.923
G1 F1200 X82.989 Y94.459 E24.46502
G1 X83.568 Y94.059 E24.48843
G1 X84.189 Y93.727 E24.51185
G1 X84.843 Y93.467 E24.53526
G1 X85.523 Y93.283 E24.55869
G1 X86.219 Y93.177 E24.5821
G1 X86.8 Y93.15 E24.60145
G1 X133.2 Y93.15 E26.14472
G1 X133.903 Y93.19 E26.16814
G1 X134.597 Y93.309 E26.19156
G1 X135.272 Y93.507 E26.21495
G1 X135.921 Y93.779 E26.23836
G1 X136.535 Y94.124 E26.26178
G1 X137.106 Y94.535 E26.28518
G1 X137.627 Y95.009 E26.30861
G1 X138.091 Y95.539 E26.33204
G1 X138.491 Y96.118 E26.35544
G1 X138.823 Y96.739 E26.37887
G1 X139.083 Y97.393 E26.40227
G1 X139.267 Y98.073 E26.4257
G1 X139.373 Y98.769 E26.44912
G1 X139.4 Y99.35 E26.46847
G1 X139.4 Y120.65 E27.17691
G1 X139.36 Y121.353 E27.20033
G1 X139.241 Y122.047 E27.22375
G1 X139.043 Y122.722 E27.24714
G1 X138.771 Y123.371 E27.27055
G1 X138.426 Y123.985 E27.29397
G1 X138.015 Y124.556 E27.31737
G1 X137.541 Y125.077 E27.3408
G1 X137.011 Y125.541 E27.36423
G1 X136.432 Y125.941 E27.38763
G1 X135.811 Y126.273 E27.41105
G1 X135.157 Y126.533 E27.43446
G1 X134.477 Y126.717 E27.45789
G1 X133.781 Y126.823 E27.48131
G1 X133.2 Y126.85 E27.50065
G1 X117.5 Y126.85 E28.02284
G1 X116.797 Y126.81 E28.04626
G1 X116.103 Y126.691 E28.06968
G1 X115.428 Y126.493 E28.09307
G1 X114.779 Y126.221 E28.11648
G1 X114.165 Y125.876 E28.1399
G1 X113.594 Y125.465 E28.1633
G1 X113.073 Y124.991 E28.18673
G1 X112.609 Y124.461 E28.21016
G1 X112.209 Y123.882 E28.23356
G1 X111.877 Y123.261 E28.25699
G1 X111.714 Y122.85 E28.27169
G1 X108.289 Y122.85 E28.38561
G1 X108.071 Y123.371 E28.40439
G1 X107.726 Y123.985 E28.42782
G1 X107.315 Y124.556 E28.45122
G1 X106.841 Y125.077 E28.47464
G1 X106.311 Y125.541 E28.49807
G1 X105.732 Y125.941 E28.52148
G1 X105.111 Y126.273 E28.5449
G1 X104.457 Y126.533 E28.56831
G1 X103.777 Y126.717 E28.59174
G1 X103.081 Y126.823 E28.61515
G1 X102.5 Y126.85 E28.6345
G1 X86.8 Y126.85 E29.15668
G1 X86.097 Y126.81 E29.1801
G1 X85.403 Y126.691 E29.20352
G1 X84.728 Y126.493 E29.22692
G1 X84.079 Y126.221 E29.25032
G1 X83.465 Y125.876 E29.27375
G1 X82.894 Y125.465 E29.29715
G1 X82.373 Y124.991 E29.32057
G1 X81.909 Y124.461 E29.344
G1 X81.509 Y123.882 E29.36741
G1 X81.177 Y123.261 E29.39083
G1 X80.917 Y122.607 E29.41424
G1 X80.733 Y121.927 E29.43767
G1 X80.627 Y121.231 E29.46108
G1 X80.6 Y120.65 E29.48043
G1 X80.6 Y99.35 E30.18887
G1 X80.64 Y98.647 E30.21229
G1 X80.759 Y97.953 E30.23571
G1 X80.957 Y97.278 E30.25911
G1 X81.229 Y96.629 E30.28251
G1 X81.574 Y96.015 E30.30594
G1 X81.985 Y95.444 E30.32934
G1 X82.459 Y94.923 E30.35276
G0 F6000 X82.853 Y95.101
G1 F1200 X83.378 Y94.667 E30.37542
G1 X83.95 Y94.298 E30.39806
G1 X84.562 Y93.999 E30.42071
G1 X85.204 Y93.774 E30.44334
G1 X85.869 Y93.625 E30.46601
G1 X86.8 Y93.55 E30.49707
G1 X133.2 Y93.55 E32.04034
G1 X133.88 Y93.59 E32.063
G1 X134.55 Y93.709 E32.08563
G1 X135.202 Y93.906 E32.10828
G1 X135.826 Y94.178 E32.13092
G1 X136.414 Y94.522 E32.15358
G1 X136.958 Y94.932 E32.17624
G1 X137.449 Y95.403 E32.19887
G1 X137.883 Y95.928 E32.22152
G1 X138.252 Y96.5 E32.24416
G1 X138.551 Y97.112 E32.26682
G1 X138.776 Y97.754 E32.28945
G1 X138.925 Y98.419 E32.31211
G1 X139 Y99.35 E32.34318
G1 X139 Y120.65 E33.05162
G1 X138.96 Y121.33 E33.07427
G1 X138.841 Y122 E33.09691
G1 X138.644 Y122.652 E33.11956
G1 X138.372 Y123.276 E33.1422
G1 X138.028 Y123.864 E33.16486
G1 X137.618 Y124.408 E33.18752
G1 X137.147 Y124.899 E33.21015
G1 X136.622 Y125.333 E33.2328
G1 X136.05 Y125.702 E33.25544
G1 X135.438 Y126.001 E33.2781
G1 X134.796 Y126.226 E33.30072
G1 X134.131 Y126.375 E33.32339
G1 X133.2 Y126.45 E33.35445
G1 X117.5 Y126.45 E33.87664
G1 X116.82 Y126.41 E33.89929
G1 X116.15 Y126.291 E33.92193
G1 X115.498 Y126.094 E33.94458
G1 X114.874 Y125.822 E33.96722
G1 X114.286 Y125.478 E33.98988
G1 X113.742 Y125.068 E34.01254
G1 X113.251 Y124.597 E34.03517
G1 X112.817 Y124.072 E34.05782
G1 X112.448 Y123.5 E34.08046
G1 X112.149 Y122.888 E34.10312
G1 X111.995 Y122.45 E34.11856
G1 X108.005 Y122.45 E34.25127
G1 X107.944 Y122.652 E34.25828
G1 X107.672 Y123.276 E34.28093
G1 X107.328 Y123.864 E34.30358
G1 X106.918 Y124.408 E34.32624
G1 X106.447 Y124.899 E34.34887
G1 X105.922 Y125.333 E34.37153
G1 X105.35 Y125.702 E34.39417
G1 X104.738 Y126.001 E34.41682
G1 X104.096 Y126.226 E34.43945
G1 X103.431 Y126.375 E34.46211
G1 X102.5 Y126.45 E34.49318
G1 X86.8 Y126.45 E35.01536
G1 X86.12 Y126.41 E35.03802
G1 X85.45 Y126.291 E35.06065
G1 X84.798 Y126.094 E35.08331
G1 X84.174 Y125.822 E35.10595
G1 X83.586 Y125.478 E35.1286
G1 X83.042 Y125.068 E35.15126
G1 X82.551 Y124.597 E35.17389
G1 X82.117 Y124.072 E35.19655
G1 X81.748 Y123.5 E35.21919
G1 X81.449 Y122.888 E35.24184
