;FLAVOR:Marlin
;TIME:2788
;Filament used: 1.40204m
;Layer height: 0.16
;MINX:85.6
;MINY:91.2
;MINZ:0.2
;MAXX:134.4
;MAXY:128.8
;MAXZ:20
;Generated with Cura_SteamEngine 4.4.1
M140 S60
M105
M190 S60
M104 S200
M105
M109 S200
M82 ;absolute extrusion mode
M201 X500.00 Y500.00 Z100.00 E5000.00 ;Setup machine max acceleration
M203 X500.00 Y500.00 Z10.00 E50.00 ;Setup machine max feedrate
M204 P500.00 R1000.00 T500.00 ;Setup Print/Retract/Travel acceleration
M205 X8.00 Y8.00 Z0.40 E5.00 ;Setup Jerk
M220 S100 ;Reset Feedrate
M221 S100 ;Reset Flowrate

G28 ;Home
G29 ;Auto bed level

G92 E0 ;Reset Extruder
G1 Z2.0 F3000 ;Move Z Axis up
G1 X10.1 Y20 Z0.28 F5000.0 ;Move to start position
G1 X10.1 Y200.0 Z0.28 F1500.0 E15 ;Draw the first line
G1 X10.4 Y200.0 Z0.28 F5000.0 ;Move to side a little
G1 X10.4 Y20 Z0.28 F1500.0 E30 ;Draw the second line
G92 E0 ;Reset Extruder
G1 Z2.0 F3000 ;Move Z Axis up
G92 E0
G92 E0
G1 F1500 E-6.5
;LAYER_COUNT:111
;LAYER:0
M107
G0 F6000 X89.885 Y94.021 Z0.2
;TYPE:SKIRT
G1 F1500 E0
G1 F1200 X90.471 Y93.491 E0.02628
G1 X91.107 Y93.024 E0.05252
G1 X91.787 Y92.623 E0.07878
G1 X92.505 Y92.293 E0.10506
G1 X93.379 Y92.002 E0.1357
G1 X95.377 Y91.466 E0.2045
G1 X96.149 Y91.301 E0.23076
G1 X96.934 Y91.214 E0.25703
G1 X97.398 Y91.2 E0.27247
G1 X122.602 Y91.2 E1.11076
G1 X123.391 Y91.24 E1.13703
G1 X124.171 Y91.359 E1.16328
G1 X124.623 Y91.466 E1.17873
G1 X126.621 Y92.002 E1.24753
G1 X127.372 Y92.245 E1.27378
G1 X128.095 Y92.563 E1.30005
G1 X128.783 Y92.952 E1.32634
G1 X129.427 Y93.409 E1.35261
G1 X130.115 Y94.021 E1.38323
G1 X131.579 Y95.485 E1.45209
G1 X132.109 Y96.071 E1.47837
G1 X132.576 Y96.707 E1.50462
G1 X132.977 Y97.387 E1.53087
G1 X133.307 Y98.105 E1.55716
G1 X133.597 Y98.978 E1.58775
G1 X134.133 Y100.975 E1.65652
G1 X134.299 Y101.747 E1.68279
G1 X134.386 Y102.532 E1.70906
G1 X134.4 Y102.997 E1.72453
G1 X134.4 Y116.976 E2.18947
G1 X134.36 Y117.765 E2.21575
G1 X134.241 Y118.545 E2.24199
G1 X134.14 Y118.973 E2.25662
G1 X133.604 Y120.997 E2.32626
G1 X133.364 Y121.749 E2.35251
G1 X133.048 Y122.473 E2.37879
G1 X132.661 Y123.161 E2.40504
G1 X132.207 Y123.807 E2.4313
G1 X131.579 Y124.515 E2.46278
G1 X130.115 Y125.979 E2.53164
G1 X129.529 Y126.509 E2.55792
G1 X128.893 Y126.976 E2.58416
G1 X128.213 Y127.377 E2.61042
G1 X127.495 Y127.707 E2.6367
G1 X126.621 Y127.998 E2.66734
G1 X124.623 Y128.534 E2.73614
G1 X123.851 Y128.699 E2.7624
G1 X123.066 Y128.786 E2.78867
G1 X122.602 Y128.8 E2.80411
G1 X97.398 Y128.8 E3.6424
G1 X96.609 Y128.76 E3.66867
G1 X95.829 Y128.641 E3.69492
G1 X95.377 Y128.534 E3.71037
G1 X93.379 Y127.998 E3.77917
G1 X92.628 Y127.755 E3.80542
G1 X91.905 Y127.437 E3.83169
G1 X91.217 Y127.048 E3.85798
G1 X90.573 Y126.591 E3.88425
G1 X89.885 Y125.979 E3.91487
G1 X88.421 Y124.515 E3.98373
G1 X87.891 Y123.929 E4.01001
G1 X87.424 Y123.293 E4.03626
G1 X87.023 Y122.613 E4.06251
G1 X86.693 Y121.895 E4.0888
G1 X86.403 Y121.022 E4.11939
G1 X85.867 Y119.025 E4.18816
G1 X85.701 Y118.253 E4.21443
G1 X85.614 Y117.468 E4.2407
G1 X85.6 Y117.003 E4.25617
G1 X85.6 Y102.997 E4.72201
G1 X85.64 Y102.208 E4.74829
G1 X85.759 Y101.428 E4.77453
G1 X85.867 Y100.975 E4.79002
G1 X86.403 Y98.978 E4.85879
G1 X86.646 Y98.227 E4.88504
G1 X86.963 Y97.504 E4.9113
G1 X87.353 Y96.817 E4.93758
G1 X87.809 Y96.172 E4.96385
G1 X88.421 Y95.485 E4.99445
G1 X89.885 Y94.021 E5.06331
G0 F6000 X90.167 Y94.303
G1 F1200 X90.739 Y93.789 E5.08889
G1 X91.361 Y93.336 E5.11448
G1 X92.026 Y92.95 E5.14006
G1 X92.728 Y92.635 E5.16565
G1 X93.483 Y92.389 E5.19206
G1 X95.481 Y91.853 E5.26086
G1 X96.233 Y91.692 E5.28644
G1 X96.998 Y91.611 E5.31203
G1 X97.398 Y91.6 E5.32534
G1 X122.602 Y91.6 E6.16362
G1 X123.37 Y91.64 E6.1892
G1 X124.13 Y91.759 E6.21479
G1 X124.519 Y91.853 E6.2281
G1 X126.517 Y92.389 E6.2969
G1 X127.249 Y92.626 E6.32249
G1 X127.952 Y92.939 E6.34809
G1 X128.619 Y93.322 E6.37367
G1 X129.242 Y93.773 E6.39925
G1 X129.833 Y94.303 E6.42565
G1 X131.297 Y95.767 E6.49452
G1 X131.811 Y96.339 E6.52009
G1 X132.264 Y96.961 E6.54569
G1 X132.65 Y97.626 E6.57126
G1 X132.965 Y98.328 E6.59685
G1 X133.211 Y99.082 E6.62323
G1 X133.747 Y101.079 E6.692
G1 X133.908 Y101.831 E6.71758
G1 X133.989 Y102.596 E6.74317
G1 X134 Y102.997 E6.75651
G1 X134 Y116.976 E7.22145
G1 X133.96 Y117.744 E7.24703
G1 X133.753 Y118.87 E7.28511
G1 X133.217 Y120.894 E7.35475
G1 X132.982 Y121.627 E7.38035
G1 X132.672 Y122.331 E7.40593
G1 X132.291 Y122.999 E7.43151
G1 X131.842 Y123.623 E7.45708
G1 X131.297 Y124.233 E7.48429
G1 X129.833 Y125.697 E7.55315
G1 X129.261 Y126.211 E7.57873
G1 X128.639 Y126.664 E7.60432
G1 X127.974 Y127.05 E7.62989
G1 X127.272 Y127.365 E7.65549
G1 X126.517 Y127.611 E7.6819
G1 X124.519 Y128.147 E7.7507
G1 X123.767 Y128.308 E7.77628
G1 X123.002 Y128.389 E7.80186
G1 X122.602 Y128.4 E7.81517
G1 X97.398 Y128.4 E8.65346
G1 X96.63 Y128.36 E8.67904
G1 X95.87 Y128.241 E8.70463
G1 X95.481 Y128.147 E8.71794
G1 X93.483 Y127.611 E8.78674
G1 X92.751 Y127.374 E8.81233
G1 X92.048 Y127.061 E8.83793
G1 X91.381 Y126.678 E8.86351
G1 X90.758 Y126.227 E8.88909
G1 X90.167 Y125.697 E8.91549
G1 X88.703 Y124.233 E8.98435
G1 X88.189 Y123.661 E9.00993
G1 X87.736 Y123.039 E9.03552
G1 X87.35 Y122.374 E9.0611
G1 X87.035 Y121.672 E9.08669
G1 X86.789 Y120.918 E9.11307
G1 X86.253 Y118.921 E9.18184
G1 X86.092 Y118.169 E9.20742
G1 X86.011 Y117.404 E9.233
G1 X86 Y117.003 E9.24635
G1 X86 Y102.997 E9.71219
G1 X86.04 Y102.229 E9.73777
G1 X86.159 Y101.469 E9.76335
G1 X86.253 Y101.079 E9.7767
G1 X86.789 Y99.082 E9.84547
G1 X87.027 Y98.35 E9.87107
G1 X87.339 Y97.647 E9.89665
G1 X87.723 Y96.981 E9.92222
G1 X88.173 Y96.357 E9.94781
G1 X88.703 Y95.767 E9.97418
G1 X90.167 Y94.303 E10.04305
G0 F6000 X90.45 Y94.586
G1 F1200 X91.007 Y94.086 E10.06794
G1 X91.613 Y93.649 E10.09279
G1 X92.263 Y93.278 E10.11768
G1 X92.949 Y92.979 E10.14257
G1 X93.586 Y92.775 E10.16482
G1 X95.584 Y92.239 E10.23362
G1 X96.316 Y92.084 E10.25851
G1 X97.398 Y92 E10.29461
G1 X122.602 Y92 E11.13289
G1 X123.349 Y92.04 E11.15778
G1 X124.416 Y92.239 E11.19388
G1 X126.414 Y92.775 E11.26268
G1 X127.125 Y93.007 E11.28755
G1 X127.807 Y93.314 E11.31243
G1 X128.453 Y93.692 E11.33732
G1 X129.054 Y94.136 E11.36218
G1 X129.55 Y94.586 E11.38445
G1 X131.014 Y96.05 E11.45331
G1 X131.514 Y96.607 E11.47821
G1 X131.951 Y97.213 E11.50306
G1 X132.322 Y97.863 E11.52795
G1 X132.621 Y98.549 E11.55284
G1 X132.825 Y99.185 E11.57506
G1 X133.361 Y101.182 E11.64383
G1 X133.516 Y101.914 E11.66871
G1 X133.6 Y102.997 E11.70484
G1 X133.6 Y116.976 E12.16979
G1 X133.56 Y117.723 E12.19467
G1 X133.367 Y118.768 E12.23001
G1 X132.831 Y120.792 E12.29965
G1 X132.601 Y121.504 E12.32454
G1 X132.296 Y122.187 E12.34942
G1 X131.921 Y122.834 E12.37429
G1 X131.478 Y123.437 E12.39917
G1 X131.014 Y123.95 E12.42218
G1 X129.55 Y125.414 E12.49104
G1 X128.993 Y125.914 E12.51594
G1 X128.387 Y126.351 E12.54079
G1 X127.737 Y126.722 E12.56568
G1 X127.051 Y127.021 E12.59057
G1 X126.414 Y127.225 E12.61282
G1 X124.416 Y127.761 E12.68162
G1 X123.684 Y127.916 E12.70651
G1 X122.602 Y128 E12.7426
G1 X97.398 Y128 E13.58089
G1 X96.651 Y127.96 E13.60577
G1 X95.584 Y127.761 E13.64187
G1 X93.586 Y127.225 E13.71068
G1 X92.875 Y126.993 E13.73555
G1 X92.193 Y126.686 E13.76043
G1 X91.547 Y126.308 E13.78532
G1 X90.946 Y125.864 E13.81017
G1 X90.45 Y125.414 E13.83245
G1 X88.986 Y123.95 E13.90131
G1 X88.486 Y123.393 E13.9262
G1 X88.049 Y122.787 E13.95105
G1 X87.678 Y122.137 E13.97595
G1 X87.379 Y121.451 E14.00084
G1 X87.175 Y120.815 E14.02305
G1 X86.639 Y118.818 E14.09182
G1 X86.484 Y118.086 E14.11671
G1 X86.4 Y117.003 E14.15284
G1 X86.4 Y102.997 E14.61868
G1 X86.44 Y102.25 E14.64356
G1 X86.639 Y101.182 E14.67969
G1 X87.175 Y99.185 E14.74847
G1 X87.408 Y98.474 E14.77335
G1 X87.714 Y97.792 E14.79821
G1 X88.092 Y97.146 E14.82311
G1 X88.537 Y96.545 E14.84798
G1 X88.986 Y96.05 E14.87021
G1 X90.45 Y94.586 E14.93907
G0 F6000 X90.733 Y94.869
G1 F1200 X91.274 Y94.385 E14.96321
G1 X91.865 Y93.962 E14.98739
G1 X92.499 Y93.608 E15.01154
G1 X93.168 Y93.325 E15.0357
G1 X93.69 Y93.161 E15.0539
G1 X95.688 Y92.625 E15.1227
G1 X96.399 Y92.476 E15.14686
G1 X97.398 Y92.4 E15.18018
G1 X122.602 Y92.4 E16.01847
G1 X123.327 Y92.44 E16.04262
G1 X124.312 Y92.625 E16.07596
G1 X126.31 Y93.161 E16.14476
G1 X127 Y93.388 E16.16892
G1 X127.661 Y93.689 E16.19308
G1 X128.285 Y94.061 E16.21724
G1 X128.865 Y94.499 E16.24141
G1 X129.267 Y94.869 E16.25958
G1 X130.731 Y96.333 E16.32845
G1 X131.215 Y96.874 E16.35259
G1 X131.638 Y97.465 E16.37676
G1 X131.992 Y98.099 E16.40091
G1 X132.275 Y98.768 E16.42507
G1 X132.438 Y99.289 E16.44323
G1 X132.974 Y101.286 E16.512
G1 X133.124 Y101.997 E16.53617
G1 X133.2 Y102.997 E16.56953
G1 X133.2 Y116.976 E17.03447
G1 X133.16 Y117.701 E17.05862
G1 X132.98 Y118.666 E17.09127
G1 X132.444 Y120.69 E17.16091
G1 X132.22 Y121.38 E17.18504
G1 X131.921 Y122.042 E17.2092
G1 X131.551 Y122.668 E17.23338
G1 X131.115 Y123.248 E17.25752
G1 X130.731 Y123.667 E17.27642
G1 X129.267 Y125.131 E17.34528
G1 X128.726 Y125.615 E17.36943
G1 X128.135 Y126.038 E17.3936
G1 X127.501 Y126.392 E17.41775
G1 X126.832 Y126.675 E17.44191
G1 X126.31 Y126.839 E17.46011
G1 X124.312 Y127.375 E17.52891
G1 X123.601 Y127.524 E17.55307
G1 X122.602 Y127.6 E17.5864
G1 X97.398 Y127.6 E18.42468
G1 X96.673 Y127.56 E18.44884
G1 X95.688 Y127.375 E18.48217
G1 X93.69 Y126.839 E18.55097
G1 X93 Y126.612 E18.57513
G1 X92.339 Y126.311 E18.59929
G1 X91.715 Y125.939 E18.62345
G1 X91.135 Y125.501 E18.64763
G1 X90.733 Y125.131 E18.6658
G1 X89.269 Y123.667 E18.73466
G1 X88.785 Y123.126 E18.7588
G1 X88.362 Y122.535 E18.78298
G1 X88.008 Y121.901 E18.80713
G1 X87.725 Y121.232 E18.83129
G1 X87.562 Y120.711 E18.84944
G1 X87.026 Y118.714 E18.91822
G1 X86.876 Y118.003 E18.94238
G1 X86.8 Y117.003 E18.97574
G1 X86.8 Y102.997 E19.44158
G1 X86.84 Y102.272 E19.46573
G1 X87.026 Y101.286 E19.4991
G1 X87.562 Y99.289 E19.56788
G1 X87.788 Y98.599 E19.59202
G1 X88.089 Y97.938 E19.61618
G1 X88.461 Y97.314 E19.64034
G1 X88.899 Y96.735 E19.66449
G1 X89.269 Y96.333 E19.68266
G1 X90.733 Y94.869 E19.75153
G0 F6000 X91.016 Y95.152
G1 F1200 X91.541 Y94.683 E19.77494
G1 X92.116 Y94.277 E19.79835
G1 X92.734 Y93.939 E19.82178
G1 X93.385 Y93.672 E19.84518
G1 X93.794 Y93.548 E19.8594
G1 X95.792 Y93.012 E19.9282
G1 X96.481 Y92.868 E19.95161
G1 X97.398 Y92.8 E19.9822
G1 X122.602 Y92.8 E20.82048
G1 X123.305 Y92.84 E20.8439
G1 X124.208 Y93.012 E20.87448
G1 X126.206 Y93.548 E20.94328
G1 X126.875 Y93.768 E20.9667
G1 X127.514 Y94.064 E20.99013
G1 X128.116 Y94.429 E21.01354
G1 X128.672 Y94.861 E21.03696
G1 X128.984 Y95.152 E21.05115
G1 X130.448 Y96.616 E21.12001
G1 X130.917 Y97.141 E21.14343
G1 X131.323 Y97.716 E21.16684
G1 X131.661 Y98.334 E21.19027
G1 X131.928 Y98.985 E21.21367
G1 X132.052 Y99.393 E21.22785
G1 X132.588 Y101.39 E21.29662
G1 X132.732 Y102.079 E21.32004
G1 X132.8 Y102.997 E21.35065
G1 X132.8 Y116.976 E21.8156
G1 X132.76 Y117.679 E21.83902
G1 X132.593 Y118.563 E21.86894
G1 X132.057 Y120.587 E21.93858
G1 X131.839 Y121.256 E21.96198
G1 X131.546 Y121.896 E21.98539
G1 X131.182 Y122.499 E22.00882
G1 X130.752 Y123.057 E22.03225
G1 X130.448 Y123.384 E22.0471
G1 X128.984 Y124.848 E22.11596
G1 X128.459 Y125.317 E22.13937
G1 X127.884 Y125.723 E22.16279
G1 X127.266 Y126.061 E22.18621
G1 X126.615 Y126.328 E22.20962
G1 X126.206 Y126.452 E22.22383
G1 X124.208 Y126.988 E22.29263
G1 X123.519 Y127.132 E22.31605
G1 X122.602 Y127.2 E22.34663
G1 X97.398 Y127.2 E23.18492
G1 X96.695 Y127.16 E23.20834
G1 X95.792 Y126.988 E23.23891
G1 X93.794 Y126.452 E23.30771
G1 X93.125 Y126.232 E23.33114
G1 X92.486 Y125.936 E23.35456
G1 X91.884 Y125.571 E23.37798
G1 X91.328 Y125.139 E23.40139
G1 X91.016 Y124.848 E23.41558
G1 X89.552 Y123.384 E23.48445
G1 X89.083 Y122.859 E23.50786
G1 X88.677 Y122.284 E23.53127
G1 X88.339 Y121.666 E23.5547
G1 X88.072 Y121.015 E23.5781
G1 X87.948 Y120.607 E23.59229
G1 X87.412 Y118.61 E23.66106
G1 X87.268 Y117.921 E23.68447
G1 X87.2 Y117.003 E23.71509
G1 X87.2 Y102.997 E24.18093
G1 X87.24 Y102.294 E24.20435
G1 X87.412 Y101.39 E24.23495
G1 X87.948 Y99.393 E24.30372
G1 X88.169 Y98.724 E24.32716
G1 X88.464 Y98.085 E24.35057
G1 X88.83 Y97.484 E24.37397
G1 X89.261 Y96.927 E24.3974
G1 X89.552 Y96.616 E24.41156
G1 X91.016 Y95.152 E24.48042
G0 F6000 X91.299 Y95.435
G1 F1200 X91.808 Y94.982 E24.50309
G1 X92.366 Y94.593 E24.52571
G1 X92.966 Y94.271 E24.54836
G1 X93.897 Y93.934 E24.58129
G1 X95.895 Y93.398 E24.65009
G1 X96.562 Y93.261 E24.67274
G1 X97.398 Y93.2 E24.70062
G1 X122.602 Y93.2 E25.53891
G1 X123.282 Y93.24 E25.56157
G1 X124.105 Y93.398 E25.58944
G1 X126.103 Y93.934 E25.65824
G1 X126.749 Y94.149 E25.68089
G1 X127.365 Y94.438 E25.70352
G1 X127.944 Y94.797 E25.72618
G1 X128.701 Y95.435 E25.7591
G1 X130.165 Y96.899 E25.82797
G1 X130.618 Y97.408 E25.85063
G1 X131.007 Y97.966 E25.87325
G1 X131.329 Y98.566 E25.8959
G1 X131.666 Y99.496 E25.9288
G1 X132.202 Y101.493 E25.99757
G1 X132.339 Y102.16 E26.02022
G1 X132.4 Y102.997 E26.04813
G1 X132.4 Y116.976 E26.51308
G1 X132.36 Y117.656 E26.53573
G1 X132.207 Y118.461 E26.56299
G1 X131.671 Y120.485 E26.63263
G1 X131.458 Y121.132 E26.65528
G1 X131.171 Y121.749 E26.67791
G1 X130.814 Y122.329 E26.70057
G1 X130.165 Y123.101 E26.73411
G1 X128.701 Y124.565 E26.80297
G1 X128.192 Y125.018 E26.82564
G1 X127.634 Y125.407 E26.84826
G1 X127.034 Y125.729 E26.87091
G1 X126.103 Y126.066 E26.90384
G1 X124.105 Y126.602 E26.97264
G1 X123.438 Y126.739 E26.99529
G1 X122.602 Y126.8 E27.02317
G1 X97.398 Y126.8 E27.86146
G1 X96.718 Y126.76 E27.88411
G1 X95.895 Y126.602 E27.91199
G1 X93.897 Y126.066 E27.98079
G1 X93.251 Y125.851 E28.00344
G1 X92.635 Y125.562 E28.02607
G1 X92.056 Y125.203 E28.04873
G1 X91.299 Y124.565 E28.08165
G1 X89.835 Y123.101 E28.15051
G1 X89.382 Y122.592 E28.17318
G1 X88.993 Y122.034 E28.1958
G1 X88.671 Y121.434 E28.21845
G1 X88.334 Y120.504 E28.25135
G1 X87.798 Y118.507 E28.32012
G1 X87.661 Y117.84 E28.34277
G1 X87.6 Y117.003 E28.37068
G1 X87.6 Y102.997 E28.83652
G1 X87.64 Y102.317 E28.85918
G1 X87.798 Y101.493 E28.88708
G1 X88.334 Y99.496 E28.95586
G1 X88.549 Y98.85 E28.9785
G1 X88.838 Y98.234 E29.00113
G1 X89.197 Y97.656 E29.02376
G1 X89.835 Y96.899 E29.05669
G1 X91.299 Y95.435 E29.12555
G0 F6000 X91.582 Y95.718
G1 F1200 X92.074 Y95.282 E29.14742
G1 X92.615 Y94.91 E29.16925
G1 X93.197 Y94.606 E29.19109
G1 X94.001 Y94.32 E29.21948
G1 X95.999 Y93.784 E29.28828
G1 X96.643 Y93.653 E29.31014
G1 X97.398 Y93.6 E29.33531
G1 X122.602 Y93.6 E30.1736
G1 X123.258 Y93.64 E30.19546
G1 X124.001 Y93.784 E30.22063
G1 X125.999 Y94.32 E30.28943
G1 X126.622 Y94.529 E30.31129
G1 X127.215 Y94.812 E30.33314
G1 X127.77 Y95.164 E30.355
G1 X128.418 Y95.718 E30.38336
G1 X129.882 Y97.182 E30.45222
G1 X130.318 Y97.674 E30.47409
G1 X130.69 Y98.215 E30.49592
G1 X130.994 Y98.797 E30.51776
G1 X131.279 Y99.6 E30.5461
G1 X131.815 Y101.597 E30.61487
G1 X131.947 Y102.241 E30.63674
G1 X132 Y102.997 E30.66194
G1 X132 Y116.976 E31.12689
G1 X131.96 Y117.632 E31.14875
G1 X131.82 Y118.358 E31.17334
G1 X131.284 Y120.382 E31.24298
G1 X131.078 Y121.006 E31.26483
G1 X130.797 Y121.6 E31.28669
G1 X130.446 Y122.156 E31.30856
G1 X129.882 Y122.818 E31.33748
G1 X128.418 Y124.282 E31.40635
G1 X127.926 Y124.718 E31.42821
G1 X127.385 Y125.09 E31.45005
G1 X126.803 Y125.394 E31.47189
G1 X125.999 Y125.68 E31.50027
G1 X124.001 Y126.216 E31.56907
G1 X123.357 Y126.347 E31.59093
G1 X122.602 Y126.4 E31.6161
G1 X97.398 Y126.4 E32.45439
G1 X96.742 Y126.36 E32.47625
G1 X95.999 Y126.216 E32.50142
G1 X94.001 Y125.68 E32.57023
G1 X93.378 Y125.471 E32.59208
G1 X92.785 Y125.188 E32.61394
G1 X92.23 Y124.836 E32.6358
G1 X91.582 Y124.282 E32.66415
G1 X90.118 Y122.818 E32.73301
G1 X89.682 Y122.326 E32.75488
G1 X89.31 Y121.785 E32.77672
G1 X89.006 Y121.203 E32.79856
G1 X88.721 Y120.4 E32.8269
G1 X88.185 Y118.403 E32.89567
G1 X88.053 Y117.759 E32.91753
G1 X88 Y117.003 E32.94274
G1 X88 Y102.997 E33.40858
G1 X88.04 Y102.341 E33.43044
G1 X88.185 Y101.597 E33.45565
G1 X88.721 Y99.6 E33.52442
G1 X88.929 Y98.977 E33.54627
G1 X89.212 Y98.384 E33.56812
G1 X89.564 Y97.83 E33.58995
G1 X90.118 Y97.182 E33.61831
G1 X91.582 Y95.718 E33.68717
G0 F6000 X91.864 Y96
G1 F1200 X92.339 Y95.583 E33.70819
G1 X92.862 Y95.228 E33.72922
