;FLAVOR:Marlin
;TIME:3678
;Filament used: 1.07735m
;Layer height: 0.12
;MINX:100.15
;MINY:100.15
;MINZ:0.12
;MAXX:119.85
;MAXY:119.85
;MAXZ:16.08
;Generated with Cura_SteamEngine 4.8.0
M140 S60
M105
M190 S60
M104 S200
M105
M109 S200
M82 ;absolute extrusion mode
; Ender 3 Custom Start G-code
G92 E0 ; Reset Extruder
G28 ; Home all axes
G29 ; Auto Bed Levelling (BL-Touch)
G1 Z2.0 F3000 ; Move Z Axis up little to prevent scratching of Heat Bed
G1 X0.1 Y20 Z0.3 F5000.0 ; Move to start position
G1 X0.1 Y200.0 Z0.3 F1500.0 E15 ; Draw the first line
G1 X0.4 Y200.0 Z0.3 F5000.0 ; Move to side a little
G1 X0.4 Y20 Z0.3 F1500.0 E30 ; Draw the second line
G92 E0 ; Reset Extruder
G1 Z2.0 F3000 ; Move Z Axis up little to prevent scratching of Heat Bed
G1 X5 Y20 Z0.3 F5000.0 ; Move over to prevent blob squish
G92 E0
G92 E0
G1 F1500 E-6
;LAYER_COUNT:134
;LAYER:0
M107
;MESH:End_Clip.stl
G0 F6000 X119.05 Y119.05 Z0.12
;TYPE:WALL-INNER
G1 F1500 E0
G1 F1200 X100.95 Y119.05 E0.36121
G1 X100.95 Y100.95 E0.72241
G1 X104.085 Y100.95 E0.78497
G1 X104.09 Y117.574 E1.11672
G1 X104.09 Y117.773 E1.12069
G1 X104.289 Y117.773 E1.12326
G1 X115.899 Y117.769 E1.35495
G1 X115.901 Y100.95 E1.69059
G1 X119.05 Y100.95 E1.75344
G1 X119.05 Y119.05 E2.11464
G0 F6000 X119.45 Y119.45
G1 F1200 X100.55 Y119.45 E2.49181
G1 X100.55 Y100.55 E2.86898
G1 X104.485 Y100.55 E2.94751
G1 X104.49 Y117.174 E3.27926
G1 X104.49 Y117.373 E3.28323
G1 X104.689 Y117.373 E3.2858
G1 X115.499 Y117.369 E3.50152
G1 X115.501 Y100.55 E3.83717
G1 X119.45 Y100.55 E3.91597
G1 X119.45 Y119.45 E4.29314
G0 F6000 X119.85 Y119.85
;TYPE:WALL-OUTER
G1 F1200 X100.15 Y119.85 E4.68628
G1 X100.15 Y100.15 E5.07941
G1 X104.885 Y100.15 E5.1739
G1 X104.89 Y116.973 E5.50962
G1 X115.099 Y116.969 E5.71336
G1 X115.101 Y100.15 E6.049
G1 X119.85 Y100.15 E6.14377
G1 X119.85 Y119.85 E6.5369
G0 F6000 X119.58 Y119.58
G0 X118.94 Y118.66
G0 X118.66 Y118.66
;TYPE:SKIN
G1 F1200 X101.34 Y118.66 E6.88254
G1 X101.34 Y101.34 E7.22818
G1 X103.695 Y101.34 E7.27518
G1 X103.7 Y118.163 E7.6109
G1 X116.289 Y118.159 E7.86213
G1 X116.291 Y101.34 E8.19777
G1 X118.66 Y101.34 E8.24504
G1 X118.66 Y118.66 E8.59068
G0 F6000 X118.94 Y118.66
G0 X118.94 Y102.094
G0 X118.499 Y102.094
G1 F1200 X117.905 Y101.5 E8.60745
G0 F6000 X117.339 Y101.5
G1 F1200 X118.499 Y102.66 E8.64019
G0 F6000 X118.499 Y103.226
G1 F1200 X116.773 Y101.5 E8.6889
G0 F6000 X116.449 Y101.741
G1 F1200 X118.499 Y103.791 E8.74675
G0 F6000 X118.499 Y104.357
G1 F1200 X116.449 Y102.307 E8.80461
G0 F6000 X116.449 Y102.872
G1 F1200 X118.499 Y104.923 E8.86248
G0 F6000 X118.499 Y105.489
G1 F1200 X116.449 Y103.438 E8.92035
G0 F6000 X116.449 Y104.004
G1 F1200 X118.499 Y106.054 E8.9782
G0 F6000 X118.499 Y106.62
G1 F1200 X116.449 Y104.569 E9.03607
G0 F6000 X116.449 Y105.135
G1 F1200 X118.499 Y107.186 E9.09394
G0 F6000 X118.499 Y107.751
G1 F1200 X116.449 Y105.701 E9.1518
G0 F6000 X116.449 Y106.266
G1 F1200 X118.499 Y108.317 E9.20967
G0 F6000 X118.499 Y108.883
G1 F1200 X116.449 Y106.832 E9.26754
G0 F6000 X116.449 Y107.398
G1 F1200 X118.499 Y109.448 E9.32539
G0 F6000 X118.499 Y110.014
G1 F1200 X116.449 Y107.963 E9.38326
G0 F6000 X116.449 Y108.529
G1 F1200 X118.499 Y110.58 E9.44113
G0 F6000 X118.499 Y111.145
G1 F1200 X116.449 Y109.095 E9.49899
G0 F6000 X116.449 Y109.66
G1 F1200 X118.499 Y111.711 E9.55686
G0 F6000 X118.499 Y112.277
G1 F1200 X116.449 Y110.226 E9.61473
G0 F6000 X116.449 Y110.792
G1 F1200 X118.499 Y112.842 E9.67258
G0 F6000 X118.499 Y113.408
G1 F1200 X116.449 Y111.358 E9.73044
G0 F6000 X116.449 Y111.923
G1 F1200 X118.499 Y113.974 E9.78831
G0 F6000 X118.499 Y114.539
G1 F1200 X116.449 Y112.489 E9.84616
G0 F6000 X116.449 Y113.055
G1 F1200 X118.499 Y115.105 E9.90402
G0 F6000 X118.499 Y115.671
G1 F1200 X116.449 Y113.62 E9.96189
G0 F6000 X116.449 Y114.186
G1 F1200 X118.499 Y116.237 E10.01976
G0 F6000 X118.499 Y116.802
G1 F1200 X116.449 Y114.752 E10.07761
G0 F6000 X116.449 Y115.317
G1 F1200 X118.499 Y117.368 E10.13548
G0 F6000 X118.499 Y117.934
G1 F1200 X116.449 Y115.883 E10.19335
G0 F6000 X116.449 Y116.449
G1 F1200 X118.499 Y118.499 E10.25121
G0 F6000 X117.933 Y118.499
G1 F1200 X116.449 Y117.014 E10.2931
G0 F6000 X116.449 Y117.58
G1 F1200 X117.367 Y118.499 E10.31902
G0 F6000 X116.802 Y118.499
G1 F1200 X116.449 Y118.146 E10.32899
G0 F6000 X116.236 Y118.499
G1 F1200 X116.056 Y118.319 E10.33407
G0 F6000 X115.67 Y118.499
G1 F1200 X115.491 Y118.319 E10.33913
G0 F6000 X115.104 Y118.499
G1 F1200 X114.925 Y118.319 E10.3442
G0 F6000 X114.539 Y118.499
G1 F1200 X114.359 Y118.319 E10.34928
G0 F6000 X113.973 Y118.499
G1 F1200 X113.794 Y118.32 E10.35433
G0 F6000 X113.407 Y118.499
G1 F1200 X113.229 Y118.32 E10.35937
G0 F6000 X112.842 Y118.499
G1 F1200 X112.663 Y118.32 E10.36442
G0 F6000 X112.276 Y118.499
G1 F1200 X112.097 Y118.32 E10.36947
G0 F6000 X111.71 Y118.499
G1 F1200 X111.531 Y118.32 E10.37452
G0 F6000 X111.145 Y118.499
G1 F1200 X110.966 Y118.32 E10.37957
G0 F6000 X110.579 Y118.499
G1 F1200 X110.401 Y118.32 E10.38461
G0 F6000 X110.013 Y118.499
G1 F1200 X109.835 Y118.32 E10.38965
G0 F6000 X109.448 Y118.499
G1 F1200 X109.269 Y118.32 E10.3947
G0 F6000 X108.882 Y118.499
G1 F1200 X108.704 Y118.32 E10.39974
G0 F6000 X108.316 Y118.499
G1 F1200 X108.139 Y118.321 E10.40475
G0 F6000 X107.751 Y118.499
G1 F1200 X107.573 Y118.321 E10.40977
G0 F6000 X107.185 Y118.499
G1 F1200 X107.007 Y118.321 E10.4148
G0 F6000 X106.619 Y118.499
G1 F1200 X106.442 Y118.321 E10.4198
G0 F6000 X106.053 Y118.499
G1 F1200 X105.877 Y118.322 E10.42479
G0 F6000 X105.488 Y118.499
G1 F1200 X105.311 Y118.322 E10.42978
G0 F6000 X104.922 Y118.499
G1 F1200 X104.745 Y118.322 E10.43478
G0 F6000 X104.356 Y118.499
G1 F1200 X104.18 Y118.322 E10.43976
G0 F6000 X103.791 Y118.499
G1 F1200 X103.614 Y118.322 E10.44475
G0 F6000 X103.539 Y118.247
G1 F1200 X101.499 Y116.207 E10.50233
G0 F6000 X101.499 Y115.641
G1 F1200 X103.539 Y117.681 E10.5599
G0 F6000 X103.539 Y117.115
G1 F1200 X101.499 Y115.075 E10.61747
G0 F6000 X101.499 Y114.51
G1 F1200 X103.539 Y116.55 E10.67505
G0 F6000 X103.538 Y115.983
G1 F1200 X101.499 Y113.944 E10.73259
G0 F6000 X101.499 Y113.378
G1 F1200 X103.538 Y115.418 E10.79015
G0 F6000 X103.538 Y114.852
G1 F1200 X101.499 Y112.813 E10.8477
G0 F6000 X101.499 Y112.247
G1 F1200 X103.538 Y114.286 E10.90524
G0 F6000 X103.538 Y113.72
G1 F1200 X101.499 Y111.681 E10.96279
G0 F6000 X101.499 Y111.116
G1 F1200 X103.538 Y113.154 E11.02032
G0 F6000 X103.538 Y112.589
G1 F1200 X101.499 Y110.55 E11.07786
G0 F6000 X101.499 Y109.984
G1 F1200 X103.538 Y112.023 E11.13541
G0 F6000 X103.537 Y111.456
G1 F1200 X101.499 Y109.419 E11.19291
G0 F6000 X101.499 Y108.853
G1 F1200 X103.537 Y110.891 E11.25043
G0 F6000 X103.537 Y110.325
G1 F1200 X101.499 Y108.287 E11.30794
G0 F6000 X101.499 Y107.722
G1 F1200 X103.536 Y109.759 E11.36543
G0 F6000 X103.536 Y109.193
G1 F1200 X101.499 Y107.156 E11.42292
G0 F6000 X101.499 Y106.59
G1 F1200 X103.536 Y108.627 E11.48041
G0 F6000 X103.536 Y108.062
G1 F1200 X101.499 Y106.025 E11.5379
G0 F6000 X101.499 Y105.459
G1 F1200 X103.535 Y107.495 E11.59536
G0 F6000 X103.535 Y106.93
G1 F1200 X101.499 Y104.893 E11.65283
G0 F6000 X101.499 Y104.327
G1 F1200 X103.535 Y106.364 E11.71031
G0 F6000 X103.535 Y105.798
G1 F1200 X101.499 Y103.762 E11.76777
G0 F6000 X101.499 Y103.196
G1 F1200 X103.535 Y105.232 E11.82523
G0 F6000 X103.535 Y104.666
G1 F1200 X101.499 Y102.63 E11.88269
G0 F6000 X101.499 Y102.065
G1 F1200 X103.535 Y104.1 E11.94013
G0 F6000 X103.534 Y103.534
G1 F1200 X101.499 Y101.499 E11.99756
G0 F6000 X102.065 Y101.5
G1 F1200 X103.534 Y102.968 E12.03901
G0 F6000 X103.534 Y102.403
G1 F1200 X102.631 Y101.5 E12.06449
G0 F6000 X103.197 Y101.5
G1 F1200 X103.534 Y101.837 E12.074
G0 F6000 X103.976 Y101.837
G0 X103.903 Y101.132
G0 X101.132 Y101.132
G0 X101.06 Y116.773
G0 X101.499 Y116.773
G1 F1200 X103.225 Y118.499 E12.12272
G0 F6000 X102.659 Y118.499
G1 F1200 X101.499 Y117.338 E12.15547
G0 F6000 X101.499 Y117.904
G1 F1200 X102.094 Y118.499 E12.17226
G0 F6000 X102.094 Y119.24
;MESH:NONMESH
G0 F300 X102.094 Y119.24 Z0.24
G0 F6000 X119.05 Y119.05
;TIME_ELAPSED:43.039409
;LAYER:1
M106 S85
;TYPE:WALL-INNER
;MESH:End_Clip.stl
G1 F1350 X100.95 Y119.05 E12.53346
G1 X100.95 Y100.95 E12.89467
G1 X104.087 Y100.95 E12.95727
G1 X104.092 Y114.276 E13.22321
G1 X104.091 Y117.575 E13.28904
G1 X104.091 Y117.774 E13.29301
G1 X104.29 Y117.774 E13.29558
G1 X115.898 Y117.77 E13.52723
G1 X115.9 Y100.95 E13.86289
G1 X119.05 Y100.95 E13.92576
G1 X119.05 Y119.05 E14.28696
G0 F7500 X119.45 Y119.45
G1 F1350 X100.55 Y119.45 E14.66413
G1 X100.55 Y100.55 E15.0413
G1 X104.487 Y100.55 E15.11987
G1 X104.492 Y114.276 E15.39379
G1 X104.491 Y117.175 E15.45164
G1 X104.491 Y117.374 E15.45561
G1 X104.69 Y117.374 E15.45818
G1 X115.498 Y117.37 E15.67386
G1 X115.5 Y100.55 E16.00953
G1 X119.45 Y100.55 E16.08835
G1 X119.45 Y119.45 E16.46552
G0 F7500 X119.85 Y119.85
;TYPE:WALL-OUTER
G1 F1350 X100.15 Y119.85 E16.85866
G1 X100.15 Y100.15 E17.25179
G1 X104.887 Y100.15 E17.34632
G1 X104.892 Y114.276 E17.62822
G1 X104.891 Y116.974 E17.68206
G1 X115.098 Y116.97 E17.88576
G1 X115.1 Y100.15 E18.22142
G1 X119.85 Y100.15 E18.31621
G1 X119.85 Y119.85 E18.70934
G0 F7500 X119.58 Y119.58
G0 X118.94 Y118.66
G0 X118.66 Y118.66
;TYPE:SKIN
G1 F1350 X101.34 Y118.66 E19.05498
G1 X101.34 Y101.34 E19.40062
G1 X103.697 Y101.34 E19.44766
G1 X103.702 Y114.276 E19.70581
G1 X103.701 Y118.164 E19.7834
G1 X116.288 Y118.16 E20.03459
G1 X116.29 Y101.34 E20.37025
G1 X118.66 Y101.34 E20.41754
G1 X118.66 Y118.66 E20.76318
G0 F7500 X118.499 Y117.957
G1 F1350 X117.956 Y118.499 E20.77849
G0 F7500 X117.391 Y118.499
G1 F1350 X118.499 Y117.391 E20.80976
G0 F7500 X118.499 Y116.826
G1 F1350 X116.825 Y118.499 E20.85699
G0 F7500 X116.449 Y118.31
G1 F1350 X118.499 Y116.26 E20.91485
G0 F7500 X118.499 Y115.694
G1 F1350 X116.449 Y117.744 E20.9727
G0 F7500 X116.449 Y117.178
G1 F1350 X118.499 Y115.129 E21.03055
G0 F7500 X118.499 Y114.563
G1 F1350 X116.449 Y116.613 E21.0884
G0 F7500 X116.449 Y116.047
G1 F1350 X118.499 Y113.997 E21.14626
G0 F7500 X118.499 Y113.431
G1 F1350 X116.449 Y115.481 E21.20411
G0 F7500 X116.449 Y114.916
G1 F1350 X118.499 Y112.866 E21.26197
G0 F7500 X118.499 Y112.3
G1 F1350 X116.449 Y114.35 E21.31982
G0 F7500 X116.449 Y113.784
G1 F1350 X118.499 Y111.734 E21.37768
G0 F7500 X118.499 Y111.169
G1 F1350 X116.449 Y113.219 E21.43553
G0 F7500 X116.449 Y112.653
G1 F1350 X118.499 Y110.603 E21.49339
G0 F7500 X118.499 Y110.037
G1 F1350 X116.449 Y112.087 E21.55124
G0 F7500 X116.449 Y111.522
G1 F1350 X118.499 Y109.472 E21.6091
G0 F7500 X118.499 Y108.906
G1 F1350 X116.449 Y110.956 E21.66696
G0 F7500 X116.449 Y110.39
G1 F1350 X118.499 Y108.34 E21.72481
G0 F7500 X118.499 Y107.775
G1 F1350 X116.449 Y109.824 E21.78265
G0 F7500 X116.449 Y109.259
G1 F1350 X118.499 Y107.209 E21.84051
G0 F7500 X118.499 Y106.643
G1 F1350 X116.449 Y108.693 E21.89836
G0 F7500 X116.449 Y108.127
G1 F1350 X118.499 Y106.078 E21.9562
G0 F7500 X118.499 Y105.512
G1 F1350 X116.449 Y107.562 E22.01406
G0 F7500 X116.449 Y106.996
G1 F1350 X118.499 Y104.946 E22.07192
G0 F7500 X118.499 Y104.38
G1 F1350 X116.449 Y106.43 E22.12977
G0 F7500 X116.449 Y105.865
G1 F1350 X118.499 Y103.815 E22.18763
G0 F7500 X118.499 Y103.249
G1 F1350 X116.449 Y105.299 E22.24548
G0 F7500 X116.449 Y104.733
G1 F1350 X118.499 Y102.683 E22.30334
G0 F7500 X118.499 Y102.118
G1 F1350 X116.449 Y104.168 E22.36119
G0 F7500 X116.449 Y103.602
G1 F1350 X118.499 Y101.552 E22.41905
G0 F7500 X117.986 Y101.499
G1 F1350 X116.449 Y103.036 E22.46243
G0 F7500 X116.449 Y102.471
G1 F1350 X117.42 Y101.499 E22.48984
G0 F7500 X116.855 Y101.499
G1 F1350 X116.449 Y101.905 E22.5013
G1 F1500 E16.5013
G0 F7500 X116.01 Y101.904
G0 X115.326 Y117.198
G0 X104.663 Y117.202
G0 X103.978 Y101.807
G0 X103.536 Y101.807
G1 F1500 E22.5013
G1 F1350 X101.5 Y103.843 E22.55876
G0 F7500 X101.5 Y103.277
G1 F1350 X103.278 Y101.499 E22.60894
G0 F7500 X102.712 Y101.499
G1 F1350 X101.5 Y102.712 E22.64316
G0 F7500 X101.5 Y102.146
G1 F1350 X102.147 Y101.499 E22.66142
G0 F7500 X101.581 Y101.499
G1 F1350 X101.5 Y101.58 E22.66371
G0 F7500 X101.06 Y101.58
G0 X101.132 Y101.132
G0 X103.905 Y101.132
G0 X103.978 Y102.372
G0 X103.536 Y102.372
G1 F1350 X101.5 Y104.409 E22.72118
G0 F7500 X101.5 Y104.974
G1 F1350 X103.536 Y102.938 E22.77864
G0 F7500 X103.537 Y103.503
G1 F1350 X101.5 Y105.54 E22.83613
G0 F7500 X101.5 Y106.106
G1 F1350 X103.537 Y104.069 E22.89362
G0 F7500 X103.537 Y104.634
G1 F1350 X101.5 Y106.672 E22.95112
G0 F7500 X101.5 Y107.237
G1 F1350 X103.538 Y105.199 E23.00864
G0 F7500 X103.538 Y105.765
G1 F1350 X101.5 Y107.803 E23.06615
G0 F7500 X101.5 Y108.369
G1 F1350 X103.538 Y106.331 E23.12367
G0 F7500 X103.538 Y106.896
G1 F1350 X101.5 Y108.934 E23.18119
G0 F7500 X101.5 Y109.5
G1 F1350 X103.538 Y107.461 E23.23872
G0 F7500 X103.538 Y108.027
G1 F1350 X101.5 Y110.066 E23.29625
G0 F7500 X101.5 Y110.631
G1 F1350 X103.538 Y108.593 E23.35377
G0 F7500 X103.539 Y109.158
G1 F1350 X101.5 Y111.197 E23.41131
G0 F7500 X101.5 Y111.763
G1 F1350 X103.539 Y109.723 E23.46887
G0 F7500 X103.539 Y110.289
G1 F1350 X101.5 Y112.328 E23.52642
G0 F7500 X101.5 Y112.894
G1 F1350 X103.54 Y110.854 E23.58399
G0 F7500 X103.54 Y111.42
G1 F1350 X101.5 Y113.46 E23.64156
G0 F7500 X101.5 Y114.025
G1 F1350 X103.54 Y111.985 E23.69913
G0 F7500 X103.54 Y112.55
G1 F1350 X101.5 Y114.591 E23.75672
G0 F7500 X101.5 Y115.157
G1 F1350 X103.54 Y113.116 E23.81431
G0 F7500 X103.54 Y113.682
G1 F1350 X101.5 Y115.722 E23.87188
G0 F7500 X101.5 Y116.288
G1 F1350 X103.54 Y114.247 E23.92947
G0 F7500 X103.54 Y114.813
G1 F1350 X101.5 Y116.854 E23.98706
G0 F7500 X101.5 Y117.42
G1 F1350 X103.54 Y115.379 E24.04464
G0 F7500 X103.54 Y115.945
G1 F1350 X101.5 Y117.985 E24.10222
G0 F7500 X101.551 Y118.499
G1 F1350 X103.54 Y116.51 E24.15835
G0 F7500 X103.54 Y117.076
G1 F1350 X102.117 Y118.499 E24.19851
G0 F7500 X102.683 Y118.499
G1 F1350 X103.54 Y117.642 E24.2227
G0 F7500 X103.54 Y118.207
G1 F1350 X103.248 Y118.499 E24.23094
G0 F7500 X103.814 Y118.499
G1 F1350 X103.991 Y118.323 E24.23592
G0 F7500 X104.38 Y118.499
G1 F1350 X104.557 Y118.323 E24.2409
G0 F7500 X104.945 Y118.499
G1 F1350 X105.122 Y118.323 E24.24588
G0 F7500 X105.511 Y118.499
G1 F1350 X105.688 Y118.323 E24.25086
G0 F7500 X106.077 Y118.499
G1 F1350 X106.254 Y118.322 E24.25586
G0 F7500 X106.643 Y118.499
G1 F1350 X106.82 Y118.322 E24.26085
G0 F7500 X107.208 Y118.499
G1 F1350 X107.386 Y118.322 E24.26586
G0 F7500 X107.774 Y118.499
G1 F1350 X107.952 Y118.321 E24.27089
G0 F7500 X108.34 Y118.499
G1 F1350 X108.518 Y118.321 E24.27591
G0 F7500 X108.905 Y118.499
G1 F1350 X109.083 Y118.321 E24.28093
G0 F7500 X109.471 Y118.499
G1 F1350 X109.649 Y118.321 E24.28596
G0 F7500 X110.037 Y118.499
G1 F1350 X110.216 Y118.32 E24.29101
G0 F7500 X110.602 Y118.499
G1 F1350 X110.781 Y118.32 E24.29606
G0 F7500 X111.168 Y118.499
G1 F1350 X111.347 Y118.32 E24.30111
G0 F7500 X111.734 Y118.499
G1 F1350 X111.913 Y118.32 E24.30617
G0 F7500 X112.299 Y118.499
G1 F1350 X112.479 Y118.32 E24.31123
G0 F7500 X112.865 Y118.499
G1 F1350 X113.045 Y118.32 E24.3163
G0 F7500 X113.431 Y118.499
G1 F1350 X113.61 Y118.32 E24.32135
G0 F7500 X113.996 Y118.499
G1 F1350 X114.176 Y118.32 E24.32641
G0 F7500 X114.562 Y118.499
G1 F1350 X114.742 Y118.319 E24.33149
G0 F7500 X115.128 Y118.499
G1 F1350 X115.308 Y118.319 E24.33657
G0 F7500 X115.693 Y118.499
G1 F1350 X115.874 Y118.319 E24.34167
G0 F7500 X116.259 Y118.499
G1 F1350 X116.439 Y118.319 E24.34675
G0 F7500 X115.827 Y117.58
G1 F1500 E18.34675
;MESH:NONMESH
G0 F300 X115.827 Y117.58 Z0.36
G0 F7500 X116.082 Y101.132
G0 X118.868 Y101.132
G0 X119.05 Y119.05
;TIME_ELAPSED:80.448489
;LAYER:2
M106 S170
;TYPE:WALL-INNER
;MESH:End_Clip.stl
G1 F1500 E24.34675
G1 X100.95 Y119.05 E24.70795
G1 X100.95 Y100.95 E25.06916
G1 X104.088 Y100.95 E25.13178
G1 X104.093 Y112.612 E25.36451
G1 X104.092 Y117.575 E25.46355
G1 X104.092 Y117.774 E25.46752
G1 X104.291 Y117.774 E25.47009
G1 X115.897 Y117.771 E25.7017
G1 X115.899 Y100.95 E26.03738
G1 X119.05 Y100.95 E26.10026
G1 X119.05 Y119.05 E26.46147
G0 F9000 X119.45 Y119.45
G1 F1500 X100.55 Y119.45 E26.83864
G1 X100.55 Y100.55 E27.21581
G1 X104.488 Y100.55 E27.2944
G1 X104.493 Y112.612 E27.53511
