;FLAVOR:Marlin
;TIME:9975
;Filament used: 3.72999m
;Layer height: 0.12
;MINX:82.681
;MINY:52.439
;MINZ:0.12
;MAXX:137.362
;MAXY:167.608
;MAXZ:20.04
;Generated with Cura_SteamEngine 4.8.0
M140 S60
M105
M190 S60
M104 S200
M105
M109 S200
M82 ;absolute extrusion mode
; Ender 3 Custom Start G-code
G92 E0 ; Reset Extruder
G28 ; Home all axes
G29 ; Auto Bed Levelling (BL-Touch)
G1 Z2.0 F3000 ; Move Z Axis up little to prevent scratching of Heat Bed
G1 X0.1 Y20 Z0.3 F5000.0 ; Move to start position
G1 X0.1 Y200.0 Z0.3 F1500.0 E15 ; Draw the first line
G1 X0.4 Y200.0 Z0.3 F5000.0 ; Move to side a little
G1 X0.4 Y20 Z0.3 F1500.0 E30 ; Draw the second line
G92 E0 ; Reset Extruder
G1 Z2.0 F3000 ; Move Z Axis up little to prevent scratching of Heat Bed
G1 X5 Y20 Z0.3 F5000.0 ; Move over to prevent blob squish
G92 E0
G92 E0
G1 F1500 E-6
;LAYER_COUNT:168
;LAYER:0
M107
;MESH:Guide_Open.stl
G0 F6000 X97.695 Y166.808 Z0.12
;TYPE:WALL-INNER
G1 F1500 E0
G1 F1200 X87.387 Y166.802 E0.20571
G1 X86.571 Y164.787 E0.24909
G1 X89.03 Y163.287 E0.30657
G1 X89.064 Y160.639 E0.35942
G1 X89.065 Y160.638 E0.35945
G1 X89.066 Y160.436 E0.36348
G1 X88.864 Y160.436 E0.36608
G1 X88.863 Y160.437 E0.36611
G1 X83.986 Y160.463 E0.46344
G1 X83.985 Y160.464 E0.46347
G1 X83.725 Y160.464 E0.46866
G1 X83.792 Y160.212 E0.4718
G1 X84.971 Y155.834 E0.56228
G1 X85.525 Y147.489 E0.72918
G1 X87.446 Y137.199 E0.93807
G1 X91.509 Y122.641 E1.2397
G1 X93.872 Y116.408 E1.37272
G1 X99.674 Y103.139 E1.66173
G1 X99.708 Y103.069 E1.66328
G1 X103.751 Y95.867 E1.8281
G1 X103.784 Y95.811 E1.8294
G1 X109.899 Y85.548 E2.06781
G1 X116.008 Y76.229 E2.29018
G1 X122.722 Y68.983 E2.48731
G1 X122.503 Y68.164 E2.50423
G1 X122.441 Y66.95 E2.52849
G1 X122.435 Y66.818 E2.53112
G1 X122.412 Y66.378 E2.53992
G1 X122.716 Y66.803 E2.54436
G1 X122.818 Y66.887 E2.54664
G1 X124.186 Y68.014 E2.58202
G1 X125.342 Y68.54 E2.60736
G1 X125.923 Y68.802 E2.62008
G1 X127.472 Y69.061 E2.65142
G1 X127.761 Y69.109 E2.65727
G1 X127.61 Y69.359 E2.66068
G1 X126.981 Y70.401 E2.68497
G1 X126.79 Y70.45 E2.6889
G1 X121.162 Y78.284 E2.8814
G1 X116.757 Y87.736 E3.0895
G1 X111.663 Y98.515 E3.32742
G1 X108.794 Y106.29 E3.49281
G1 X104.654 Y119.197 E3.76331
G1 X102.679 Y125.876 E3.9023
G1 X100.891 Y138.198 E4.15077
G1 X99.948 Y147.334 E4.33406
G1 X100.289 Y155.82 E4.50354
G1 X101.47 Y160.189 E4.59386
G1 X101.537 Y160.44 E4.59905
G1 X101.278 Y160.44 E4.60216
G1 X101.277 Y160.44 E4.60218
G1 X96.378 Y160.441 E4.69995
G1 X96.179 Y160.441 E4.70392
G1 X96.179 Y160.64 E4.70649
G1 X96.183 Y163.282 E4.75921
G1 X98.598 Y164.769 E4.81581
G1 X97.695 Y166.808 E4.86031
G0 F6000 X97.956 Y167.208
G1 F1200 X87.117 Y167.202 E5.07662
G1 X86.072 Y164.622 E5.13217
G1 X88.633 Y163.061 E5.19202
G1 X88.659 Y161.041 E5.23233
G1 X88.66 Y161.04 E5.23236
G1 X88.661 Y160.838 E5.23639
G1 X88.459 Y160.838 E5.239
G1 X88.458 Y160.839 E5.23903
G1 X83.464 Y160.866 E5.33869
G1 X83.463 Y160.867 E5.33872
G1 X83.203 Y160.867 E5.3439
G1 X83.27 Y160.615 E5.34705
G1 X84.574 Y155.768 E5.44721
G1 X85.127 Y147.44 E5.61377
G1 X87.057 Y137.107 E5.82355
G1 X91.129 Y122.514 E6.12589
G1 X93.498 Y116.266 E6.25924
G1 X99.315 Y102.963 E6.54898
G1 X99.359 Y102.873 E6.55098
G1 X103.402 Y95.671 E6.7158
G1 X103.442 Y95.607 E6.71731
G1 X109.555 Y85.343 E6.95572
G1 X115.69 Y75.984 E7.17904
G1 X122.279 Y68.873 E7.3725
G1 X122.118 Y68.268 E7.38499
G1 X122.106 Y68.226 E7.38586
G1 X121.978 Y65.733 E7.43568
G1 X121.955 Y65.264 E7.44505
G1 X121.891 Y65.093 E7.44869
G1 X121.256 Y63.398 E7.48481
G1 X121.255 Y63.388 E7.48502
G1 X121.08 Y61.589 E7.52109
G1 X121.082 Y61.577 E7.52133
G1 X121.377 Y59.804 E7.5572
G1 X121.38 Y59.79 E7.55748
G1 X121.624 Y59.252 E7.56927
G1 X122.127 Y58.145 E7.59354
G1 X122.132 Y58.134 E7.59378
G1 X123.285 Y56.731 E7.63002
G1 X123.295 Y56.724 E7.63026
G1 X124.759 Y55.679 E7.66616
G1 X124.771 Y55.67 E7.66646
G1 X125.904 Y55.245 E7.6906
G1 X125.922 Y55.32 E7.69214
G1 X124.804 Y55.74 E7.69661
G1 X123.341 Y56.787 E7.70351
G1 X122.197 Y58.176 E7.7104
G1 X121.693 Y59.283 E7.715
G1 X121.453 Y59.816 E7.7172
G1 X121.157 Y61.589 E7.72399
G1 X121.331 Y63.38 E7.73081
G1 X121.964 Y65.065 E7.73769
G1 X122.055 Y65.192 E7.73831
G1 X122.328 Y65.574 E7.74456
G1 X123.011 Y66.528 E7.76798
G1 X124.4 Y67.672 E7.80389
G1 X125.507 Y68.176 E7.82816
G1 X126.04 Y68.416 E7.83983
G1 X127.813 Y68.712 E7.8757
G1 X128.132 Y68.681 E7.88209
G1 X128.45 Y68.651 E7.88847
G1 X129.603 Y68.538 E7.91159
G1 X131.289 Y67.905 E7.94753
G1 X132.752 Y66.859 E7.98342
G1 X133.527 Y65.921 E8.0077
G1 X133.879 Y65.489 E8.01882
G1 X133.917 Y65.442 E8.02003
G1 X134.349 Y64.156 E8.0471
G1 X134.373 Y64.085 E8.04859
G1 X134.684 Y63.195 E8.06741
G1 X134.713 Y62.955 E8.07223
G1 X134.836 Y61.957 E8.0923
G1 X134.838 Y61.942 E8.0926
G1 X134.702 Y60.688 E8.11777
G1 X134.678 Y60.47 E8.12215
G1 X134.399 Y59.486 E8.14256
G1 X134.313 Y59.184 E8.14883
G1 X134.142 Y58.598 E8.16101
G1 X134.121 Y58.569 E8.16172
G1 X133.082 Y57.117 E8.19735
G1 X132.144 Y56.342 E8.22164
G1 X131.692 Y55.974 E8.23327
G1 X130.587 Y55.469 E8.25751
G1 X130.053 Y55.229 E8.2692
G1 X128.877 Y55.033 E8.29299
G1 X128.88 Y54.956 E8.29453
G1 X130.065 Y55.153 E8.29925
G1 X130.078 Y55.156 E8.29941
G1 X130.617 Y55.401 E8.30177
G1 X131.723 Y55.904 E8.30634
G1 X131.733 Y55.909 E8.30648
G1 X132.19 Y56.285 E8.30882
G1 X133.13 Y57.057 E8.31335
G1 X133.14 Y57.065 E8.3135
G1 X134.183 Y58.524 E8.3205
G1 X134.199 Y58.581 E8.3209
G1 X134.364 Y59.169 E8.32261
G1 X134.45 Y59.471 E8.32346
G1 X134.721 Y60.458 E8.32595
G1 X134.782 Y60.679 E8.32675
G1 X134.908 Y61.934 E8.33149
G1 X134.912 Y61.966 E8.33175
G1 X134.793 Y62.964 E8.33567
G1 X134.713 Y63.204 E8.33647
G1 X134.414 Y64.098 E8.33819
G1 X134.39 Y64.169 E8.33833
G1 X133.966 Y65.457 E8.34151
G1 X133.939 Y65.537 E8.342
G1 X133.585 Y65.968 E8.34409
G1 X132.807 Y66.915 E8.34881
G1 X132.798 Y66.922 E8.34895
G1 X131.334 Y67.967 E8.35588
G1 X131.325 Y67.974 E8.3561
G1 X129.622 Y68.612 E8.3632
G1 X129.611 Y68.613 E8.36342
G1 X128.458 Y68.728 E8.36782
G1 X128.294 Y69.001 E8.37189
G1 X127.24 Y70.747 E8.41258
G1 X127.03 Y70.801 E8.41691
G1 X121.509 Y78.487 E8.60576
G1 X117.119 Y87.907 E8.81316
G1 X112.032 Y98.67 E9.05073
G1 X109.172 Y106.42 E9.21559
G1 X105.036 Y119.315 E9.48583
G1 X103.071 Y125.962 E9.62416
G1 X101.288 Y138.247 E9.87188
G1 X100.349 Y147.347 E10.05445
G1 X100.687 Y155.759 E10.22246
G1 X101.992 Y160.589 E10.3223
G1 X102.059 Y160.84 E10.32748
G1 X101.8 Y160.84 E10.3306
G1 X101.799 Y160.84 E10.33062
G1 X96.779 Y160.841 E10.4308
G1 X96.58 Y160.841 E10.43477
G1 X96.58 Y161.04 E10.43734
G1 X96.583 Y163.058 E10.47761
G1 X99.105 Y164.611 E10.53672
G1 X97.956 Y167.208 E10.59339
G0 F6000 X98.217 Y167.608
;TYPE:WALL-OUTER
G1 F1200 X86.847 Y167.602 E10.82029
G1 X85.574 Y164.457 E10.888
G1 X88.236 Y162.835 E10.95021
G1 X88.256 Y161.24 E10.98204
G1 X82.681 Y161.27 E11.0933
G1 X84.177 Y155.702 E11.20835
G1 X84.729 Y147.391 E11.37457
G1 X86.667 Y137.018 E11.58516
G1 X90.75 Y122.384 E11.88835
G1 X93.124 Y116.124 E12.02196
G1 X98.956 Y102.787 E12.31245
G1 X99.01 Y102.677 E12.31489
G1 X103.053 Y95.475 E12.47971
G1 X103.1 Y95.399 E12.4815
G1 X109.211 Y85.138 E12.71983
G1 X115.372 Y75.739 E12.9441
G1 X121.836 Y68.763 E13.13389
G1 X121.709 Y68.288 E13.1437
G1 X121.559 Y65.346 E13.20249
G1 X120.863 Y63.49 E13.24205
G1 X120.677 Y61.574 E13.28046
G1 X120.993 Y59.675 E13.31888
G1 X121.79 Y57.92 E13.35735
G1 X123.01 Y56.436 E13.39568
G1 X124.58 Y55.315 E13.43418
G1 X126.191 Y54.71 E13.46852
G1 X126.391 Y55.572 E13.48618
G1 X125.67 Y55.842 E13.50155
G1 X124.994 Y56.096 E13.51596
G1 X123.616 Y57.082 E13.54977
G1 X122.539 Y58.39 E13.58359
G1 X122.057 Y59.448 E13.60679
G1 X121.839 Y59.933 E13.6174
G1 X121.56 Y61.603 E13.65119
G1 X121.724 Y63.289 E13.68499
G1 X122.066 Y64.199 E13.70439
G1 X122.32 Y64.875 E13.7188
G1 X123.306 Y66.253 E13.75262
G1 X124.614 Y67.33 E13.78643
G1 X125.672 Y67.812 E13.80963
G1 X126.157 Y68.03 E13.82024
G1 X127.827 Y68.309 E13.85403
G1 X129.512 Y68.145 E13.88782
G1 X131.099 Y67.549 E13.92165
G1 X132.477 Y66.564 E13.95545
G1 X133.218 Y65.667 E13.97867
G1 X133.561 Y65.246 E13.9895
G1 X133.995 Y63.953 E14.01672
G1 X134.292 Y63.104 E14.03467
G1 X134.435 Y61.939 E14.05809
G1 X134.284 Y60.547 E14.08604
G1 X133.929 Y59.295 E14.11201
G1 X133.777 Y58.776 E14.1228
G1 X132.787 Y57.392 E14.15676
G1 X131.89 Y56.651 E14.17997
G1 X131.479 Y56.316 E14.19056
G1 X130.422 Y55.833 E14.21375
G1 X129.936 Y55.615 E14.22438
G1 X128.465 Y55.37 E14.25414
G1 X128.495 Y54.486 E14.27179
G1 X130.194 Y54.769 E14.30616
G1 X131.946 Y55.566 E14.34457
G1 X133.434 Y56.789 E14.38301
G1 X134.549 Y58.349 E14.42127
G1 X134.836 Y59.365 E14.44234
G1 X135.176 Y60.604 E14.46798
G1 X135.314 Y61.969 E14.49536
G1 X135.185 Y63.052 E14.51713
G1 X134.77 Y64.295 E14.54328
G1 X134.296 Y65.733 E14.57349
G1 X133.083 Y67.209 E14.61162
G1 X131.513 Y68.331 E14.65013
G1 X129.715 Y69.005 E14.68845
G1 X128.697 Y69.106 E14.70886
G1 X127.544 Y71.018 E14.75342
G1 X127.412 Y71.12 E14.75675
G1 X127.268 Y71.155 E14.75971
G1 X121.856 Y78.69 E14.94484
G1 X117.481 Y88.078 E15.15154
G1 X112.401 Y98.825 E15.38876
G1 X109.55 Y106.55 E15.55308
G1 X105.418 Y119.433 E15.82308
G1 X103.463 Y126.048 E15.96073
G1 X101.685 Y138.296 E16.20771
G1 X100.75 Y147.36 E16.38956
G1 X101.085 Y155.698 E16.55608
G1 X102.581 Y161.24 E16.67064
G1 X96.981 Y161.241 E16.78239
G1 X96.983 Y162.834 E16.81418
G1 X99.612 Y164.453 E16.8758
G1 X98.217 Y167.608 E16.94464
G0 F6000 X98.033 Y167.325
G0 X97.44 Y166.697
G0 X97.441 Y166.418
;TYPE:SKIN
G1 F1200 X87.649 Y166.412 E17.14005
G1 X87.056 Y164.948 E17.17157
G1 X89.418 Y163.507 E17.22679
G1 X89.461 Y160.044 E17.2959
G1 X84.234 Y160.072 E17.40021
G1 X85.357 Y155.898 E17.48647
G1 X85.913 Y147.536 E17.65371
G1 X87.828 Y137.279 E17.86194
G1 X91.882 Y122.757 E18.16282
G1 X94.237 Y116.546 E18.29538
G1 X100.025 Y103.309 E18.58369
G1 X100.054 Y103.249 E18.58502
G1 X104.089 Y96.062 E18.7495
G1 X110.225 Y85.762 E18.98876
G1 X116.316 Y76.47 E19.21048
G1 X123.155 Y69.09 E19.41127
G1 X122.891 Y68.103 E19.43166
G1 X122.856 Y67.424 E19.44522
G1 X123.978 Y68.348 E19.47423
G1 X125.18 Y68.895 E19.50058
G1 X125.808 Y69.178 E19.51433
G1 X127.131 Y69.399 E19.5411
G1 X126.73 Y70.062 E19.55656
G1 X126.556 Y70.107 E19.56015
G1 X120.824 Y78.087 E19.75622
G1 X116.404 Y87.57 E19.96501
G1 X111.303 Y98.364 E20.20326
G1 X108.425 Y106.163 E20.36916
G1 X104.281 Y119.082 E20.63991
G1 X102.297 Y125.792 E20.77954
G1 X100.503 Y138.15 E21.02875
G1 X99.558 Y147.322 E21.21275
G1 X99.901 Y155.879 E21.38365
G1 X101.028 Y160.05 E21.46988
G1 X95.789 Y160.051 E21.57443
G1 X95.793 Y163.5 E21.64325
G1 X98.103 Y164.923 E21.6974
G1 X97.441 Y166.418 E21.73003
G0 F6000 X97.44 Y166.697
G0 X88.185 Y166.692
G0 X88.186 Y166.251
G1 F1200 X87.462 Y165.526 E21.75047
G0 F6000 X87.416 Y164.915
G1 F1200 X88.752 Y166.251 E21.78818
G0 F6000 X89.318 Y166.252
G1 F1200 X87.768 Y164.701 E21.83194
G0 F6000 X88.119 Y164.487
G1 F1200 X89.884 Y166.252 E21.88175
G0 F6000 X90.45 Y166.252
G1 F1200 X88.471 Y164.272 E21.93761
G0 F6000 X88.821 Y164.057
G1 F1200 X91.016 Y166.252 E21.99956
G0 F6000 X91.583 Y166.253
G1 F1200 X89.173 Y163.843 E22.06758
G0 F6000 X89.524 Y163.629
G1 F1200 X92.148 Y166.253 E22.14163
G0 F6000 X92.715 Y166.254
G1 F1200 X89.582 Y163.121 E22.23005
G0 F6000 X89.589 Y162.563
G1 F1200 X93.28 Y166.254 E22.33422
G0 F6000 X93.847 Y166.254
G1 F1200 X89.596 Y162.003 E22.45419
G0 F6000 X89.603 Y161.445
G1 F1200 X94.412 Y166.254 E22.58991
G0 F6000 X94.979 Y166.255
G1 F1200 X89.61 Y160.886 E22.74144
G0 F6000 X89.617 Y160.327
G1 F1200 X95.544 Y166.255 E22.90872
G0 F6000 X96.11 Y166.255
G1 F1200 X85.531 Y155.676 E23.20729
G0 F6000 X85.451 Y156.161
G1 F1200 X89.173 Y159.884 E23.31234
G0 F6000 X88.611 Y159.887
G1 F1200 X85.33 Y156.607 E23.40493
G0 F6000 X85.211 Y157.053
G1 F1200 X88.048 Y159.89 E23.48499
G0 F6000 X87.486 Y159.893
G1 F1200 X85.091 Y157.498 E23.55258
G0 F6000 X84.971 Y157.945
G1 F1200 X86.923 Y159.896 E23.60766
G0 F6000 X86.36 Y159.899
G1 F1200 X84.851 Y158.39 E23.65025
G0 F6000 X84.731 Y158.836
G1 F1200 X85.797 Y159.902 E23.68033
G0 F6000 X85.235 Y159.905
G1 F1200 X84.611 Y159.282 E23.69793
G0 F6000 X84.492 Y159.728
G1 F1200 X84.672 Y159.908 E23.70301
G0 F6000 X84.673 Y160.35
G0 X83.969 Y160.277
G0 X85.13 Y155.117
G0 X85.566 Y155.146
G1 F1200 X96.677 Y166.256 E24.01657
G0 F6000 X97.242 Y166.256
G1 F1200 X85.601 Y154.615 E24.3451
G0 F6000 X85.636 Y154.084
G1 F1200 X97.481 Y165.929 E24.6794
G0 F6000 X97.655 Y165.537
G1 F1200 X95.824 Y163.707 E24.73106
G0 F6000 X95.633 Y163.515
G1 F1200 X85.672 Y153.554 E25.01218
G0 F6000 X85.707 Y153.024
G1 F1200 X95.632 Y162.949 E25.29228
G0 F6000 X95.631 Y162.382
G1 F1200 X85.743 Y152.493 E25.57136
G0 F6000 X85.778 Y151.963
G1 F1200 X95.631 Y161.816 E25.84943
G0 F6000 X95.63 Y161.25
G1 F1200 X85.813 Y151.433 E26.12649
G0 F6000 X85.849 Y150.902
G1 F1200 X95.629 Y160.683 E26.40251
G0 F6000 X95.629 Y160.117
G1 F1200 X85.884 Y150.372 E26.67754
G0 F6000 X85.919 Y149.841
G1 F1200 X95.967 Y159.889 E26.96112
G0 F6000 X96.532 Y159.889
G1 F1200 X85.954 Y149.311 E27.25965
G0 F6000 X85.989 Y148.78
G1 F1200 X97.098 Y159.889 E27.57317
G0 F6000 X97.664 Y159.889
G1 F1200 X86.025 Y148.25 E27.90165
G0 F6000 X86.06 Y147.72
G1 F1200 X98.229 Y159.889 E28.24508
G0 F6000 X98.795 Y159.889
G1 F1200 X86.132 Y147.226 E28.60246
G0 F6000 X86.221 Y146.75
G1 F1200 X99.361 Y159.889 E28.97329
G0 F6000 X99.926 Y159.889
G1 F1200 X86.31 Y146.273 E29.35756
G0 F6000 X86.399 Y145.796
G1 F1200 X100.492 Y159.889 E29.75529
G0 F6000 X100.73 Y159.562
G1 F1200 X86.489 Y145.32 E30.15722
G0 F6000 X86.577 Y144.843
G1 F1200 X100.521 Y158.787 E30.55075
G0 F6000 X100.312 Y158.012
G1 F1200 X86.666 Y144.366 E30.93587
G0 F6000 X86.755 Y143.889
G1 F1200 X100.102 Y157.237 E31.31256
G0 F6000 X99.893 Y156.462
G1 F1200 X86.844 Y143.413 E31.68083
G0 F6000 X86.933 Y142.936
G1 F1200 X99.735 Y155.738 E32.04213
G0 F6000 X99.711 Y155.149
G1 F1200 X87.022 Y142.46 E32.40025
G0 F6000 X87.112 Y141.983
G1 F1200 X99.688 Y154.56 E32.75518
G0 F6000 X99.664 Y153.97
G1 F1200 X87.2 Y141.506 E33.10694
G0 F6000 X87.289 Y141.029
G1 F1200 X99.641 Y153.381 E33.45554
G0 F6000 X99.617 Y152.791
G1 F1200 X87.378 Y140.553 E33.80094
G0 F6000 X87.467 Y140.076
G1 F1200 X99.593 Y152.202 E34.14316
G0 F6000 X99.57 Y151.613
G1 F1200 X87.556 Y139.599 E34.48222
G0 F6000 X87.645 Y139.123
G1 F1200 X99.546 Y151.023 E34.81808
G0 F6000 X99.523 Y150.434
G1 F1200 X87.734 Y138.646 E35.15078
G0 F6000 X87.824 Y138.17
G1 F1200 X99.499 Y149.845 E35.48027
G0 F6000 X99.475 Y149.256
G1 F1200 X87.912 Y137.692 E35.80662
G0 F6000 X88.008 Y137.223
G1 F1200 X99.452 Y148.667 E36.12959
G0 F6000 X99.428 Y148.077
G1 F1200 X88.132 Y136.781 E36.44839
G0 F6000 X88.255 Y136.338
G1 F1200 X99.405 Y147.488 E36.76307
G0 F6000 X99.436 Y146.953
G1 F1200 X88.379 Y135.896 E37.07512
G0 F6000 X88.502 Y135.454
G1 F1200 X99.488 Y146.44 E37.38517
G0 F6000 X99.541 Y145.927
G1 F1200 X88.625 Y135.012 E37.69323
G0 F6000 X88.749 Y134.57
G1 F1200 X99.594 Y145.415 E37.9993
G0 F6000 X99.646 Y144.901
G1 F1200 X88.872 Y134.127 E38.30336
G0 F6000 X88.996 Y133.685
G1 F1200 X99.699 Y144.389 E38.60544
G0 F6000 X99.752 Y143.876
G1 F1200 X89.12 Y133.243 E38.90551
G0 F6000 X89.243 Y132.801
G1 F1200 X99.806 Y143.363 E39.20361
G0 F6000 X99.858 Y142.85
G1 F1200 X89.366 Y132.359 E39.4997
G0 F6000 X89.49 Y131.916
G1 F1200 X99.911 Y142.337 E39.7938
G0 F6000 X99.964 Y141.825
G1 F1200 X89.613 Y131.474 E40.08593
G0 F6000 X89.737 Y131.032
G1 F1200 X100.016 Y141.311 E40.37603
G0 F6000 X100.069 Y140.799
G1 F1200 X89.86 Y130.589 E40.66416
G0 F6000 X89.984 Y130.147
G1 F1200 X100.122 Y140.286 E40.95029
G0 F6000 X100.175 Y139.773
G1 F1200 X90.107 Y129.705 E41.23443
G0 F6000 X90.231 Y129.263
G1 F1200 X100.228 Y139.26 E41.51657
G0 F6000 X100.281 Y138.747
G1 F1200 X90.354 Y128.821 E41.79672
G0 F6000 X90.477 Y128.378
G1 F1200 X100.333 Y138.234 E42.07487
G0 F6000 X100.401 Y137.736
G1 F1200 X90.601 Y127.936 E42.35145
G0 F6000 X90.724 Y127.494
G1 F1200 X100.473 Y137.243 E42.62659
G0 F6000 X100.544 Y136.748
G1 F1200 X90.848 Y127.052 E42.90023
G0 F6000 X90.972 Y126.61
G1 F1200 X100.617 Y136.255 E43.17243
G0 F6000 X100.688 Y135.76
