;FLAVOR:Marlin
;TIME:3254
;Filament used: 2.18711m
;Layer height: 0.16
;MINX:85.609
;MINY:94.608
;MINZ:0.2
;MAXX:134.39
;MAXY:125.391
;MAXZ:32.4
;Generated with Cura_SteamEngine 4.4.1
M140 S60
M105
M190 S60
M104 S200
M105
M109 S200
M82 ;absolute extrusion mode
M201 X500.00 Y500.00 Z100.00 E5000.00 ;Setup machine max acceleration
M203 X500.00 Y500.00 Z10.00 E50.00 ;Setup machine max feedrate
M204 P500.00 R1000.00 T500.00 ;Setup Print/Retract/Travel acceleration
M205 X8.00 Y8.00 Z0.40 E5.00 ;Setup Jerk
M220 S100 ;Reset Feedrate
M221 S100 ;Reset Flowrate

G28 ;Home
G29 ;Auto bed level

G92 E0 ;Reset Extruder
G1 Z2.0 F3000 ;Move Z Axis up
G1 X10.1 Y20 Z0.28 F5000.0 ;Move to start position
G1 X10.1 Y200.0 Z0.28 F1500.0 E15 ;Draw the first line
G1 X10.4 Y200.0 Z0.28 F5000.0 ;Move to side a little
G1 X10.4 Y20 Z0.28 F1500.0 E30 ;Draw the second line
G92 E0 ;Reset Extruder
G1 Z2.0 F3000 ;Move Z Axis up
G92 E0
G92 E0
G1 F1500 E-6.5
;LAYER_COUNT:165
;LAYER:0
M107
G0 F6000 X88.343 Y96.958 Z0.2
;TYPE:SKIRT
G1 F1500 E0
G1 F1200 X88.927 Y96.427 E0.02625
G1 X89.562 Y95.958 E0.05251
G1 X90.242 Y95.555 E0.0788
G1 X90.958 Y95.223 E0.10505
G1 X91.705 Y94.966 E0.13132
G1 X92.679 Y94.75 E0.16451
G1 X92.995 Y94.701 E0.17514
G1 X94.169 Y94.609 E0.21431
G1 X94.536 Y94.608 E0.22652
G1 X94.947 Y94.638 E0.24022
G1 X124.882 Y94.637 E1.23586
G1 X125.055 Y94.642 E1.24162
G1 X125.226 Y94.626 E1.24733
G1 X125.589 Y94.615 E1.25941
G1 X126.378 Y94.631 E1.28566
G1 X127.237 Y94.74 E1.31446
G1 X127.476 Y94.784 E1.32254
G1 X128.245 Y94.966 E1.34883
G1 X128.991 Y95.225 E1.37509
G1 X129.791 Y95.603 E1.40452
G1 X129.916 Y95.671 E1.40925
G1 X130.59 Y96.083 E1.43553
G1 X131.219 Y96.561 E1.4618
G1 X131.689 Y96.992 E1.48301
G1 X132.042 Y97.343 E1.49957
G1 X132.573 Y97.927 E1.52582
G1 X133.042 Y98.562 E1.55208
G1 X133.445 Y99.242 E1.57837
G1 X133.777 Y99.958 E1.60462
G1 X134.034 Y100.705 E1.63089
G1 X134.275 Y101.857 E1.67004
G1 X134.326 Y102.245 E1.68305
G1 X134.39 Y103.033 E1.70935
G1 X134.381 Y103.455 E1.72339
G1 X134.388 Y103.933 E1.73929
G1 X134.358 Y104.332 E1.7526
G1 X134.372 Y115.994 E2.14048
G1 X134.383 Y116.583 E2.16007
G1 X134.378 Y116.665 E2.1628
G1 X134.385 Y116.782 E2.1667
G1 X134.352 Y117.571 E2.19297
G1 X134.239 Y118.352 E2.21921
G1 X134.101 Y118.938 E2.23924
G1 X133.953 Y119.471 E2.25763
G1 X133.703 Y120.22 E2.2839
G1 X133.379 Y120.94 E2.31016
G1 X132.984 Y121.624 E2.33643
G1 X132.522 Y122.264 E2.36268
G1 X131.952 Y122.899 E2.39106
G1 X131.894 Y122.957 E2.39379
G1 X131.308 Y123.487 E2.42007
G1 X130.672 Y123.954 E2.44631
G1 X129.992 Y124.355 E2.47257
G1 X129.274 Y124.685 E2.49885
G1 X128.822 Y124.85 E2.51486
G1 X128.443 Y124.975 E2.52813
G1 X127.682 Y125.184 E2.55438
G1 X126.903 Y125.315 E2.58065
G1 X126.178 Y125.365 E2.60482
G1 X125.959 Y125.37 E2.61211
G1 X125.295 Y125.391 E2.6342
G1 X124.953 Y125.362 E2.64562
G1 X95.119 Y125.363 E3.6379
G1 X94.945 Y125.358 E3.64369
G1 X94.774 Y125.374 E3.64941
G1 X94.411 Y125.385 E3.66148
G1 X93.622 Y125.369 E3.68773
G1 X92.943 Y125.291 E3.71046
G1 X92.643 Y125.243 E3.72057
G1 X91.87 Y125.079 E3.74685
G1 X91.118 Y124.838 E3.77312
G1 X90.395 Y124.521 E3.79937
G1 X89.707 Y124.134 E3.82563
G1 X89.061 Y123.679 E3.85191
G1 X88.352 Y123.049 E3.88345
G1 X88.001 Y122.697 E3.89999
G1 X87.472 Y122.11 E3.92627
G1 X87.006 Y121.473 E3.95252
G1 X86.496 Y120.573 E3.98693
G1 X86.405 Y120.384 E3.9939
G1 X86.099 Y119.656 E4.02017
G1 X85.868 Y118.901 E4.04643
G1 X85.715 Y118.126 E4.0727
G1 X85.635 Y117.153 E4.10517
G1 X85.631 Y116.928 E4.11266
G1 X85.609 Y116.341 E4.1322
G1 X85.637 Y115.978 E4.14431
G1 X85.637 Y104.113 E4.53894
G1 X85.642 Y103.941 E4.54466
G1 X85.626 Y103.772 E4.55031
G1 X85.615 Y103.415 E4.56219
G1 X85.63 Y102.626 E4.58843
G1 X85.74 Y101.763 E4.61737
G1 X85.784 Y101.524 E4.62545
G1 X85.966 Y100.755 E4.65174
G1 X86.225 Y100.009 E4.678
G1 X86.603 Y99.209 E4.70743
G1 X86.671 Y99.084 E4.71216
G1 X87.083 Y98.41 E4.73844
G1 X87.561 Y97.781 E4.76471
G1 X87.992 Y97.311 E4.78592
G1 X88.343 Y96.958 E4.80248
G0 F6000 X88.627 Y97.24
G1 F1200 X89.197 Y96.724 E4.82805
G1 X89.817 Y96.269 E4.85363
G1 X90.481 Y95.882 E4.87919
G1 X91.182 Y95.565 E4.90478
G1 X91.912 Y95.323 E4.93036
G1 X92.74 Y95.145 E4.95853
G1 X93.056 Y95.096 E4.96916
G1 X94.17 Y95.009 E5.00633
G1 X94.537 Y95.008 E5.01854
G1 X94.946 Y95.038 E5.03218
G1 X124.882 Y95.037 E6.02785
G1 X125.055 Y95.042 E6.03361
G1 X125.238 Y95.025 E6.03972
G1 X125.601 Y95.014 E6.0518
G1 X126.37 Y95.031 E6.07738
G1 X127.165 Y95.133 E6.10404
G1 X127.404 Y95.177 E6.11212
G1 X128.152 Y95.356 E6.1377
G1 X128.878 Y95.611 E6.1633
G1 X129.6 Y95.955 E6.1899
G1 X129.725 Y96.023 E6.19463
G1 X130.381 Y96.425 E6.22022
G1 X130.991 Y96.893 E6.24579
G1 X131.407 Y97.276 E6.2646
G1 X131.76 Y97.627 E6.28116
G1 X132.276 Y98.197 E6.30673
G1 X132.731 Y98.817 E6.33231
G1 X133.118 Y99.481 E6.35787
G1 X133.435 Y100.182 E6.38346
G1 X133.677 Y100.912 E6.40904
G1 X133.879 Y101.91 E6.4429
G1 X133.93 Y102.298 E6.45592
G1 X133.99 Y103.064 E6.48148
G1 X133.981 Y103.429 E6.49362
G1 X133.986 Y103.979 E6.51191
G1 X133.958 Y104.335 E6.52379
G1 X133.972 Y115.977 E6.911
G1 X133.983 Y116.59 E6.9314
G1 X133.978 Y116.678 E6.93433
G1 X133.985 Y116.805 E6.93856
G1 X133.95 Y117.574 E6.96416
G1 X133.835 Y118.334 E6.98973
G1 X133.715 Y118.831 E7.00673
G1 X133.567 Y119.364 E7.02513
G1 X133.323 Y120.093 E7.0507
G1 X133.005 Y120.793 E7.07627
G1 X132.615 Y121.457 E7.10188
G1 X132.159 Y122.076 E7.12746
G1 X131.67 Y122.617 E7.15171
G1 X131.612 Y122.675 E7.15444
G1 X131.04 Y123.189 E7.18002
G1 X130.418 Y123.642 E7.20561
G1 X129.753 Y124.028 E7.23118
G1 X128.697 Y124.47 E7.26926
G1 X128.318 Y124.595 E7.28253
G1 X127.576 Y124.797 E7.30811
G1 X126.817 Y124.922 E7.33369
G1 X126.169 Y124.965 E7.35529
G1 X125.958 Y124.97 E7.36231
G1 X125.283 Y124.99 E7.38477
G1 X124.957 Y124.962 E7.39566
G1 X95.119 Y124.963 E8.38807
G1 X94.945 Y124.958 E8.39386
G1 X94.762 Y124.975 E8.39997
G1 X94.399 Y124.986 E8.41205
G1 X93.63 Y124.969 E8.43764
G1 X93.006 Y124.896 E8.45853
G1 X92.706 Y124.848 E8.46864
G1 X91.954 Y124.687 E8.49422
G1 X91.222 Y124.449 E8.51982
G1 X90.52 Y124.137 E8.54537
G1 X89.853 Y123.753 E8.57097
G1 X89.23 Y123.302 E8.59655
G1 X88.635 Y122.766 E8.62318
G1 X88.284 Y122.414 E8.63972
G1 X87.77 Y121.842 E8.66529
G1 X87.318 Y121.22 E8.69087
G1 X86.857 Y120.399 E8.72218
G1 X86.766 Y120.21 E8.72916
G1 X86.468 Y119.501 E8.75474
G1 X86.246 Y118.764 E8.78034
G1 X86.102 Y118.009 E8.8059
G1 X86.034 Y117.145 E8.83473
G1 X86.028 Y116.857 E8.84431
G1 X86.009 Y116.326 E8.86198
G1 X86.037 Y115.971 E8.87383
G1 X86.037 Y104.113 E9.26823
G1 X86.042 Y103.935 E9.27415
G1 X86.026 Y103.76 E9.27999
G1 X86.015 Y103.403 E9.29187
G1 X86.031 Y102.634 E9.31746
G1 X86.133 Y101.835 E9.34425
G1 X86.177 Y101.596 E9.35233
G1 X86.356 Y100.848 E9.37791
G1 X86.611 Y100.122 E9.4035
G1 X86.955 Y99.4 E9.4301
G1 X87.023 Y99.275 E9.43484
G1 X87.425 Y98.619 E9.46043
G1 X87.893 Y98.009 E9.486
G1 X88.276 Y97.593 E9.50481
G1 X88.627 Y97.24 E9.52136
G0 F6000 X88.91 Y97.522
G1 F1200 X89.465 Y97.021 E9.54623
G1 X90.071 Y96.581 E9.57114
G1 X90.719 Y96.209 E9.59599
G1 X91.404 Y95.908 E9.62088
G1 X92.117 Y95.682 E9.64575
G1 X92.801 Y95.541 E9.66898
G1 X93.117 Y95.492 E9.67962
G1 X94.171 Y95.409 E9.71478
G1 X94.538 Y95.408 E9.72699
G1 X94.95 Y95.438 E9.74073
G1 X124.882 Y95.437 E10.73627
G1 X125.067 Y95.442 E10.74243
G1 X125.25 Y95.425 E10.74854
G1 X125.613 Y95.414 E10.76062
G1 X126.361 Y95.432 E10.7855
G1 X127.092 Y95.527 E10.81002
G1 X127.331 Y95.571 E10.8181
G1 X128.059 Y95.745 E10.843
G1 X128.763 Y95.996 E10.86786
G1 X129.409 Y96.306 E10.89169
G1 X129.534 Y96.374 E10.89642
G1 X130.171 Y96.766 E10.9213
G1 X130.763 Y97.224 E10.94619
G1 X131.125 Y97.559 E10.9626
G1 X131.478 Y97.91 E10.97916
G1 X131.979 Y98.465 E11.00402
G1 X132.419 Y99.071 E11.02893
G1 X132.791 Y99.719 E11.05378
G1 X133.092 Y100.404 E11.07867
G1 X133.318 Y101.117 E11.10355
G1 X133.482 Y101.962 E11.13218
G1 X133.533 Y102.35 E11.14519
G1 X133.591 Y103.096 E11.17008
G1 X133.582 Y103.391 E11.1799
G1 X133.584 Y104.024 E11.20095
G1 X133.558 Y104.327 E11.21106
G1 X133.572 Y116.12 E11.6033
G1 X133.568 Y116.12 E11.60343
G1 X133.564 Y116.463 E11.61484
G1 X133.585 Y116.828 E11.627
G1 X133.547 Y117.575 E11.65188
G1 X133.43 Y118.314 E11.67677
G1 X133.33 Y118.724 E11.6908
G1 X133.182 Y119.257 E11.7092
G1 X132.943 Y119.966 E11.73409
G1 X132.631 Y120.646 E11.75897
G1 X132.247 Y121.288 E11.78385
G1 X131.798 Y121.886 E11.80872
G1 X131.387 Y122.334 E11.82894
G1 X131.329 Y122.392 E11.83167
G1 X130.772 Y122.892 E11.85657
G1 X130.166 Y123.329 E11.88142
G1 X129.516 Y123.7 E11.90631
G1 X128.572 Y124.09 E11.94028
G1 X128.193 Y124.215 E11.95355
G1 X127.471 Y124.411 E11.97844
G1 X126.732 Y124.529 E12.00333
G1 X126.16 Y124.565 E12.02239
G1 X125.987 Y124.569 E12.02815
G1 X125.271 Y124.59 E12.05197
G1 X124.95 Y124.562 E12.06269
G1 X95.119 Y124.563 E13.05487
G1 X94.933 Y124.558 E13.06106
G1 X94.75 Y124.575 E13.06717
G1 X94.387 Y124.586 E13.07925
G1 X93.639 Y124.568 E13.10414
G1 X93.069 Y124.501 E13.12323
G1 X92.769 Y124.453 E13.13333
G1 X92.038 Y124.296 E13.1582
G1 X91.327 Y124.061 E13.1831
G1 X90.646 Y123.752 E13.20798
G1 X90.002 Y123.372 E13.23285
G1 X89.402 Y122.925 E13.25773
G1 X88.918 Y122.484 E13.27951
G1 X88.567 Y122.132 E13.29604
G1 X88.068 Y121.575 E13.32092
G1 X87.631 Y120.967 E13.34582
G1 X87.217 Y120.226 E13.37405
G1 X87.126 Y120.037 E13.38103
G1 X86.838 Y119.346 E13.40593
G1 X86.625 Y118.629 E13.43081
G1 X86.49 Y117.893 E13.45569
G1 X86.434 Y117.138 E13.48087
G1 X86.429 Y116.89 E13.48912
G1 X86.409 Y116.312 E13.50836
G1 X86.437 Y115.965 E13.51994
G1 X86.437 Y104.113 E13.91414
G1 X86.442 Y103.932 E13.92016
G1 X86.425 Y103.748 E13.92631
G1 X86.414 Y103.391 E13.93819
G1 X86.431 Y102.643 E13.96307
G1 X86.527 Y101.908 E13.98772
G1 X86.571 Y101.669 E13.99581
G1 X86.745 Y100.941 E14.0207
G1 X86.996 Y100.237 E14.04556
G1 X87.306 Y99.591 E14.06939
G1 X87.374 Y99.466 E14.07413
G1 X87.766 Y98.829 E14.099
G1 X88.224 Y98.237 E14.1239
G1 X88.559 Y97.875 E14.1403
G1 X88.91 Y97.522 E14.15686
G0 F6000 X89.194 Y97.804
G1 F1200 X89.734 Y97.318 E14.18102
G1 X90.323 Y96.894 E14.20516
G1 X90.956 Y96.538 E14.22932
G1 X91.625 Y96.253 E14.2535
G1 X92.32 Y96.044 E14.27764
G1 X92.863 Y95.936 E14.29605
G1 X93.179 Y95.887 E14.30669
G1 X94.172 Y95.809 E14.33982
G1 X94.539 Y95.808 E14.35203
G1 X94.949 Y95.838 E14.3657
G1 X124.882 Y95.837 E15.36127
G1 X125.077 Y95.842 E15.36776
G1 X125.262 Y95.825 E15.37394
G1 X125.625 Y95.814 E15.38602
G1 X126.351 Y95.832 E15.41018
G1 X127.02 Y95.92 E15.43262
G1 X127.259 Y95.964 E15.4407
G1 X127.965 Y96.135 E15.46486
G1 X128.648 Y96.382 E15.48902
G1 X129.218 Y96.657 E15.51007
G1 X129.343 Y96.725 E15.5148
G1 X129.961 Y97.107 E15.53896
G1 X130.533 Y97.554 E15.56311
G1 X130.843 Y97.843 E15.57721
G1 X131.196 Y98.194 E15.59376
G1 X131.682 Y98.734 E15.61793
G1 X132.106 Y99.323 E15.64206
G1 X132.462 Y99.956 E15.66622
G1 X132.747 Y100.625 E15.69041
G1 X132.956 Y101.32 E15.71454
G1 X133.086 Y102.014 E15.73803
G1 X133.137 Y102.402 E15.75104
G1 X133.192 Y103.126 E15.77519
G1 X133.185 Y103.337 E15.78221
G1 X133.185 Y103.34 E15.78231
G1 X133.158 Y104.164 E15.80974
G1 X133.172 Y116.12 E16.20739
G1 X133.169 Y116.12 E16.20749
G1 X133.165 Y116.491 E16.21983
G1 X133.185 Y116.851 E16.23183
G1 X133.145 Y117.576 E16.25598
G1 X132.944 Y118.617 E16.29124
G1 X132.796 Y119.15 E16.30964
G1 X132.564 Y119.838 E16.33379
G1 X132.257 Y120.496 E16.35794
G1 X131.88 Y121.117 E16.3821
G1 X131.437 Y121.693 E16.40627
G1 X131.104 Y122.051 E16.42253
G1 X131.046 Y122.109 E16.42526
G1 X130.505 Y122.593 E16.4494
G1 X129.914 Y123.016 E16.47358
G1 X129.28 Y123.37 E16.49773
G1 X128.446 Y123.71 E16.52768
G1 X128.067 Y123.835 E16.54096
G1 X127.366 Y124.024 E16.5651
G1 X126.648 Y124.135 E16.58927
G1 X126.15 Y124.165 E16.60586
G1 X126.007 Y124.168 E16.61062
G1 X125.986 Y124.17 E16.61132
G1 X125.26 Y124.189 E16.63548
G1 X124.956 Y124.162 E16.64563
G1 X95.119 Y124.163 E17.63801
G1 X94.923 Y124.158 E17.64453
G1 X94.738 Y124.175 E17.65071
G1 X94.375 Y124.186 E17.66279
G1 X93.649 Y124.168 E17.68694
G1 X93.132 Y124.106 E17.70426
G1 X92.832 Y124.058 E17.71437
G1 X92.122 Y123.904 E17.73853
G1 X91.434 Y123.673 E17.76267
G1 X90.775 Y123.368 E17.78682
G1 X90.153 Y122.992 E17.81099
G1 X89.577 Y122.55 E17.83514
G1 X89.201 Y122.201 E17.85221
G1 X88.85 Y121.849 E17.86874
G1 X88.367 Y121.307 E17.89289
G1 X87.945 Y120.716 E17.91704
G1 X87.577 Y120.052 E17.94229
G1 X87.486 Y119.863 E17.94927
G1 X87.208 Y119.192 E17.97342
G1 X87.005 Y118.495 E17.99757
G1 X86.879 Y117.78 E18.02172
G1 X86.834 Y117.13 E18.04339
G1 X86.829 Y116.868 E18.0521
G1 X86.81 Y116.298 E18.07107
G1 X86.837 Y115.966 E18.08215
G1 X86.837 Y104.113 E18.47638
G1 X86.842 Y103.921 E18.48277
G1 X86.825 Y103.735 E18.48898
G1 X86.814 Y103.378 E18.50086
G1 X86.832 Y102.652 E18.52502
G1 X86.92 Y101.98 E18.54756
G1 X86.964 Y101.741 E18.55564
G1 X87.135 Y101.035 E18.5798
G1 X87.382 Y100.352 E18.60396
G1 X87.657 Y99.782 E18.62501
G1 X87.725 Y99.657 E18.62974
G1 X88.107 Y99.039 E18.6539
G1 X88.554 Y98.467 E18.67805
G1 X88.843 Y98.157 E18.69215
G1 X89.194 Y97.804 E18.7087
G0 F6000 X89.478 Y98.086
G1 F1200 X90.001 Y97.616 E18.73209
G1 X90.575 Y97.208 E18.75551
G1 X91.192 Y96.868 E18.77894
G1 X91.843 Y96.6 E18.80236
G1 X92.52 Y96.408 E18.82576
G1 X92.924 Y96.331 E18.83944
G1 X93.24 Y96.282 E18.85008
G1 X94.173 Y96.209 E18.88121
G1 X94.54 Y96.208 E18.89341
G1 X94.947 Y96.238 E18.90699
G1 X124.882 Y96.237 E19.90263
G1 X125.083 Y96.243 E19.90932
G1 X125.274 Y96.225 E19.9157
G1 X125.637 Y96.214 E19.92778
G1 X126.341 Y96.233 E19.9512
G1 X126.948 Y96.313 E19.97156
G1 X127.187 Y96.357 E19.97965
G1 X127.871 Y96.524 E20.00306
G1 X128.531 Y96.767 E20.02646
G1 X129.027 Y97.009 E20.04481
G1 X129.152 Y97.077 E20.04954
G1 X129.75 Y97.448 E20.07295
G1 X130.302 Y97.884 E20.09635
G1 X130.561 Y98.127 E20.10816
G1 X130.914 Y98.478 E20.12472
G1 X131.384 Y99.001 E20.1481
G1 X131.792 Y99.575 E20.17153
G1 X132.132 Y100.192 E20.19496
G1 X132.4 Y100.843 E20.21837
G1 X132.592 Y101.52 E20.24178
G1 X132.689 Y102.066 E20.26022
G1 X132.74 Y102.454 E20.27324
G1 X132.792 Y103.156 E20.29665
G1 X132.784 Y103.368 E20.30371
G1 X132.787 Y103.403 E20.30487
G1 X132.758 Y104.221 E20.3321
G1 X132.772 Y116.121 E20.72789
G1 X132.77 Y116.121 E20.72796
G1 X132.766 Y116.526 E20.74143
G1 X132.785 Y116.872 E20.75296
G1 X132.743 Y117.575 E20.77638
G1 X132.559 Y118.51 E20.80808
G1 X132.411 Y119.043 E20.82647
G1 X132.184 Y119.709 E20.84988
G1 X131.884 Y120.346 E20.8733
G1 X131.513 Y120.944 E20.8967
G1 X131.077 Y121.497 E20.92012
G1 X130.821 Y121.768 E20.93252
G1 X130.763 Y121.826 E20.93525
G1 X130.238 Y122.295 E20.95867
G1 X129.663 Y122.701 E20.98208
G1 X129.045 Y123.039 E21.00551
G1 X128.321 Y123.33 E21.03146
G1 X127.942 Y123.455 E21.04473
G1 X127.262 Y123.637 E21.06814
G1 X126.566 Y123.741 E21.09155
G1 X126.141 Y123.765 E21.10571
G1 X125.982 Y123.769 E21.111
G1 X125.953 Y123.771 E21.11197
G1 X125.249 Y123.789 E21.13539
G1 X124.95 Y123.762 E21.14537
G1 X95.119 Y123.763 E22.13756
G1 X94.917 Y123.757 E22.14428
G1 X94.726 Y123.775 E22.15066
G1 X94.363 Y123.786 E22.16274
G1 X93.659 Y123.767 E22.18616
G1 X93.195 Y123.711 E22.20171
G1 X92.895 Y123.663 E22.21181
G1 X92.208 Y123.513 E22.2352
G1 X91.542 Y123.285 E22.25861
G1 X90.905 Y122.984 E22.28205
G1 X90.308 Y122.612 E22.30544
G1 X89.756 Y122.175 E22.32886
G1 X89.485 Y121.919 E22.34126
G1 X89.134 Y121.567 E22.35779
G1 X88.666 Y121.041 E22.38121
G1 X88.26 Y120.465 E22.40465
G1 X87.938 Y119.879 E22.42689
G1 X87.847 Y119.69 E22.43386
G1 X87.578 Y119.039 E22.45729
G1 X87.384 Y118.362 E22.48071
G1 X87.269 Y117.668 E22.50411
G1 X87.234 Y117.122 E22.52231
G1 X87.229 Y116.889 E22.53006
G1 X87.21 Y116.285 E22.55016
G1 X87.237 Y115.962 E22.56094
G1 X87.237 Y104.113 E22.95504
G1 X87.243 Y103.913 E22.96169
G1 X87.225 Y103.723 E22.96804
G1 X87.214 Y103.366 E22.97992
G1 X87.232 Y102.662 E23.00334
G1 X87.313 Y102.052 E23.02381
G1 X87.357 Y101.813 E23.03189
G1 X87.524 Y101.129 E23.05531
G1 X87.767 Y100.469 E23.0787
G1 X88.009 Y99.973 E23.09706
G1 X88.077 Y99.848 E23.10179
G1 X88.448 Y99.25 E23.1252
G1 X88.884 Y98.698 E23.14859
