;FLAVOR:Marlin
;TIME:738
;Filament used: 0.488897m
;Layer height: 0.16
;MINX:87.2
;MINY:88.2
;MINZ:0.2
;MAXX:132.8
;MAXY:131.8
;MAXZ:4
;Generated with Cura_SteamEngine 4.4.1
M140 S60
M105
M190 S60
M104 S200
M105
M109 S200
M82 ;absolute extrusion mode
M201 X500.00 Y500.00 Z100.00 E5000.00 ;Setup machine max acceleration
M203 X500.00 Y500.00 Z10.00 E50.00 ;Setup machine max feedrate
M204 P500.00 R1000.00 T500.00 ;Setup Print/Retract/Travel acceleration
M205 X8.00 Y8.00 Z0.40 E5.00 ;Setup Jerk
M220 S100 ;Reset Feedrate
M221 S100 ;Reset Flowrate

G28 ;Home
G29 ;Auto bed level

G92 E0 ;Reset Extruder
G1 Z2.0 F3000 ;Move Z Axis up
G1 X10.1 Y20 Z0.28 F5000.0 ;Move to start position
G1 X10.1 Y200.0 Z0.28 F1500.0 E15 ;Draw the first line
G1 X10.4 Y200.0 Z0.28 F5000.0 ;Move to side a little
G1 X10.4 Y20 Z0.28 F1500.0 E30 ;Draw the second line
G92 E0 ;Reset Extruder
G1 Z2.0 F3000 ;Move Z Axis up
G92 E0
G92 E0
G1 F1500 E-6.5
;LAYER_COUNT:21
;LAYER:0
M107
G0 F6000 X91.272 Y91.654 Z0.2
;TYPE:SKIRT
G1 F1500 E0
G1 F1200 X91.858 Y91.124 E0.02628
G1 X92.312 Y90.78 E0.04522
G1 X93.023 Y90.282 E0.0741
G1 X93.692 Y89.863 E0.10035
G1 X94.197 Y89.604 E0.11923
G1 X94.989 Y89.234 E0.1483
G1 X95.72 Y88.937 E0.17455
G1 X96.274 Y88.766 E0.19383
G1 X97.115 Y88.541 E0.22279
G1 X97.887 Y88.376 E0.24904
G1 X98.452 Y88.306 E0.26798
G1 X99.322 Y88.23 E0.29702
G1 X100.001 Y88.2 E0.31963
G1 X119.999 Y88.2 E0.98477
G1 X120.678 Y88.23 E1.00737
G1 X121.548 Y88.306 E1.03642
G1 X122.33 Y88.414 E1.06267
G1 X122.885 Y88.541 E1.08161
G1 X123.726 Y88.766 E1.11057
G1 X124.477 Y89.008 E1.13681
G1 X125.011 Y89.234 E1.1561
G1 X125.803 Y89.604 E1.18517
G1 X126.501 Y89.974 E1.21145
G1 X126.977 Y90.282 E1.2303
G1 X127.688 Y90.78 E1.25918
G1 X128.311 Y91.265 E1.28544
G1 X128.728 Y91.654 E1.3044
G1 X129.346 Y92.272 E1.33347
G1 X129.876 Y92.858 E1.35975
G1 X130.22 Y93.312 E1.3787
G1 X130.718 Y94.023 E1.40757
G1 X131.137 Y94.692 E1.43382
G1 X131.396 Y95.197 E1.4527
G1 X131.765 Y95.987 E1.4817
G1 X132.063 Y96.719 E1.50799
G1 X132.232 Y97.268 E1.52709
G1 X132.458 Y98.111 E1.55612
G1 X132.624 Y98.883 E1.58238
G1 X132.694 Y99.451 E1.60142
G1 X132.77 Y100.319 E1.6304
G1 X132.8 Y100.999 E1.65304
G1 X132.8 Y118.999 E2.25172
G1 X132.77 Y119.678 E2.27433
G1 X132.694 Y120.548 E2.30337
G1 X132.586 Y121.33 E2.32963
G1 X132.458 Y121.887 E2.34864
G1 X132.233 Y122.727 E2.37756
G1 X131.991 Y123.479 E2.40384
G1 X131.767 Y124.007 E2.42291
G1 X131.397 Y124.8 E2.45202
G1 X131.028 Y125.498 E2.47828
G1 X130.718 Y125.977 E2.49725
G1 X130.22 Y126.688 E2.52613
G1 X129.735 Y127.311 E2.55239
G1 X129.346 Y127.728 E2.57135
G1 X128.728 Y128.346 E2.60042
G1 X128.142 Y128.876 E2.6267
G1 X127.688 Y129.22 E2.64565
G1 X126.977 Y129.718 E2.67452
G1 X126.308 Y130.137 E2.70077
G1 X125.803 Y130.396 E2.71965
G1 X125.011 Y130.766 E2.74872
G1 X124.28 Y131.063 E2.77497
G1 X123.726 Y131.234 E2.79425
G1 X122.885 Y131.459 E2.82321
G1 X122.113 Y131.624 E2.84946
G1 X121.548 Y131.694 E2.8684
G1 X120.678 Y131.77 E2.89745
G1 X119.999 Y131.8 E2.92005
G1 X100.001 Y131.8 E3.58519
G1 X99.322 Y131.77 E3.60779
G1 X98.452 Y131.694 E3.63684
G1 X97.67 Y131.586 E3.6631
G1 X97.115 Y131.459 E3.68203
G1 X96.274 Y131.234 E3.71099
G1 X95.523 Y130.992 E3.73723
G1 X94.989 Y130.766 E3.75652
G1 X94.197 Y130.396 E3.78559
G1 X93.499 Y130.026 E3.81187
G1 X93.023 Y129.718 E3.83073
G1 X92.312 Y129.22 E3.8596
G1 X91.689 Y128.735 E3.88586
G1 X91.272 Y128.346 E3.90482
G1 X90.654 Y127.728 E3.93389
G1 X90.124 Y127.142 E3.96017
G1 X89.78 Y126.688 E3.97912
G1 X89.282 Y125.977 E4.00799
G1 X88.863 Y125.308 E4.03424
G1 X88.603 Y124.8 E4.05323
G1 X88.233 Y124.007 E4.08233
G1 X87.935 Y123.275 E4.10862
G1 X87.767 Y122.727 E4.12768
G1 X87.542 Y121.887 E4.1566
G1 X87.376 Y121.115 E4.18287
G1 X87.306 Y120.549 E4.20184
G1 X87.23 Y119.681 E4.23082
G1 X87.2 Y119.001 E4.25346
G1 X87.2 Y101.001 E4.85214
G1 X87.23 Y100.322 E4.87474
G1 X87.306 Y99.452 E4.90379
G1 X87.414 Y98.67 E4.93005
G1 X87.542 Y98.113 E4.94906
G1 X87.767 Y97.273 E4.97798
G1 X88.009 Y96.521 E5.00425
G1 X88.233 Y95.993 E5.02333
G1 X88.603 Y95.2 E5.05243
G1 X88.972 Y94.502 E5.07869
G1 X89.282 Y94.023 E5.09767
G1 X89.78 Y93.312 E5.12654
G1 X90.265 Y92.689 E5.1528
G1 X90.654 Y92.272 E5.17177
G1 X91.272 Y91.654 E5.20084
G0 F6000 X91.554 Y91.936
G1 F1200 X92.126 Y91.422 E5.22642
G1 X92.542 Y91.108 E5.24375
G1 X93.253 Y90.61 E5.27262
G1 X93.905 Y90.202 E5.29821
G1 X94.366 Y89.967 E5.31542
G1 X95.158 Y89.597 E5.34449
G1 X95.871 Y89.308 E5.37008
G1 X96.377 Y89.152 E5.38769
G1 X97.218 Y88.927 E5.41665
G1 X97.971 Y88.768 E5.44224
G1 X98.487 Y88.704 E5.45954
G1 X99.357 Y88.628 E5.48858
G1 X100.001 Y88.6 E5.51002
G1 X119.999 Y88.6 E6.17516
G1 X120.643 Y88.628 E6.1966
G1 X121.513 Y88.704 E6.22565
G1 X122.275 Y88.811 E6.25124
G1 X122.782 Y88.927 E6.26854
G1 X123.623 Y89.152 E6.29749
G1 X124.354 Y89.39 E6.32306
G1 X124.842 Y89.597 E6.34069
G1 X125.634 Y89.967 E6.36977
G1 X126.313 Y90.328 E6.39534
G1 X126.747 Y90.61 E6.41256
G1 X127.458 Y91.108 E6.44143
G1 X128.065 Y91.581 E6.46703
G1 X128.446 Y91.936 E6.48435
G1 X129.064 Y92.554 E6.51341
G1 X129.578 Y93.126 E6.53899
G1 X129.892 Y93.542 E6.55633
G1 X130.39 Y94.253 E6.5852
G1 X130.798 Y94.905 E6.61078
G1 X131.034 Y95.366 E6.62801
G1 X131.403 Y96.156 E6.65701
G1 X131.692 Y96.869 E6.68259
G1 X131.846 Y97.372 E6.70009
G1 X132.072 Y98.215 E6.72912
G1 X132.232 Y98.967 E6.75469
G1 X132.296 Y99.486 E6.77208
G1 X132.372 Y100.354 E6.80106
G1 X132.4 Y100.999 E6.82254
G1 X132.4 Y118.999 E7.42122
G1 X132.372 Y119.643 E7.44266
G1 X132.296 Y120.513 E7.47171
G1 X132.189 Y121.275 E7.4973
G1 X132.072 Y121.784 E7.51467
G1 X131.847 Y122.624 E7.54359
G1 X131.61 Y123.355 E7.56915
G1 X131.405 Y123.838 E7.5866
G1 X131.035 Y124.631 E7.61571
G1 X130.674 Y125.31 E7.64129
G1 X130.39 Y125.747 E7.65862
G1 X129.892 Y126.458 E7.68749
G1 X129.419 Y127.065 E7.71309
G1 X129.064 Y127.446 E7.73041
G1 X128.446 Y128.064 E7.75948
G1 X127.874 Y128.578 E7.78505
G1 X127.458 Y128.892 E7.80239
G1 X126.747 Y129.39 E7.83126
G1 X126.095 Y129.798 E7.85684
G1 X125.634 Y130.033 E7.87405
G1 X124.842 Y130.403 E7.90313
G1 X124.129 Y130.692 E7.92872
G1 X123.623 Y130.848 E7.94633
G1 X122.782 Y131.073 E7.97528
G1 X122.029 Y131.232 E8.00088
G1 X121.513 Y131.296 E8.01817
G1 X120.643 Y131.372 E8.04722
G1 X119.999 Y131.4 E8.06866
G1 X100.001 Y131.4 E8.7338
G1 X99.357 Y131.372 E8.75524
G1 X98.487 Y131.296 E8.78428
G1 X97.725 Y131.189 E8.80987
G1 X97.218 Y131.073 E8.82717
G1 X96.377 Y130.848 E8.85613
G1 X95.646 Y130.61 E8.8817
G1 X95.158 Y130.403 E8.89933
G1 X94.366 Y130.033 E8.9284
G1 X93.687 Y129.672 E8.95398
G1 X93.253 Y129.39 E8.9712
G1 X92.542 Y128.892 E9.00007
G1 X91.935 Y128.419 E9.02566
G1 X91.554 Y128.064 E9.04298
G1 X90.936 Y127.446 E9.07205
G1 X90.422 Y126.874 E9.09763
G1 X90.108 Y126.458 E9.11496
G1 X89.61 Y125.747 E9.14384
G1 X89.202 Y125.095 E9.16942
G1 X88.965 Y124.631 E9.18675
G1 X88.595 Y123.838 E9.21585
G1 X88.306 Y123.125 E9.24144
G1 X88.153 Y122.624 E9.25886
G1 X87.928 Y121.784 E9.28779
G1 X87.768 Y121.031 E9.31339
G1 X87.704 Y120.514 E9.33072
G1 X87.628 Y119.646 E9.3597
G1 X87.6 Y119.001 E9.38117
G1 X87.6 Y101.001 E9.97985
G1 X87.628 Y100.357 E10.00129
G1 X87.704 Y99.487 E10.03034
G1 X87.811 Y98.725 E10.05593
G1 X87.928 Y98.216 E10.0733
G1 X88.153 Y97.376 E10.10223
G1 X88.39 Y96.645 E10.12779
G1 X88.595 Y96.162 E10.14524
G1 X88.965 Y95.369 E10.17434
G1 X89.326 Y94.69 E10.19992
G1 X89.61 Y94.253 E10.21725
G1 X90.108 Y93.542 E10.24612
G1 X90.581 Y92.935 E10.27172
G1 X90.936 Y92.554 E10.28904
G1 X91.554 Y91.936 E10.31811
G0 F6000 X91.837 Y92.219
G1 F1200 X92.394 Y91.719 E10.343
G1 X92.771 Y91.436 E10.35868
G1 X93.482 Y90.938 E10.38755
G1 X94.117 Y90.542 E10.41245
G1 X94.535 Y90.329 E10.42805
G1 X95.327 Y89.959 E10.45712
G1 X96.021 Y89.679 E10.48201
G1 X96.481 Y89.539 E10.49801
G1 X97.322 Y89.314 E10.52696
G1 X98.054 Y89.159 E10.55185
G1 X98.522 Y89.103 E10.56753
G1 X99.392 Y89.027 E10.59657
G1 X100.001 Y89 E10.61685
G1 X119.999 Y89 E11.28198
G1 X120.608 Y89.027 E11.30226
G1 X121.478 Y89.103 E11.3313
G1 X122.219 Y89.207 E11.35619
G1 X122.678 Y89.314 E11.37187
G1 X123.519 Y89.539 E11.40082
G1 X124.23 Y89.77 E11.42569
G1 X124.673 Y89.959 E11.44171
G1 X125.465 Y90.329 E11.47078
G1 X126.125 Y90.681 E11.49566
G1 X126.518 Y90.938 E11.51128
G1 X127.229 Y91.436 E11.54015
G1 X127.818 Y91.897 E11.56503
G1 X128.163 Y92.219 E11.58072
G1 X128.781 Y92.837 E11.60979
G1 X129.281 Y93.394 E11.63469
G1 X129.564 Y93.771 E11.65037
G1 X130.062 Y94.482 E11.67924
G1 X130.458 Y95.117 E11.70413
G1 X130.671 Y95.536 E11.71976
G1 X131.04 Y96.326 E11.74876
G1 X131.32 Y97.019 E11.77362
G1 X131.459 Y97.475 E11.78948
G1 X131.685 Y98.318 E11.81851
G1 X131.84 Y99.05 E11.84339
G1 X131.897 Y99.52 E11.85914
G1 X131.973 Y100.388 E11.88812
G1 X132 Y100.999 E11.90846
G1 X132 Y118.999 E12.50714
G1 X131.973 Y119.608 E12.52742
G1 X131.897 Y120.478 E12.55647
G1 X131.793 Y121.219 E12.58135
G1 X131.686 Y121.68 E12.59709
G1 X131.461 Y122.52 E12.62602
G1 X131.229 Y123.231 E12.65089
G1 X131.042 Y123.669 E12.66673
G1 X130.672 Y124.462 E12.69584
G1 X130.32 Y125.122 E12.72072
G1 X130.062 Y125.518 E12.73644
G1 X129.564 Y126.229 E12.76531
G1 X129.103 Y126.818 E12.79018
G1 X128.781 Y127.163 E12.80588
G1 X128.163 Y127.781 E12.83495
G1 X127.606 Y128.281 E12.85984
G1 X127.229 Y128.564 E12.87552
G1 X126.518 Y129.062 E12.9044
G1 X125.883 Y129.458 E12.92929
G1 X125.465 Y129.671 E12.94489
G1 X124.673 Y130.041 E12.97396
G1 X123.979 Y130.321 E12.99885
G1 X123.519 Y130.461 E13.01485
G1 X122.678 Y130.686 E13.0438
G1 X121.946 Y130.841 E13.06869
G1 X121.478 Y130.897 E13.08437
G1 X120.608 Y130.973 E13.11341
G1 X119.999 Y131 E13.13369
G1 X100.001 Y131 E13.79882
G1 X99.392 Y130.973 E13.8191
G1 X98.522 Y130.897 E13.84815
G1 X97.781 Y130.793 E13.87303
G1 X97.322 Y130.686 E13.88871
G1 X96.481 Y130.461 E13.91766
G1 X95.77 Y130.23 E13.94253
G1 X95.327 Y130.041 E13.95855
G1 X94.535 Y129.671 E13.98762
G1 X93.875 Y129.319 E14.0125
G1 X93.482 Y129.062 E14.02812
G1 X92.771 Y128.564 E14.05699
G1 X92.182 Y128.103 E14.08187
G1 X91.837 Y127.781 E14.09756
G1 X91.219 Y127.163 E14.12663
G1 X90.719 Y126.606 E14.15153
G1 X90.436 Y126.229 E14.16721
G1 X89.938 Y125.518 E14.19608
G1 X89.542 Y124.883 E14.22097
G1 X89.328 Y124.462 E14.23668
G1 X88.958 Y123.669 E14.26578
G1 X88.678 Y122.975 E14.29067
G1 X88.539 Y122.52 E14.3065
G1 X88.314 Y121.68 E14.33542
G1 X88.16 Y120.948 E14.3603
G1 X88.103 Y120.48 E14.37598
G1 X88.027 Y119.612 E14.40496
G1 X88 Y119.001 E14.4253
G1 X88 Y101.001 E15.02398
G1 X88.027 Y100.392 E15.04426
G1 X88.103 Y99.522 E15.07331
G1 X88.207 Y98.781 E15.09819
G1 X88.314 Y98.32 E15.11393
G1 X88.539 Y97.48 E15.14286
G1 X88.771 Y96.769 E15.16773
G1 X88.958 Y96.331 E15.18357
G1 X89.328 Y95.538 E15.21268
G1 X89.68 Y94.878 E15.23756
G1 X89.938 Y94.482 E15.25328
G1 X90.436 Y93.771 E15.28215
G1 X90.897 Y93.182 E15.30702
G1 X91.219 Y92.837 E15.32272
G1 X91.837 Y92.219 E15.35179
G0 F6000 X92.12 Y92.502
G1 F1200 X92.661 Y92.018 E15.37593
G1 X93.001 Y91.763 E15.39007
G1 X93.712 Y91.265 E15.41894
G1 X94.329 Y90.882 E15.44309
G1 X94.704 Y90.691 E15.45709
G1 X95.496 Y90.321 E15.48617
G1 X96.17 Y90.051 E15.51032
G1 X96.584 Y89.925 E15.52471
G1 X97.425 Y89.7 E15.55366
G1 X98.136 Y89.551 E15.57783
G1 X98.557 Y89.501 E15.59193
G1 X99.427 Y89.425 E15.62097
G1 X100.001 Y89.4 E15.64008
G1 X119.999 Y89.4 E16.30522
G1 X120.573 Y89.425 E16.32433
G1 X121.443 Y89.501 E16.35338
G1 X122.162 Y89.604 E16.37753
G1 X122.575 Y89.7 E16.39164
G1 X123.416 Y89.925 E16.42059
G1 X124.106 Y90.151 E16.44474
G1 X124.504 Y90.321 E16.45914
G1 X125.296 Y90.691 E16.48821
G1 X125.936 Y91.035 E16.51238
G1 X126.288 Y91.265 E16.52636
G1 X126.999 Y91.763 E16.55523
G1 X127.57 Y92.212 E16.57939
G1 X127.88 Y92.502 E16.59351
G1 X128.498 Y93.12 E16.62258
G1 X128.982 Y93.661 E16.64672
G1 X129.237 Y94.001 E16.66086
G1 X129.735 Y94.712 E16.68973
G1 X130.118 Y95.329 E16.71389
G1 X130.309 Y95.705 E16.72791
G1 X130.678 Y96.495 E16.75691
G1 X130.949 Y97.169 E16.78107
G1 X131.073 Y97.579 E16.79532
G1 X131.299 Y98.422 E16.82435
G1 X131.448 Y99.133 E16.84851
G1 X131.499 Y99.555 E16.86265
G1 X131.575 Y100.423 E16.89163
G1 X131.6 Y100.999 E16.91081
G1 X131.6 Y118.999 E17.50949
G1 X131.575 Y119.573 E17.5286
G1 X131.499 Y120.443 E17.55764
G1 X131.396 Y121.162 E17.5818
G1 X131.299 Y121.577 E17.59598
G1 X131.074 Y122.417 E17.6249
G1 X130.848 Y123.107 E17.64905
G1 X130.68 Y123.5 E17.66327
G1 X130.31 Y124.293 E17.69237
G1 X129.967 Y124.933 E17.71652
G1 X129.735 Y125.288 E17.73063
G1 X129.237 Y125.999 E17.7595
G1 X128.788 Y126.57 E17.78366
G1 X128.498 Y126.88 E17.79778
G1 X127.88 Y127.498 E17.82685
G1 X127.339 Y127.982 E17.85099
G1 X126.999 Y128.237 E17.86512
G1 X126.288 Y128.735 E17.894
G1 X125.671 Y129.118 E17.91815
G1 X125.296 Y129.309 E17.93215
G1 X124.504 Y129.679 E17.96122
G1 X123.83 Y129.949 E17.98537
G1 X123.416 Y130.075 E17.99976
G1 X122.575 Y130.3 E18.02872
G1 X121.864 Y130.449 E18.05288
G1 X121.443 Y130.499 E18.06698
G1 X120.573 Y130.575 E18.09603
G1 X119.999 Y130.6 E18.11514
G1 X100.001 Y130.6 E18.78027
G1 X99.427 Y130.575 E18.79938
G1 X98.557 Y130.499 E18.82843
G1 X97.838 Y130.396 E18.85259
G1 X97.425 Y130.3 E18.86669
G1 X96.584 Y130.075 E18.89565
G1 X95.894 Y129.849 E18.9198
G1 X95.496 Y129.679 E18.93419
G1 X94.704 Y129.309 E18.96327
G1 X94.064 Y128.965 E18.98743
G1 X93.712 Y128.735 E19.00142
G1 X93.001 Y128.237 E19.03029
G1 X92.43 Y127.788 E19.05445
G1 X92.12 Y127.498 E19.06857
G1 X91.502 Y126.88 E19.09764
G1 X91.018 Y126.339 E19.12178
G1 X90.763 Y125.999 E19.13592
G1 X90.265 Y125.288 E19.16479
G1 X89.882 Y124.671 E19.18894
G1 X89.69 Y124.293 E19.20304
G1 X89.32 Y123.5 E19.23215
G1 X89.05 Y122.825 E19.25633
G1 X88.926 Y122.417 E19.27051
G1 X88.701 Y121.577 E19.29943
G1 X88.552 Y120.866 E19.3236
G1 X88.501 Y120.445 E19.3377
G1 X88.425 Y119.577 E19.36668
G1 X88.4 Y119.001 E19.38586
G1 X88.4 Y101.001 E19.98454
G1 X88.425 Y100.427 E20.00365
G1 X88.501 Y99.557 E20.0327
G1 X88.604 Y98.838 E20.05685
G1 X88.701 Y98.423 E20.07103
G1 X88.926 Y97.583 E20.09995
G1 X89.152 Y96.893 E20.1241
G1 X89.32 Y96.5 E20.13832
G1 X89.69 Y95.707 E20.16742
G1 X90.033 Y95.067 E20.19157
G1 X90.265 Y94.712 E20.20568
G1 X90.763 Y94.001 E20.23455
G1 X91.212 Y93.43 E20.25871
G1 X91.502 Y93.12 E20.27283
G1 X92.12 Y92.502 E20.3019
G0 F6000 X92.403 Y92.785
G1 F1200 X92.928 Y92.316 E20.32531
G1 X93.23 Y92.091 E20.33784
G1 X93.941 Y91.593 E20.36671
G1 X94.54 Y91.222 E20.39014
G1 X94.874 Y91.054 E20.40258
G1 X95.666 Y90.684 E20.43165
G1 X96.319 Y90.422 E20.45505
G1 X96.688 Y90.312 E20.46786
G1 X97.529 Y90.087 E20.49682
G1 X98.218 Y89.944 E20.52022
G1 X98.591 Y89.9 E20.53271
G1 X99.461 Y89.824 E20.56176
G1 X100.001 Y89.8 E20.57974
G1 X119.999 Y89.8 E21.24487
G1 X120.539 Y89.824 E21.26285
G1 X121.409 Y89.9 E21.2919
G1 X122.105 Y90.001 E21.31529
G1 X122.471 Y90.087 E21.3278
G1 X123.312 Y90.312 E21.35675
G1 X123.981 Y90.532 E21.38017
G1 X124.334 Y90.684 E21.39296
G1 X125.126 Y91.054 E21.42203
G1 X125.746 Y91.387 E21.44544
G1 X126.059 Y91.593 E21.4579
G1 X126.77 Y92.091 E21.48677
G1 X127.323 Y92.527 E21.5102
G1 X127.597 Y92.785 E21.52271
G1 X128.215 Y93.403 E21.55178
G1 X128.684 Y93.928 E21.5752
G1 X128.909 Y94.23 E21.58772
G1 X129.407 Y94.941 E21.61659
G1 X129.778 Y95.54 E21.64003
G1 X129.946 Y95.874 E21.65246
G1 X130.315 Y96.664 E21.68146
G1 X130.577 Y97.318 E21.7049
G1 X130.687 Y97.683 E21.71758
G1 X130.913 Y98.526 E21.74661
G1 X131.056 Y99.215 E21.77001
G1 X131.1 Y99.59 E21.78257
G1 X131.176 Y100.458 E21.81155
G1 X131.2 Y100.999 E21.82956
G1 X131.2 Y118.999 E22.42824
G1 X131.176 Y119.539 E22.44622
G1 X131.1 Y120.409 E22.47527
G1 X130.999 Y121.105 E22.49866
G1 X130.913 Y121.473 E22.51123
G1 X130.688 Y122.313 E22.54015
G1 X130.467 Y122.982 E22.56358
G1 X130.318 Y123.331 E22.57621
G1 X129.948 Y124.124 E22.60531
G1 X129.614 Y124.744 E22.62873
G1 X129.407 Y125.059 E22.64127
G1 X128.909 Y125.77 E22.67014
G1 X128.473 Y126.323 E22.69356
G1 X128.215 Y126.597 E22.70608
G1 X127.597 Y127.215 E22.73515
G1 X127.072 Y127.684 E22.75857
G1 X126.77 Y127.909 E22.77109
G1 X126.059 Y128.407 E22.79996
G1 X125.46 Y128.778 E22.8234
G1 X125.126 Y128.946 E22.83583
