;FLAVOR:Marlin
;TIME:6241
;Filament used: 2.76281m
;Layer height: 0.16
;MINX:87.2
;MINY:50.849
;MINZ:0.2
;MAXX:132.8
;MAXY:171.55
;MAXZ:9.88
;Generated with Cura_SteamEngine 4.4.1
M140 S60
M105
M190 S60
M104 S200
M105
M109 S200
M82 ;absolute extrusion mode
M201 X500.00 Y500.00 Z100.00 E5000.00 ;Setup machine max acceleration
M203 X500.00 Y500.00 Z10.00 E50.00 ;Setup machine max feedrate
M204 P500.00 R1000.00 T500.00 ;Setup Print/Retract/Travel acceleration
M205 X8.00 Y8.00 Z0.40 E5.00 ;Setup Jerk
M220 S100 ;Reset Feedrate
M221 S100 ;Reset Flowrate

G28 ;Home
G29 ;Auto bed level

G92 E0 ;Reset Extruder
G1 Z2.0 F3000 ;Move Z Axis up
G1 X10.1 Y20 Z0.28 F5000.0 ;Move to start position
G1 X10.1 Y200.0 Z0.28 F1500.0 E15 ;Draw the first line
G1 X10.4 Y200.0 Z0.28 F5000.0 ;Move to side a little
G1 X10.4 Y20 Z0.28 F1500.0 E30 ;Draw the second line
G92 E0 ;Reset Extruder
G1 Z2.0 F3000 ;Move Z Axis up
G92 E0
G92 E0
G1 F1500 E-6.5
;LAYER_COUNT:62
;LAYER:0
M107
G0 F6000 X98.554 Y54.866 Z0.2
;TYPE:SKIRT
G1 F1500 E0
G1 F1200 X98.972 Y54.195 E0.02629
G1 X99.455 Y53.571 E0.05254
G1 X99.998 Y52.998 E0.0788
G1 X100.597 Y52.483 E0.10507
G1 X101.245 Y52.032 E0.13133
G1 X101.936 Y51.648 E0.15762
G1 X102.661 Y51.336 E0.18387
G1 X103.414 Y51.099 E0.21013
G1 X104.188 Y50.94 E0.23641
G1 X104.973 Y50.859 E0.26266
G1 X105.375 Y50.849 E0.27603
G1 X114.625 Y50.849 E0.58369
G1 X115.414 Y50.889 E0.60996
G1 X116.194 Y51.008 E0.63621
G1 X116.959 Y51.206 E0.66249
G1 X117.699 Y51.48 E0.68874
G1 X118.408 Y51.828 E0.715
G1 X119.079 Y52.246 E0.7413
G1 X119.703 Y52.729 E0.76754
G1 X120.276 Y53.272 E0.7938
G1 X120.791 Y53.871 E0.82007
G1 X121.242 Y54.519 E0.84633
G1 X121.626 Y55.21 E0.87263
G1 X121.938 Y55.935 E0.89888
G1 X122.175 Y56.688 E0.92513
G1 X122.334 Y57.462 E0.95141
G1 X122.415 Y58.247 E0.97766
G1 X122.425 Y58.649 E0.99104
G1 X122.425 Y60.851 E1.06428
G1 X122.876 Y61.167 E1.08259
G1 X123.539 Y61.747 E1.11189
G1 X124.37 Y62.562 E1.1506
G1 X124.905 Y63.143 E1.17687
G1 X125.512 Y63.981 E1.21129
G1 X126.109 Y64.931 E1.24861
G1 X126.495 Y65.62 E1.27487
G1 X126.869 Y66.51 E1.30698
G1 X127.223 Y67.524 E1.3427
G1 X127.445 Y68.282 E1.36897
G1 X127.601 Y69.149 E1.39827
G1 X127.742 Y70.303 E1.43694
G1 X127.8 Y71.249 E1.46846
G1 X127.8 Y115.747 E2.94847
G1 X127.752 Y116.612 E2.97729
G1 X127.628 Y117.723 E3.01447
G1 X127.501 Y118.503 E3.04075
G1 X127.239 Y119.433 E3.07289
G1 X126.884 Y120.448 E3.10865
G1 X126.586 Y121.179 E3.13491
G1 X126.16 Y121.967 E3.1647
G1 X125.799 Y122.553 E3.1876
G1 X125.888 Y122.713 E3.19369
G1 X126.2 Y123.438 E3.21994
G1 X126.437 Y124.191 E3.24619
G1 X126.596 Y124.965 E3.27247
G1 X126.677 Y125.75 E3.29872
G1 X126.687 Y126.152 E3.3121
G1 X126.687 Y128.352 E3.38527
G1 X127.13 Y128.657 E3.40316
G1 X127.9 Y129.333 E3.43724
G1 X128.657 Y130.091 E3.47287
G1 X129.186 Y130.677 E3.49913
G1 X129.704 Y131.393 E3.52852
G1 X130.333 Y132.374 E3.56728
G1 X130.725 Y133.059 E3.59353
G1 X131.129 Y134.008 E3.62783
G1 X131.215 Y134.254 E3.6365
G1 X131.525 Y134.805 E3.65753
G1 X131.889 Y135.662 E3.6885
G1 X132.235 Y136.633 E3.72278
G1 X132.463 Y137.389 E3.74904
G1 X132.64 Y138.386 E3.78272
G1 X132.749 Y139.363 E3.81542
G1 X132.797 Y140.17 E3.84231
G1 X132.8 Y140.572 E3.85568
G1 X132.8 Y159.249 E4.47688
G1 X132.751 Y160.118 E4.50583
G1 X132.639 Y161.117 E4.53926
G1 X132.512 Y161.896 E4.56551
G1 X132.252 Y162.818 E4.59738
G1 X131.926 Y163.752 E4.63028
G1 X131.629 Y164.484 E4.65655
G1 X131.185 Y165.302 E4.68751
G1 X130.64 Y166.178 E4.72182
G1 X130.189 Y166.827 E4.74811
G1 X129.532 Y167.573 E4.78117
G1 X128.823 Y168.282 E4.81452
G1 X128.237 Y168.812 E4.8408
G1 X127.453 Y169.374 E4.87289
G1 X126.597 Y169.911 E4.90649
G1 X125.908 Y170.297 E4.93276
G1 X125.027 Y170.667 E4.96454
G1 X124.075 Y171 E4.99809
G1 X123.318 Y171.222 E5.02433
G1 X122.37 Y171.388 E5.05634
G1 X121.39 Y171.498 E5.08914
G1 X120.521 Y171.547 E5.11809
G1 X99.502 Y171.55 E5.81718
G1 X98.626 Y171.501 E5.84636
G1 X97.625 Y171.388 E5.87987
G1 X96.846 Y171.26 E5.90612
G1 X95.932 Y171.002 E5.93771
G1 X95 Y170.677 E5.97054
G1 X94.268 Y170.38 E5.99681
G1 X93.449 Y169.935 E6.02782
G1 X92.592 Y169.402 E6.06138
G1 X91.943 Y168.952 E6.08765
G1 X91.222 Y168.321 E6.11952
G1 X90.494 Y167.6 E6.1536
G1 X89.962 Y167.017 E6.17985
G1 X89.376 Y166.203 E6.21321
G1 X88.839 Y165.347 E6.24682
G1 X88.453 Y164.658 E6.27308
G1 X88.083 Y163.775 E6.30493
G1 X87.757 Y162.842 E6.3378
G1 X87.534 Y162.084 E6.36408
G1 X87.374 Y161.182 E6.39455
G1 X87.254 Y160.164 E6.42864
G1 X87.2 Y159.251 E6.45906
G1 X87.2 Y140.251 E7.091
G1 X87.249 Y139.382 E7.11995
G1 X87.361 Y138.383 E7.15338
G1 X87.488 Y137.604 E7.17964
G1 X87.75 Y136.675 E7.21174
G1 X88.084 Y135.721 E7.24536
G1 X88.382 Y134.989 E7.27165
G1 X88.836 Y134.157 E7.30317
G1 X89.361 Y133.319 E7.33606
G1 X89.814 Y132.672 E7.36233
G1 X90.437 Y131.964 E7.3937
G1 X90.498 Y131.902 E7.39659
G1 X90.651 Y131.649 E7.40642
G1 X91.092 Y130.994 E7.43269
G1 X91.762 Y130.214 E7.46689
G1 X92.577 Y129.383 E7.5056
G1 X93.158 Y128.848 E7.53187
G1 X93.84 Y128.354 E7.55988
G1 X93.84 Y126.152 E7.63312
G1 X93.88 Y125.363 E7.65939
G1 X93.999 Y124.583 E7.68563
G1 X94.197 Y123.818 E7.71192
G1 X94.471 Y123.078 E7.73816
G1 X94.496 Y123.028 E7.74002
G1 X94.488 Y123.017 E7.74047
G1 X93.891 Y122.067 E7.77779
G1 X93.505 Y121.378 E7.80406
G1 X93.134 Y120.496 E7.83589
G1 X92.763 Y119.437 E7.87321
G1 X92.54 Y118.679 E7.89949
G1 X92.371 Y117.717 E7.93197
G1 X92.253 Y116.652 E7.96761
G1 X92.206 Y115.794 E7.99619
G1 X92.2 Y71.252 E9.47766
G1 X92.248 Y70.388 E9.50645
G1 X92.367 Y69.319 E9.54222
G1 X92.494 Y68.54 E9.56847
G1 X92.738 Y67.661 E9.59881
G1 X93.114 Y66.56 E9.63751
G1 X93.406 Y65.827 E9.66375
G1 X93.891 Y64.931 E9.69764
G1 X94.488 Y63.981 E9.73496
G1 X94.941 Y63.334 E9.76123
G1 X95.577 Y62.616 E9.79313
G1 X96.366 Y61.827 E9.83024
G1 X96.952 Y61.297 E9.85652
G1 X97.575 Y60.85 E9.88202
G1 X97.575 Y58.649 E9.95523
G1 X97.615 Y57.86 E9.9815
G1 X97.734 Y57.08 E10.00775
G1 X97.932 Y56.315 E10.03403
G1 X98.206 Y55.575 E10.06028
G1 X98.554 Y54.866 E10.08654
G0 F6000 X98.953 Y54.973
G1 F1200 X99.369 Y54.326 E10.11213
G1 X99.85 Y53.726 E10.13771
G1 X100.391 Y53.179 E10.16329
G1 X100.986 Y52.691 E10.18889
G1 X101.628 Y52.268 E10.21446
G1 X102.311 Y51.913 E10.24006
G1 X103.026 Y51.632 E10.26561
G1 X103.768 Y51.426 E10.29123
G1 X104.526 Y51.298 E10.31679
G1 X105.375 Y51.249 E10.34508
G1 X114.625 Y51.249 E10.65273
G1 X115.393 Y51.289 E10.67831
G1 X116.153 Y51.408 E10.7039
G1 X116.896 Y51.606 E10.72947
G1 X117.615 Y51.88 E10.75507
G1 X118.301 Y52.227 E10.78063
G1 X118.948 Y52.643 E10.80622
G1 X119.548 Y53.124 E10.8318
G1 X120.095 Y53.665 E10.85738
G1 X120.583 Y54.26 E10.88298
G1 X121.006 Y54.902 E10.90855
G1 X121.361 Y55.585 E10.93415
G1 X121.642 Y56.3 E10.9597
G1 X121.848 Y57.042 E10.98532
G1 X121.976 Y57.8 E11.01088
G1 X122.025 Y58.649 E11.03917
G1 X122.025 Y61.058 E11.11929
G1 X122.645 Y61.494 E11.1445
G1 X123.258 Y62.033 E11.17165
G1 X124.089 Y62.848 E11.21036
G1 X124.61 Y63.414 E11.23595
G1 X125.174 Y64.194 E11.26797
G1 X125.771 Y65.144 E11.30528
G1 X126.145 Y65.815 E11.33083
G1 X126.491 Y66.642 E11.36065
G1 X126.845 Y67.656 E11.39637
G1 X127.061 Y68.394 E11.42195
G1 X127.204 Y69.198 E11.44911
G1 X127.345 Y70.352 E11.48778
G1 X127.4 Y71.249 E11.51767
G1 X127.4 Y115.747 E12.99768
G1 X127.354 Y116.568 E13.02503
G1 X127.23 Y117.679 E13.06221
G1 X127.105 Y118.438 E13.08779
G1 X126.861 Y119.301 E13.11762
G1 X126.506 Y120.316 E13.15338
G1 X126.215 Y121.028 E13.17897
G1 X125.82 Y121.757 E13.20654
G1 X125.338 Y122.539 E13.2371
G1 X125.623 Y123.088 E13.25767
G1 X125.904 Y123.803 E13.28322
G1 X126.11 Y124.545 E13.30884
G1 X126.238 Y125.303 E13.3344
G1 X126.287 Y126.152 E13.36269
G1 X126.287 Y128.561 E13.44281
G1 X126.902 Y128.987 E13.46769
G1 X127.617 Y129.616 E13.49937
G1 X128.374 Y130.374 E13.535
G1 X128.889 Y130.946 E13.5606
G1 X129.367 Y131.609 E13.58778
G1 X129.996 Y132.59 E13.62654
G1 X130.377 Y133.258 E13.65212
G1 X130.752 Y134.14 E13.684
G1 X130.849 Y134.418 E13.69379
G1 X131.176 Y135.001 E13.71602
G1 X131.513 Y135.796 E13.74474
G1 X131.859 Y136.767 E13.77903
G1 X132.079 Y137.504 E13.80461
G1 X132.242 Y138.431 E13.83591
G1 X132.351 Y139.408 E13.86861
G1 X132.397 Y140.173 E13.8941
G1 X132.4 Y140.575 E13.90747
G1 X132.4 Y159.249 E14.52857
G1 X132.354 Y160.073 E14.55602
G1 X132.242 Y161.072 E14.58945
G1 X132.117 Y161.831 E14.61504
G1 X131.875 Y162.687 E14.64463
G1 X131.549 Y163.621 E14.67753
G1 X131.258 Y164.333 E14.70311
G1 X130.845 Y165.091 E14.73182
G1 X130.3 Y165.967 E14.76614
G1 X129.861 Y166.598 E14.7917
G1 X129.25 Y167.291 E14.82243
G1 X128.541 Y168 E14.85578
G1 X127.969 Y168.514 E14.88136
G1 X127.241 Y169.036 E14.91115
G1 X126.385 Y169.573 E14.94476
G1 X125.713 Y169.947 E14.97034
G1 X124.895 Y170.289 E14.99983
G1 X123.943 Y170.622 E15.03338
G1 X123.205 Y170.838 E15.05895
G1 X122.325 Y170.991 E15.08866
G1 X121.345 Y171.101 E15.12146
G1 X120.521 Y171.147 E15.14891
G1 X99.502 Y171.15 E15.848
G1 X98.671 Y171.103 E15.87569
G1 X97.67 Y170.99 E15.90919
G1 X96.911 Y170.864 E15.93478
G1 X96.063 Y170.624 E15.96409
G1 X95.131 Y170.299 E15.99692
G1 X94.419 Y170.009 E16.02249
G1 X93.66 Y169.596 E16.05123
G1 X92.803 Y169.063 E16.0848
G1 X92.172 Y168.623 E16.11038
G1 X91.504 Y168.037 E16.13994
G1 X90.776 Y167.316 E16.17402
G1 X90.258 Y166.747 E16.19961
G1 X89.714 Y165.991 E16.23059
G1 X89.177 Y165.135 E16.2642
G1 X88.803 Y164.463 E16.28978
G1 X88.46 Y163.643 E16.31934
G1 X88.134 Y162.71 E16.35221
G1 X87.919 Y161.972 E16.37778
G1 X87.771 Y161.135 E16.40605
G1 X87.651 Y160.117 E16.44014
G1 X87.6 Y159.251 E16.469
G1 X87.6 Y140.251 E17.10094
G1 X87.646 Y139.427 E17.12839
G1 X87.758 Y138.428 E17.16182
G1 X87.883 Y137.669 E17.18741
G1 X88.128 Y136.807 E17.21721
G1 X88.462 Y135.853 E17.25083
G1 X88.753 Y135.141 E17.27641
G1 X89.175 Y134.369 E17.30568
G1 X89.7 Y133.531 E17.33857
G1 X90.142 Y132.902 E17.36414
G1 X90.72 Y132.245 E17.39324
G1 X90.819 Y132.145 E17.39792
G1 X90.994 Y131.855 E17.40919
G1 X91.424 Y131.218 E17.43475
G1 X92.048 Y130.495 E17.46651
G1 X92.863 Y129.664 E17.50523
G1 X93.429 Y129.143 E17.53081
G1 X94.213 Y128.577 E17.56297
G1 X94.24 Y128.56 E17.56404
G1 X94.24 Y126.152 E17.64413
G1 X94.28 Y125.384 E17.6697
G1 X94.399 Y124.624 E17.69529
G1 X94.597 Y123.881 E17.72086
G1 X94.871 Y123.162 E17.74646
G1 X94.959 Y122.988 E17.75294
G1 X94.826 Y122.804 E17.76049
G1 X94.229 Y121.854 E17.79781
G1 X93.855 Y121.183 E17.82336
G1 X93.511 Y120.364 E17.85291
G1 X93.14 Y119.305 E17.89023
G1 X92.924 Y118.567 E17.9158
G1 X92.769 Y117.673 E17.94598
G1 X92.651 Y116.608 E17.98162
G1 X92.606 Y115.794 E18.00874
G1 X92.6 Y71.252 E19.49021
G1 X92.645 Y70.432 E19.51752
G1 X92.764 Y69.363 E19.5533
G1 X92.889 Y68.604 E19.57888
G1 X93.116 Y67.79 E19.60699
G1 X93.492 Y66.689 E19.64568
G1 X93.778 Y65.975 E19.67127
G1 X94.229 Y65.144 E19.70271
G1 X94.826 Y64.194 E19.74003
G1 X95.269 Y63.565 E19.76562
G1 X95.859 Y62.898 E19.79524
G1 X96.648 Y62.109 E19.83235
G1 X97.22 Y61.595 E19.85793
G1 X97.944 Y61.076 E19.88756
G1 X97.975 Y61.057 E19.88877
G1 X97.975 Y58.649 E19.96886
G1 X98.015 Y57.881 E19.99444
G1 X98.134 Y57.121 E20.02002
G1 X98.332 Y56.378 E20.0456
G1 X98.606 Y55.659 E20.07119
G1 X98.953 Y54.973 E20.09676
G0 F6000 X99.352 Y55.083
G1 F1200 X99.767 Y54.46 E20.12165
G1 X100.246 Y53.886 E20.14652
G1 X100.783 Y53.365 E20.1714
G1 X101.373 Y52.906 E20.19627
G1 X102.009 Y52.511 E20.22117
G1 X102.683 Y52.187 E20.24604
G1 X103.388 Y51.937 E20.27092
G1 X104.116 Y51.763 E20.29582
G1 X104.858 Y51.668 E20.3207
G1 X105.375 Y51.649 E20.3379
G1 X114.625 Y51.649 E20.64556
G1 X115.372 Y51.689 E20.67044
G1 X116.11 Y51.808 E20.6953
G1 X116.832 Y52.006 E20.7202
G1 X117.528 Y52.279 E20.74507
G1 X118.191 Y52.626 E20.76996
G1 X118.814 Y53.041 E20.79486
G1 X119.388 Y53.52 E20.81972
G1 X119.909 Y54.057 E20.84461
G1 X120.368 Y54.647 E20.86947
G1 X120.763 Y55.283 E20.89437
G1 X121.087 Y55.957 E20.91924
G1 X121.337 Y56.662 E20.94412
G1 X121.511 Y57.39 E20.96902
G1 X121.606 Y58.132 E20.9939
G1 X121.625 Y58.649 E21.01111
G1 X121.625 Y61.278 E21.09855
G1 X121.803 Y61.39 E21.10554
G1 X122.414 Y61.822 E21.13043
G1 X122.978 Y62.318 E21.15541
G1 X123.809 Y63.133 E21.19412
G1 X124.315 Y63.685 E21.21903
G1 X124.835 Y64.406 E21.2486
G1 X125.432 Y65.356 E21.28592
G1 X125.795 Y66.01 E21.31079
G1 X126.114 Y66.774 E21.33833
G1 X126.468 Y67.788 E21.37405
G1 X126.676 Y68.506 E21.39892
G1 X126.807 Y69.246 E21.42391
G1 X126.948 Y70.4 E21.46258
G1 X127 Y71.249 E21.49087
G1 X127 Y115.747 E22.97088
G1 X126.957 Y116.523 E22.99673
G1 X126.833 Y117.634 E23.03391
G1 X126.71 Y118.372 E23.05879
G1 X126.484 Y119.169 E23.08635
G1 X126.129 Y120.184 E23.12211
G1 X125.844 Y120.876 E23.147
G1 X125.479 Y121.547 E23.17241
G1 X124.869 Y122.535 E23.21103
G1 X125.025 Y122.786 E23.22086
G1 X125.349 Y123.46 E23.24573
G1 X125.599 Y124.165 E23.27061
G1 X125.773 Y124.893 E23.29551
G1 X125.868 Y125.635 E23.32039
G1 X125.887 Y126.152 E23.33759
G1 X125.887 Y128.783 E23.4251
G1 X126.06 Y128.89 E23.43187
G1 X126.674 Y129.316 E23.45672
G1 X127.334 Y129.899 E23.48601
G1 X128.091 Y130.657 E23.52164
G1 X128.591 Y131.213 E23.54651
G1 X129.031 Y131.825 E23.57158
G1 X129.66 Y132.806 E23.61034
G1 X130.029 Y133.456 E23.6352
G1 X130.374 Y134.272 E23.66467
G1 X130.482 Y134.582 E23.67559
G1 X130.826 Y135.197 E23.69902
G1 X131.136 Y135.93 E23.72549
G1 X131.482 Y136.901 E23.75978
G1 X131.695 Y137.618 E23.78466
G1 X131.845 Y138.475 E23.81359
G1 X131.954 Y139.452 E23.84629
G1 X131.997 Y140.176 E23.87041
G1 X132 Y140.578 E23.88378
G1 X132 Y159.249 E24.50478
G1 X131.956 Y160.029 E24.53077
G1 X131.844 Y161.028 E24.5642
G1 X131.721 Y161.766 E24.58909
G1 X131.497 Y162.555 E24.61637
G1 X131.171 Y163.489 E24.64927
G1 X130.887 Y164.181 E24.67415
G1 X130.506 Y164.88 E24.70063
G1 X129.961 Y165.756 E24.73494
G1 X129.532 Y166.369 E24.75983
G1 X128.967 Y167.008 E24.7882
G1 X128.258 Y167.717 E24.82154
G1 X127.701 Y168.217 E24.84644
G1 X127.028 Y168.697 E24.87393
G1 X126.172 Y169.234 E24.90754
G1 X125.518 Y169.597 E24.93242
G1 X124.763 Y169.911 E24.95962
G1 X123.811 Y170.244 E24.99316
G1 X123.093 Y170.453 E25.01803
G1 X122.281 Y170.593 E25.04544
G1 X121.301 Y170.703 E25.07824
G1 X120.521 Y170.747 E25.10422
G1 X99.502 Y170.75 E25.80332
G1 X98.716 Y170.706 E25.8295
G1 X97.715 Y170.593 E25.86301
G1 X96.977 Y170.469 E25.8879
G1 X96.195 Y170.247 E25.91493
G1 X95.263 Y169.922 E25.94776
G1 X94.571 Y169.638 E25.97264
G1 X93.871 Y169.256 E25.99917
G1 X93.014 Y168.723 E26.03273
G1 X92.401 Y168.295 E26.0576
G1 X91.785 Y167.753 E26.08489
G1 X91.057 Y167.032 E26.11897
G1 X90.555 Y166.478 E26.14383
G1 X90.053 Y165.778 E26.17248
G1 X89.516 Y164.922 E26.20609
G1 X89.153 Y164.268 E26.23097
G1 X88.838 Y163.511 E26.25824
G1 X88.512 Y162.578 E26.29111
G1 X88.303 Y161.86 E26.31599
G1 X88.168 Y161.088 E26.34205
G1 X88.048 Y160.07 E26.37614
G1 X88 Y159.251 E26.40343
G1 X88 Y140.251 E27.03537
G1 X88.044 Y139.471 E27.06136
G1 X88.156 Y138.472 E27.09479
G1 X88.279 Y137.734 E27.11968
G1 X88.505 Y136.939 E27.14717
G1 X88.839 Y135.985 E27.18079
G1 X89.124 Y135.293 E27.20568
G1 X89.514 Y134.582 E27.23265
G1 X90.039 Y133.744 E27.26554
G1 X90.469 Y133.132 E27.29042
G1 X91.004 Y132.527 E27.31728
G1 X91.135 Y132.395 E27.32346
G1 X91.336 Y132.062 E27.3364
G1 X91.756 Y131.443 E27.36128
G1 X92.333 Y130.775 E27.39064
G1 X93.148 Y129.944 E27.42935
G1 X93.7 Y129.438 E27.45426
G1 X94.425 Y128.916 E27.48397
G1 X94.64 Y128.781 E27.49242
G1 X94.64 Y126.152 E27.57986
G1 X94.68 Y125.405 E27.60474
G1 X94.799 Y124.667 E27.6296
G1 X94.997 Y123.945 E27.6545
G1 X95.27 Y123.249 E27.67937
G1 X95.425 Y122.953 E27.69048
G1 X95.165 Y122.592 E27.70528
G1 X94.568 Y121.642 E27.7426
G1 X94.205 Y120.988 E27.76747
G1 X93.889 Y120.231 E27.79476
G1 X93.518 Y119.172 E27.83208
G1 X93.308 Y118.454 E27.85696
G1 X93.167 Y117.629 E27.8848
G1 X93.049 Y116.564 E27.92044
G1 X93.006 Y115.794 E27.94609
G1 X93 Y71.252 E29.42756
G1 X93.043 Y70.477 E29.45338
G1 X93.162 Y69.408 E29.48915
G1 X93.284 Y68.67 E29.51403
G1 X93.495 Y67.92 E29.53994
G1 X93.871 Y66.819 E29.57864
G1 X94.15 Y66.125 E29.60352
G1 X94.568 Y65.356 E29.63263
G1 X95.165 Y64.406 E29.66995
G1 X95.596 Y63.795 E29.69482
