;FLAVOR:Marlin
;TIME:5088
;Filament used: 3.37563m
;Layer height: 0.16
;MINX:75.208
;MINY:75.208
;MINZ:0.2
;MAXX:144.792
;MAXY:144.792
;MAXZ:19.92
;Generated with Cura_SteamEngine 4.4.1
M140 S60
M105
M190 S60
M104 S200
M105
M109 S200
M82 ;absolute extrusion mode
M201 X500.00 Y500.00 Z100.00 E5000.00 ;Setup machine max acceleration
M203 X500.00 Y500.00 Z10.00 E50.00 ;Setup machine max feedrate
M204 P500.00 R1000.00 T500.00 ;Setup Print/Retract/Travel acceleration
M205 X8.00 Y8.00 Z0.40 E5.00 ;Setup Jerk
M220 S100 ;Reset Feedrate
M221 S100 ;Reset Flowrate

G28 ;Home
G29 ;Auto bed level

G92 E0 ;Reset Extruder
G1 Z2.0 F3000 ;Move Z Axis up
G1 X10.1 Y20 Z0.28 F5000.0 ;Move to start position
G1 X10.1 Y200.0 Z0.28 F1500.0 E15 ;Draw the first line
G1 X10.4 Y200.0 Z0.28 F5000.0 ;Move to side a little
G1 X10.4 Y20 Z0.28 F1500.0 E30 ;Draw the second line
G92 E0 ;Reset Extruder
G1 Z2.0 F3000 ;Move Z Axis up
G92 E0
G92 E0
G1 F1500 E-6.5
;LAYER_COUNT:130
;LAYER:0
M107
G0 F6000 X82.643 Y88.614 Z0.2
;TYPE:SKIRT
G1 F1500 E0
G1 F1200 X88.614 Y82.643 E0.28086
G1 X89.2 Y82.113 E0.30714
G1 X89.836 Y81.646 E0.33338
G1 X90.575 Y81.215 E0.36183
G1 X90.952 Y81.022 E0.37592
G1 X90.965 Y81.015 E0.37641
G1 X98.116 Y77.372 E0.64334
G1 X98.837 Y77.05 E0.6696
G1 X99.587 Y76.802 E0.69588
G1 X100.436 Y76.618 E0.72477
G1 X108.779 Y75.296 E1.00572
G1 X109.564 Y75.212 E1.03198
G1 X110.354 Y75.208 E1.05826
G1 X111.221 Y75.296 E1.08724
G1 X119.564 Y76.618 E1.36819
G1 X120.336 Y76.781 E1.39444
G1 X121.089 Y77.021 E1.42072
G1 X121.884 Y77.372 E1.44963
G1 X129.412 Y81.208 E1.73064
G1 X130.097 Y81.602 E1.75692
G1 X130.738 Y82.063 E1.78319
G1 X131.386 Y82.643 E1.81211
G1 X137.357 Y88.614 E2.09297
G1 X137.887 Y89.2 E2.11925
G1 X138.354 Y89.836 E2.14549
G1 X138.785 Y90.575 E2.17394
G1 X138.978 Y90.952 E2.18803
G1 X138.985 Y90.965 E2.18852
G1 X142.628 Y98.116 E2.45545
G1 X142.95 Y98.837 E2.48171
G1 X143.198 Y99.587 E2.50799
G1 X143.382 Y100.436 E2.53688
G1 X144.704 Y108.779 E2.81783
G1 X144.788 Y109.564 E2.84409
G1 X144.792 Y110.354 E2.87037
G1 X144.704 Y111.221 E2.89935
G1 X143.382 Y119.564 E3.1803
G1 X143.219 Y120.336 E3.20655
G1 X142.979 Y121.089 E3.23283
G1 X142.632 Y121.876 E3.26144
G1 X142.441 Y122.252 E3.27547
G1 X142.437 Y122.261 E3.27579
G1 X138.792 Y129.413 E3.54278
G1 X138.398 Y130.097 E3.56904
G1 X137.937 Y130.739 E3.59532
G1 X137.357 Y131.386 E3.62422
G1 X131.386 Y137.357 E3.90508
G1 X130.8 Y137.887 E3.93136
G1 X130.164 Y138.354 E3.9576
G1 X129.425 Y138.785 E3.98606
G1 X129.048 Y138.978 E4.00015
G1 X129.035 Y138.985 E4.00064
G1 X121.884 Y142.628 E4.26757
G1 X121.163 Y142.95 E4.29383
G1 X120.413 Y143.198 E4.3201
G1 X119.564 Y143.382 E4.349
G1 X111.221 Y144.704 E4.62995
G1 X110.436 Y144.788 E4.6562
G1 X109.646 Y144.792 E4.68248
G1 X108.779 Y144.704 E4.71147
G1 X100.436 Y143.382 E4.99242
G1 X99.664 Y143.219 E5.01866
G1 X98.911 Y142.979 E5.04495
G1 X98.124 Y142.632 E5.07355
G1 X97.748 Y142.441 E5.08758
G1 X97.739 Y142.437 E5.08791
G1 X90.587 Y138.792 E5.3549
G1 X89.903 Y138.398 E5.38115
G1 X89.261 Y137.937 E5.40744
G1 X88.614 Y137.357 E5.43634
G1 X82.643 Y131.386 E5.7172
G1 X82.113 Y130.8 E5.74348
G1 X81.646 Y130.164 E5.76972
G1 X81.215 Y129.425 E5.79817
G1 X81.022 Y129.048 E5.81226
G1 X81.015 Y129.035 E5.81275
G1 X77.372 Y121.884 E6.07968
G1 X77.05 Y121.163 E6.10594
G1 X76.802 Y120.413 E6.13222
G1 X76.618 Y119.564 E6.16111
G1 X75.296 Y111.221 E6.44206
G1 X75.212 Y110.436 E6.46832
G1 X75.208 Y109.646 E6.49459
G1 X75.296 Y108.779 E6.52358
G1 X76.618 Y100.436 E6.80453
G1 X76.781 Y99.664 E6.83077
G1 X77.021 Y98.911 E6.85706
G1 X77.368 Y98.124 E6.88567
G1 X77.559 Y97.748 E6.89969
G1 X77.563 Y97.739 E6.90002
G1 X81.208 Y90.587 E7.16701
G1 X81.602 Y89.903 E7.19326
G1 X82.063 Y89.261 E7.21955
G1 X82.643 Y88.614 E7.24845
G0 F6000 X82.925 Y88.896
G1 F1200 X88.896 Y82.925 E7.52931
G1 X89.468 Y82.411 E7.55489
G1 X90.09 Y81.958 E7.58048
G1 X90.757 Y81.571 E7.60613
G1 X91.134 Y81.378 E7.62021
G1 X91.147 Y81.371 E7.62071
G1 X98.298 Y77.728 E7.88763
G1 X99 Y77.415 E7.9132
G1 X99.732 Y77.177 E7.9388
G1 X100.499 Y77.013 E7.96489
G1 X108.842 Y75.691 E8.24584
G1 X109.607 Y75.61 E8.27142
G1 X110.376 Y75.61 E8.297
G1 X111.158 Y75.691 E8.32315
G1 X119.501 Y77.013 E8.6041
G1 X120.254 Y77.173 E8.62971
G1 X120.985 Y77.41 E8.65526
G1 X121.703 Y77.729 E8.6814
G1 X129.231 Y81.565 E8.96241
G1 X129.897 Y81.949 E8.98798
G1 X130.52 Y82.4 E9.01356
G1 X131.104 Y82.925 E9.03968
G1 X137.075 Y88.896 E9.32054
G1 X137.589 Y89.468 E9.34612
G1 X138.042 Y90.09 E9.37171
G1 X138.429 Y90.757 E9.39736
G1 X138.622 Y91.134 E9.41144
G1 X138.629 Y91.147 E9.41193
G1 X142.272 Y98.298 E9.67886
G1 X142.585 Y99 E9.70443
G1 X142.823 Y99.732 E9.73003
G1 X142.987 Y100.499 E9.75611
G1 X144.309 Y108.842 E10.03707
G1 X144.39 Y109.607 E10.06265
G1 X144.39 Y110.376 E10.08823
G1 X144.309 Y111.158 E10.11438
G1 X142.987 Y119.501 E10.39533
G1 X142.827 Y120.254 E10.42093
G1 X142.59 Y120.985 E10.44649
G1 X142.276 Y121.694 E10.47228
G1 X142.085 Y122.07 E10.48631
G1 X142.08 Y122.079 E10.48665
G1 X138.435 Y129.231 E10.75364
G1 X138.051 Y129.897 E10.77921
G1 X137.599 Y130.52 E10.80481
G1 X137.075 Y131.104 E10.83091
G1 X131.104 Y137.075 E11.11176
G1 X130.532 Y137.589 E11.13734
G1 X129.91 Y138.042 E11.16293
G1 X129.243 Y138.429 E11.18858
G1 X128.866 Y138.622 E11.20267
G1 X128.853 Y138.629 E11.20316
G1 X121.702 Y142.272 E11.47009
G1 X121 Y142.585 E11.49565
G1 X120.268 Y142.823 E11.52125
G1 X119.501 Y142.987 E11.54734
G1 X111.158 Y144.309 E11.82829
G1 X110.393 Y144.39 E11.85388
G1 X109.624 Y144.39 E11.87946
G1 X108.842 Y144.309 E11.9056
G1 X100.499 Y142.987 E12.18656
G1 X99.746 Y142.827 E12.21216
G1 X99.015 Y142.59 E12.23772
G1 X98.306 Y142.276 E12.26351
G1 X97.93 Y142.085 E12.27754
G1 X97.921 Y142.08 E12.27788
G1 X90.769 Y138.435 E12.54487
G1 X90.103 Y138.051 E12.57044
G1 X89.48 Y137.599 E12.59604
G1 X88.896 Y137.075 E12.62213
G1 X82.925 Y131.104 E12.90299
G1 X82.411 Y130.532 E12.92857
G1 X81.958 Y129.91 E12.95416
G1 X81.571 Y129.243 E12.97981
G1 X81.378 Y128.866 E12.9939
G1 X81.371 Y128.853 E12.99439
G1 X77.728 Y121.702 E13.26132
G1 X77.415 Y121 E13.28688
G1 X77.177 Y120.268 E13.31248
G1 X77.013 Y119.501 E13.33857
G1 X75.691 Y111.158 E13.61952
G1 X75.61 Y110.393 E13.64511
G1 X75.61 Y109.624 E13.67068
G1 X75.691 Y108.842 E13.69683
G1 X77.013 Y100.499 E13.97778
G1 X77.173 Y99.746 E14.00339
G1 X77.41 Y99.015 E14.02895
G1 X77.724 Y98.306 E14.05474
G1 X77.915 Y97.93 E14.06876
G1 X77.92 Y97.921 E14.06911
G1 X81.565 Y90.769 E14.33609
G1 X81.949 Y90.103 E14.36166
G1 X82.401 Y89.48 E14.38726
G1 X82.925 Y88.896 E14.41336
G0 F6000 X83.208 Y89.179
G1 F1200 X89.179 Y83.208 E14.69422
G1 X89.736 Y82.708 E14.71911
G1 X90.342 Y82.271 E14.74396
G1 X90.939 Y81.927 E14.76688
G1 X91.316 Y81.734 E14.78097
G1 X91.328 Y81.728 E14.78141
G1 X98.479 Y78.085 E15.04834
G1 X99.163 Y77.781 E15.07324
G1 X99.875 Y77.553 E15.0981
G1 X100.561 Y77.408 E15.12142
G1 X108.904 Y76.086 E15.40237
G1 X109.649 Y76.009 E15.42729
G1 X110.397 Y76.011 E15.45216
G1 X111.096 Y76.086 E15.47555
G1 X119.439 Y77.408 E15.7565
G1 X120.17 Y77.565 E15.78137
G1 X120.881 Y77.798 E15.80625
G1 X121.521 Y78.085 E15.82958
G1 X129.049 Y81.921 E16.11059
G1 X129.697 Y82.296 E16.1355
G1 X130.3 Y82.738 E16.16036
G1 X130.821 Y83.208 E16.1837
G1 X136.792 Y89.179 E16.46456
G1 X137.292 Y89.736 E16.48945
G1 X137.729 Y90.342 E16.5143
G1 X138.073 Y90.939 E16.53722
G1 X138.266 Y91.316 E16.55131
G1 X138.272 Y91.328 E16.55175
G1 X141.915 Y98.479 E16.81868
G1 X142.219 Y99.163 E16.84358
G1 X142.447 Y99.875 E16.86844
G1 X142.592 Y100.561 E16.89176
G1 X143.914 Y108.904 E17.17271
G1 X143.991 Y109.649 E17.19762
G1 X143.989 Y110.397 E17.2225
G1 X143.914 Y111.096 E17.24589
G1 X142.592 Y119.439 E17.52684
G1 X142.435 Y120.17 E17.5517
G1 X142.202 Y120.881 E17.57659
G1 X141.919 Y121.513 E17.59962
G1 X141.728 Y121.889 E17.61365
G1 X141.724 Y121.898 E17.61398
G1 X138.079 Y129.05 E17.88096
G1 X137.704 Y129.697 E17.90584
G1 X137.262 Y130.301 E17.93073
G1 X136.792 Y130.821 E17.95404
G1 X130.821 Y136.792 E18.2349
G1 X130.264 Y137.292 E18.2598
G1 X129.658 Y137.729 E18.28465
G1 X129.061 Y138.073 E18.30756
G1 X128.684 Y138.266 E18.32165
G1 X128.672 Y138.272 E18.3221
G1 X121.521 Y141.915 E18.58902
G1 X120.837 Y142.219 E18.61392
G1 X120.125 Y142.447 E18.63879
G1 X119.439 Y142.592 E18.66211
G1 X111.096 Y143.914 E18.94306
G1 X110.351 Y143.991 E18.96797
G1 X109.603 Y143.989 E18.99285
G1 X108.904 Y143.914 E19.01623
G1 X100.561 Y142.592 E19.29718
G1 X99.83 Y142.435 E19.32205
G1 X99.119 Y142.202 E19.34693
G1 X98.487 Y141.919 E19.36996
G1 X98.111 Y141.728 E19.38399
G1 X98.102 Y141.724 E19.38432
G1 X90.95 Y138.079 E19.65131
G1 X90.303 Y137.704 E19.67618
G1 X89.699 Y137.262 E19.70107
G1 X89.179 Y136.792 E19.72439
G1 X83.208 Y130.821 E20.00524
G1 X82.708 Y130.264 E20.03014
G1 X82.271 Y129.658 E20.05499
G1 X81.927 Y129.061 E20.07791
G1 X81.734 Y128.684 E20.09199
G1 X81.728 Y128.672 E20.09244
G1 X78.085 Y121.521 E20.35937
G1 X77.781 Y120.837 E20.38426
G1 X77.553 Y120.125 E20.40913
G1 X77.408 Y119.439 E20.43245
G1 X76.086 Y111.096 E20.7134
G1 X76.009 Y110.351 E20.73831
G1 X76.011 Y109.603 E20.76319
G1 X76.086 Y108.904 E20.78657
G1 X77.408 Y100.561 E21.06752
G1 X77.565 Y99.83 E21.09239
G1 X77.798 Y99.119 E21.11728
G1 X78.081 Y98.487 E21.14031
G1 X78.272 Y98.111 E21.15433
G1 X78.276 Y98.102 E21.15466
G1 X81.921 Y90.95 E21.42165
G1 X82.296 Y90.303 E21.44652
G1 X82.738 Y89.699 E21.47142
G1 X83.208 Y89.179 E21.49473
G0 F6000 X83.491 Y89.462
G1 F1200 X89.462 Y83.491 E21.77559
G1 X90.003 Y83.007 E21.79973
G1 X90.594 Y82.584 E21.8239
G1 X91.121 Y82.283 E21.84409
G1 X91.498 Y82.09 E21.85818
G1 X91.51 Y82.084 E21.85862
G1 X98.661 Y78.441 E22.12555
G1 X99.325 Y78.148 E22.14969
G1 X100.018 Y77.929 E22.17386
G1 X100.624 Y77.803 E22.19445
G1 X108.967 Y76.481 E22.4754
G1 X109.69 Y76.407 E22.49957
G1 X110.416 Y76.413 E22.52372
G1 X111.033 Y76.481 E22.54437
G1 X119.376 Y77.803 E22.82532
G1 X120.086 Y77.956 E22.84948
G1 X120.775 Y78.186 E22.87363
G1 X121.34 Y78.441 E22.89425
G1 X128.868 Y82.277 E23.17527
G1 X129.496 Y82.642 E23.19943
G1 X130.08 Y83.074 E23.22359
G1 X130.538 Y83.491 E23.24419
G1 X136.509 Y89.462 E23.52505
G1 X136.993 Y90.003 E23.54919
G1 X137.416 Y90.594 E23.57336
G1 X137.717 Y91.121 E23.59355
G1 X137.91 Y91.498 E23.60763
G1 X137.916 Y91.51 E23.60808
G1 X141.559 Y98.661 E23.87501
G1 X141.852 Y99.325 E23.89915
G1 X142.071 Y100.018 E23.92332
G1 X142.197 Y100.624 E23.94391
G1 X143.519 Y108.967 E24.22486
G1 X143.593 Y109.69 E24.24903
G1 X143.587 Y110.416 E24.27318
G1 X143.519 Y111.033 E24.29383
G1 X142.197 Y119.376 E24.57478
G1 X142.044 Y120.086 E24.59893
G1 X141.814 Y120.775 E24.62309
G1 X141.562 Y121.332 E24.64343
G1 X141.371 Y121.708 E24.65745
G1 X141.367 Y121.716 E24.65775
G1 X137.722 Y128.868 E24.92474
G1 X137.357 Y129.496 E24.9489
G1 X136.926 Y130.08 E24.97304
G1 X136.509 Y130.538 E24.99364
G1 X130.538 Y136.509 E25.2745
G1 X129.997 Y136.993 E25.29864
G1 X129.406 Y137.416 E25.32281
G1 X128.879 Y137.717 E25.343
G1 X128.502 Y137.91 E25.35709
G1 X128.49 Y137.916 E25.35753
G1 X121.339 Y141.559 E25.62446
G1 X120.675 Y141.852 E25.6486
G1 X119.982 Y142.071 E25.67277
G1 X119.376 Y142.197 E25.69336
G1 X111.033 Y143.519 E25.97431
G1 X110.31 Y143.593 E25.99848
G1 X109.584 Y143.587 E26.02263
G1 X108.967 Y143.519 E26.04328
G1 X100.624 Y142.197 E26.32423
G1 X99.914 Y142.044 E26.34839
G1 X99.225 Y141.814 E26.37254
G1 X98.668 Y141.562 E26.39288
G1 X98.292 Y141.371 E26.40691
G1 X98.284 Y141.367 E26.4072
G1 X91.132 Y137.722 E26.67419
G1 X90.504 Y137.357 E26.69835
G1 X89.92 Y136.926 E26.72249
G1 X89.462 Y136.509 E26.74309
G1 X83.491 Y130.538 E27.02395
G1 X83.007 Y129.997 E27.04809
G1 X82.584 Y129.406 E27.07227
G1 X82.283 Y128.879 E27.09245
G1 X82.09 Y128.502 E27.10654
G1 X82.084 Y128.49 E27.10698
G1 X78.441 Y121.339 E27.37391
G1 X78.148 Y120.675 E27.39805
G1 X77.929 Y119.982 E27.42223
G1 X77.803 Y119.376 E27.44281
G1 X76.481 Y111.033 E27.72376
G1 X76.407 Y110.31 E27.74794
G1 X76.413 Y109.584 E27.77208
G1 X76.481 Y108.967 E27.79273
G1 X77.803 Y100.624 E28.07368
G1 X77.956 Y99.914 E28.09784
G1 X78.186 Y99.225 E28.122
G1 X78.438 Y98.668 E28.14233
G1 X78.629 Y98.292 E28.15636
G1 X78.633 Y98.284 E28.15666
G1 X82.278 Y91.132 E28.42364
G1 X82.643 Y90.504 E28.4478
G1 X83.074 Y89.92 E28.47194
G1 X83.491 Y89.462 E28.49254
G0 F6000 X83.774 Y89.745
G1 F1200 X89.745 Y83.774 E28.7734
G1 X90.27 Y83.305 E28.79682
G1 X90.845 Y82.899 E28.82023
G1 X91.304 Y82.639 E28.83777
G1 X91.681 Y82.446 E28.85186
G1 X91.692 Y82.441 E28.85226
G1 X98.843 Y78.798 E29.11919
G1 X99.487 Y78.514 E29.1426
G1 X100.159 Y78.306 E29.166
G1 X100.687 Y78.198 E29.18392
G1 X109.03 Y76.876 E29.46487
G1 X109.73 Y76.806 E29.48827
G1 X110.434 Y76.815 E29.51169
G1 X110.97 Y76.876 E29.52963
G1 X119.313 Y78.198 E29.81058
G1 X120.001 Y78.348 E29.834
G1 X120.668 Y78.574 E29.85743
G1 X121.158 Y78.798 E29.87535
G1 X128.686 Y82.634 E30.15636
G1 X129.294 Y82.989 E30.17978
G1 X129.858 Y83.41 E30.20319
G1 X130.255 Y83.774 E30.2211
G1 X136.226 Y89.745 E30.50196
G1 X136.695 Y90.27 E30.52537
G1 X137.101 Y90.845 E30.54878
G1 X137.361 Y91.304 E30.56633
G1 X137.554 Y91.681 E30.58042
G1 X137.559 Y91.692 E30.58082
G1 X141.202 Y98.843 E30.84775
G1 X141.486 Y99.487 E30.87116
G1 X141.694 Y100.159 E30.89455
G1 X141.802 Y100.687 E30.91248
G1 X143.124 Y109.03 E31.19343
G1 X143.194 Y109.73 E31.21683
G1 X143.185 Y110.434 E31.24025
G1 X143.124 Y110.97 E31.25819
G1 X141.802 Y119.313 E31.53914
G1 X141.652 Y120.001 E31.56256
G1 X141.426 Y120.668 E31.58598
G1 X141.206 Y121.151 E31.60364
G1 X141.015 Y121.527 E31.61766
G1 X141.011 Y121.534 E31.61793
G1 X137.366 Y128.686 E31.88492
G1 X137.011 Y129.294 E31.90834
G1 X136.59 Y129.858 E31.93174
G1 X136.226 Y130.255 E31.94966
G1 X130.255 Y136.226 E32.23052
G1 X129.73 Y136.695 E32.25393
G1 X129.155 Y137.101 E32.27734
G1 X128.696 Y137.361 E32.29489
G1 X128.319 Y137.554 E32.30897
G1 X128.308 Y137.559 E32.30938
G1 X121.157 Y141.202 E32.5763
G1 X120.513 Y141.486 E32.59971
G1 X119.841 Y141.694 E32.62311
G1 X119.313 Y141.802 E32.64104
G1 X110.97 Y143.124 E32.92199
G1 X110.27 Y143.194 E32.94539
G1 X109.566 Y143.185 E32.9688
G1 X109.03 Y143.124 E32.98675
G1 X100.687 Y141.802 E33.2677
G1 X99.999 Y141.652 E33.29112
G1 X99.332 Y141.426 E33.31454
G1 X98.849 Y141.206 E33.33219
G1 X98.473 Y141.015 E33.34622
G1 X98.466 Y141.011 E33.34649
G1 X91.314 Y137.366 E33.61348
G1 X90.706 Y137.011 E33.63689
G1 X90.142 Y136.59 E33.6603
G1 X89.745 Y136.226 E33.67822
G1 X83.774 Y130.255 E33.95907
G1 X83.305 Y129.73 E33.98249
G1 X82.899 Y129.155 E34.0059
G1 X82.639 Y128.696 E34.02345
G1 X82.446 Y128.319 E34.03753
G1 X82.441 Y128.308 E34.03793
G1 X78.798 Y121.157 E34.30486
G1 X78.514 Y120.513 E34.32827
G1 X78.306 Y119.841 E34.35167
G1 X78.198 Y119.313 E34.36959
G1 X76.876 Y110.97 E34.65055
G1 X76.806 Y110.27 E34.67394
G1 X76.815 Y109.566 E34.69736
G1 X76.876 Y109.03 E34.7153
G1 X78.198 Y100.687 E34.99625
G1 X78.348 Y99.999 E35.01968
G1 X78.574 Y99.332 E35.0431
G1 X78.794 Y98.849 E35.06075
G1 X78.985 Y98.473 E35.07478
G1 X78.989 Y98.466 E35.07505
G1 X82.634 Y91.314 E35.34203
G1 X82.989 Y90.706 E35.36545
G1 X83.41 Y90.142 E35.38886
G1 X83.774 Y89.745 E35.40677
G0 F6000 X84.057 Y90.028
G1 F1200 X90.028 Y84.057 E35.68763
G1 X90.537 Y83.604 E35.71029
G1 X91.095 Y83.215 E35.73292
G1 X91.486 Y82.995 E35.74784
G1 X91.863 Y82.802 E35.76193
G1 X91.873 Y82.797 E35.7623
G1 X99.024 Y79.154 E36.02923
G1 X99.648 Y78.881 E36.05188
G1 X100.299 Y78.683 E36.07451
G1 X100.749 Y78.593 E36.08978
G1 X109.092 Y77.271 E36.37073
G1 X109.77 Y77.205 E36.39338
G1 X110.451 Y77.218 E36.41604
G1 X110.908 Y77.271 E36.43134
G1 X119.251 Y78.593 E36.71229
G1 X119.916 Y78.739 E36.73494
G1 X120.559 Y78.962 E36.75757
G1 X120.976 Y79.154 E36.77284
G1 X128.504 Y82.99 E37.05386
G1 X129.092 Y83.334 E37.07651
G1 X129.635 Y83.745 E37.09916
G1 X129.972 Y84.057 E37.11444
G1 X135.943 Y90.028 E37.3953
G1 X136.396 Y90.537 E37.41796
G1 X136.785 Y91.095 E37.44058
G1 X137.005 Y91.486 E37.45551
G1 X137.198 Y91.863 E37.46959
G1 X137.203 Y91.873 E37.46996
G1 X140.846 Y99.024 E37.73689
G1 X141.119 Y99.648 E37.75955
G1 X141.317 Y100.299 E37.78218
