;FLAVOR:Marlin
;TIME:1741
;Filament used: 0.703655m
;Layer height: 0.16
;MINX:77.7
;MINY:101.335
;MINZ:0.2
;MAXX:143.165
;MAXY:118.665
;MAXZ:15
;Generated with Cura_SteamEngine 4.4.1
M140 S60
M105
M190 S60
M104 S200
M105
M109 S200
M82 ;absolute extrusion mode
M201 X500.00 Y500.00 Z100.00 E5000.00 ;Setup machine max acceleration
M203 X500.00 Y500.00 Z10.00 E50.00 ;Setup machine max feedrate
M204 P500.00 R1000.00 T500.00 ;Setup Print/Retract/Travel acceleration
M205 X8.00 Y8.00 Z0.40 E5.00 ;Setup Jerk
M220 S100 ;Reset Feedrate
M221 S100 ;Reset Flowrate

G28 ;Home
G29 ;Auto bed level

G92 E0 ;Reset Extruder
G1 Z2.0 F3000 ;Move Z Axis up
G1 X10.1 Y20 Z0.28 F5000.0 ;Move to start position
G1 X10.1 Y200.0 Z0.28 F1500.0 E15 ;Draw the first line
G1 X10.4 Y200.0 Z0.28 F5000.0 ;Move to side a little
G1 X10.4 Y20 Z0.28 F1500.0 E30 ;Draw the second line
G92 E0 ;Reset Extruder
G1 Z2.0 F3000 ;Move Z Axis up
G92 E0
G92 E0
G1 F1500 E-6.5
;LAYER_COUNT:95
;LAYER:0
M107
;MESH:USB-Batt-Holder.stl
G0 F6000 X91.554 Y113.188 Z0.2
;TYPE:WALL-INNER
G1 F1500 E0
G1 F1200 X93.446 Y110.587 E0.10698
G1 X91.554 Y107.985 E0.21398
G1 X88.495 Y108.978 E0.32095
G1 X88.495 Y112.195 E0.42795
G1 X91.554 Y113.188 E0.53492
G0 F6000 X91.401 Y112.718
G1 F1200 X92.951 Y110.587 E0.62256
G1 X91.401 Y108.455 E0.71023
G1 X88.895 Y109.269 E0.79787
G1 X88.895 Y111.904 E0.88551
G1 X91.401 Y112.718 E0.97314
G0 F6000 X91.248 Y112.248
;TYPE:WALL-OUTER
G1 F1200 X92.456 Y110.587 E1.04145
G1 X91.248 Y108.925 E1.10979
G1 X89.295 Y109.56 E1.17809
G1 X89.295 Y111.613 E1.24638
G1 X91.248 Y112.248 E1.31468
G1 F1500 E-5.18532
G0 F6000 X91.489 Y112.424
G0 X90.379 Y112.986
G0 X90.921 Y111.241
G0 X126.683 Y111.438
G0 X124.856 Y111.461
G0 X125.52 Y112.15
G0 X128.072 Y113.639
;TYPE:WALL-INNER
G1 F1500 E1.31468
G1 F1200 X129.978 Y111.034 E1.42204
G1 X128.085 Y108.431 E1.52909
G1 X125.026 Y109.423 E1.63605
G1 X125.026 Y112.639 E1.74301
G1 X128.072 Y113.639 E1.84964
G0 F6000 X127.921 Y113.168
G1 F1200 X129.483 Y111.033 E1.93763
G1 X127.932 Y108.901 E2.02532
G1 X125.426 Y109.714 E2.11294
G1 X125.426 Y112.349 E2.20059
G1 X127.921 Y113.168 E2.28793
G0 F6000 X127.77 Y112.697
;TYPE:WALL-OUTER
G1 F1200 X128.988 Y111.032 E2.35654
G1 X127.779 Y109.371 E2.42487
G1 X125.826 Y110.005 E2.49316
G1 X125.826 Y112.059 E2.56148
G1 X127.77 Y112.697 E2.62953
G1 F1500 E-3.87047
G0 F6000 X127.676 Y112.981
G0 X125.594 Y112.227
G0 X124.856 Y111.461
G0 X126.683 Y111.438
G0 X124.832 Y118.665
G0 X124.832 Y116.79
G0 X78.5 Y117
;TYPE:WALL-INNER
G1 F1500 E2.62953
G1 F1200 X78.5 Y103 E3.09517
G1 X141.5 Y103 E5.19056
G1 X141.5 Y117 E5.6562
G1 X78.5 Y117 E7.75159
G0 F6000 X78.1 Y117.4
G1 F1200 X78.1 Y102.6 E8.24384
G1 X141.9 Y102.6 E10.36584
G1 X141.9 Y117.4 E10.85809
G1 X78.1 Y117.4 E12.98008
G0 F6000 X77.7 Y117.8
;TYPE:WALL-OUTER
G1 F1200 X77.7 Y102.2 E13.49894
G1 X142.3 Y102.2 E15.64755
G1 X142.3 Y117.8 E16.16641
G1 X77.7 Y117.8 E18.31501
G0 F6000 X77.97 Y117.53
G0 X78.61 Y116.61
G0 X78.89 Y116.61
;TYPE:SKIN
G1 F1200 X78.89 Y103.39 E18.75471
G1 X141.11 Y103.39 E20.82415
G1 X141.11 Y116.61 E21.26385
G1 X78.89 Y116.61 E23.3333
G1 F1500 E16.8333
G0 F6000 X78.61 Y116.61
G0 X78.674 Y116.797
G0 X88.371 Y116.79
G0 X88.371 Y118.665
G0 X90.249 Y111.014
G0 X89.675 Y112.778
G0 X88.371 Y112.271
G0 X88.105 Y112.478
G1 F1500 E23.3333
G1 F1200 X91.703 Y113.646 E23.45912
G1 X93.928 Y110.587 E23.58493
G1 X91.703 Y107.527 E23.71076
G1 X88.105 Y108.695 E23.83658
G1 X88.105 Y112.478 E23.9624
G1 F1500 E17.4624
G0 F6000 X88.371 Y112.271
G0 X90.379 Y112.986
G0 X90.921 Y111.241
G0 X126.683 Y110.628
G0 X124.836 Y110.587
G0 X124.916 Y112.733
G0 X124.636 Y112.922
G1 F1500 E23.9624
G1 F1200 X128.22 Y114.098 E24.08786
G1 X130.461 Y111.034 E24.21412
G1 X128.234 Y107.973 E24.34002
G1 X124.636 Y109.14 E24.46583
G1 X124.636 Y112.922 E24.59162
G1 F1500 E18.09162
G0 F6000 X124.916 Y112.733
G0 X124.856 Y111.461
G0 X126.683 Y111.438
G0 X130.218 Y101.335
G0 X130.218 Y103.21
G0 X141.318 Y103.182
G0 X141.39 Y103.614
G0 X140.949 Y103.614
G1 F1500 E24.59162
G1 F1200 X140.885 Y103.55 E24.59463
G0 F6000 X140.319 Y103.55
G1 F1200 X140.949 Y104.18 E24.62426
G0 F6000 X140.949 Y104.745
G1 F1200 X139.753 Y103.55 E24.6805
G0 F6000 X139.188 Y103.55
G1 F1200 X140.949 Y105.311 E24.76333
G0 F6000 X140.949 Y105.877
G1 F1200 X138.622 Y103.55 E24.87278
G0 F6000 X138.056 Y103.55
G1 F1200 X140.949 Y106.442 E25.00884
G0 F6000 X140.949 Y107.008
G1 F1200 X137.491 Y103.55 E25.17149
G0 F6000 X136.925 Y103.55
G1 F1200 X140.949 Y107.574 E25.36077
G0 F6000 X140.949 Y108.139
G1 F1200 X136.359 Y103.55 E25.57664
G0 F6000 X135.794 Y103.55
G1 F1200 X140.949 Y108.705 E25.81912
G0 F6000 X140.949 Y109.271
G1 F1200 X135.228 Y103.55 E26.08822
G0 F6000 X134.662 Y103.55
G1 F1200 X140.949 Y109.837 E26.38394
G0 F6000 X140.949 Y110.402
G1 F1200 X134.097 Y103.55 E26.70624
G0 F6000 X133.531 Y103.55
G1 F1200 X140.949 Y110.968 E27.05516
G0 F6000 X140.949 Y111.534
G1 F1200 X132.965 Y103.55 E27.4307
G0 F6000 X132.4 Y103.55
G1 F1200 X140.949 Y112.099 E27.83282
G0 F6000 X140.949 Y112.665
G1 F1200 X131.834 Y103.55 E28.26156
G0 F6000 X131.268 Y103.55
G1 F1200 X140.949 Y113.231 E28.71692
G0 F6000 X140.949 Y113.796
G1 F1200 X130.703 Y103.55 E29.19886
G0 F6000 X130.137 Y103.55
G1 F1200 X140.949 Y114.362 E29.70743
G0 F6000 X140.949 Y114.928
G1 F1200 X129.571 Y103.55 E30.24261
G0 F6000 X129.005 Y103.55
G1 F1200 X140.949 Y115.493 E30.8044
G0 F6000 X140.949 Y116.059
G1 F1200 X128.44 Y103.55 E31.39278
G0 F6000 X127.874 Y103.55
G1 F1200 X140.773 Y116.449 E31.99951
G0 F6000 X140.207 Y116.449
G1 F1200 X127.308 Y103.55 E32.60624
G0 F6000 X126.743 Y103.55
G1 F1200 X139.642 Y116.449 E33.21297
G0 F6000 X139.076 Y116.449
G1 F1200 X126.177 Y103.55 E33.8197
G0 F6000 X125.611 Y103.55
G1 F1200 X138.51 Y116.449 E34.42643
G0 F6000 X137.945 Y116.449
G1 F1200 X125.046 Y103.55 E35.03316
G0 F6000 X124.48 Y103.55
G1 F1200 X137.379 Y116.449 E35.63989
G0 F6000 X136.813 Y116.449
G1 F1200 X128.678 Y108.313 E36.02256
G0 F6000 X128.184 Y107.819
G1 F1200 X123.914 Y103.55 E36.22338
G0 F6000 X123.349 Y103.55
G1 F1200 X127.757 Y107.958 E36.43072
G0 F6000 X127.33 Y108.096
G1 F1200 X122.783 Y103.55 E36.64458
G0 F6000 X122.217 Y103.55
G1 F1200 X126.903 Y108.235 E36.86497
G0 F6000 X126.475 Y108.374
G1 F1200 X121.652 Y103.55 E37.09185
G0 F6000 X121.086 Y103.55
G1 F1200 X126.048 Y108.512 E37.32525
G0 F6000 X125.621 Y108.651
G1 F1200 X120.52 Y103.55 E37.56518
G0 F6000 X119.955 Y103.55
G1 F1200 X125.194 Y108.789 E37.81161
G0 F6000 X124.767 Y108.928
G1 F1200 X119.389 Y103.55 E38.06457
G0 F6000 X118.823 Y103.55
G1 F1200 X124.475 Y109.202 E38.33043
G0 F6000 X124.475 Y109.767
G1 F1200 X118.257 Y103.55 E38.62288
G0 F6000 X117.692 Y103.55
G1 F1200 X124.475 Y110.333 E38.94193
G0 F6000 X124.475 Y110.899
G1 F1200 X117.126 Y103.55 E39.2876
G0 F6000 X116.56 Y103.55
G1 F1200 X124.475 Y111.464 E39.65988
G0 F6000 X124.475 Y112.03
G1 F1200 X115.995 Y103.55 E40.05875
G0 F6000 X115.429 Y103.55
G1 F1200 X124.475 Y112.596 E40.48425
G0 F6000 X125.133 Y113.254
G1 F1200 X128.328 Y116.449 E40.63453
G0 F6000 X128.894 Y116.449
G1 F1200 X125.976 Y113.53 E40.77181
G0 F6000 X126.817 Y113.806
G1 F1200 X129.459 Y116.449 E40.8961
G0 F6000 X130.025 Y116.449
G1 F1200 X127.659 Y114.083 E41.00739
G0 F6000 X128.342 Y114.199
G1 F1200 X130.591 Y116.449 E41.1132
G0 F6000 X131.156 Y116.449
G1 F1200 X128.581 Y113.873 E41.23435
G0 F6000 X128.82 Y113.546
G1 F1200 X131.722 Y116.449 E41.37087
G0 F6000 X132.288 Y116.449
G1 F1200 X129.059 Y113.219 E41.52278
G0 F6000 X129.298 Y112.893
G1 F1200 X132.854 Y116.449 E41.69004
G0 F6000 X133.419 Y116.449
G1 F1200 X129.537 Y112.566 E41.87266
G0 F6000 X129.776 Y112.239
G1 F1200 X133.985 Y116.449 E42.07066
G0 F6000 X134.551 Y116.449
G1 F1200 X130.015 Y111.913 E42.28402
G0 F6000 X130.253 Y111.585
G1 F1200 X135.116 Y116.449 E42.51279
G0 F6000 X135.682 Y116.449
G1 F1200 X130.492 Y111.259 E42.75691
G0 F6000 X130.188 Y110.389
G1 F1200 X136.248 Y116.449 E43.04195
G0 F6000 X136.248 Y116.89
G0 X127.762 Y116.89
G0 X127.762 Y116.449
G1 F1200 X114.863 Y103.55 E43.64868
G0 F6000 X114.298 Y103.55
G1 F1200 X127.197 Y116.449 E44.25541
G0 F6000 X126.631 Y116.449
G1 F1200 X113.732 Y103.55 E44.86214
G0 F6000 X113.166 Y103.55
G1 F1200 X126.065 Y116.449 E45.46887
G0 F6000 X125.5 Y116.449
G1 F1200 X112.601 Y103.55 E46.0756
G0 F6000 X112.035 Y103.55
G1 F1200 X124.934 Y116.449 E46.68233
G0 F6000 X124.368 Y116.449
G1 F1200 X111.469 Y103.55 E47.28906
G0 F6000 X110.904 Y103.55
G1 F1200 X123.803 Y116.449 E47.89579
G0 F6000 X123.237 Y116.449
G1 F1200 X110.338 Y103.55 E48.50252
G0 F6000 X109.772 Y103.55
G1 F1200 X122.671 Y116.449 E49.10925
G0 F6000 X122.106 Y116.449
G1 F1200 X109.206 Y103.55 E49.716
G0 F6000 X108.641 Y103.55
G1 F1200 X121.54 Y116.449 E50.32273
G0 F6000 X120.974 Y116.449
G1 F1200 X108.075 Y103.55 E50.92946
G0 F6000 X107.509 Y103.55
G1 F1200 X120.408 Y116.449 E51.53619
G0 F6000 X119.843 Y116.449
G1 F1200 X106.944 Y103.55 E52.14292
G0 F6000 X106.378 Y103.55
G1 F1200 X119.277 Y116.449 E52.74965
G0 F6000 X118.711 Y116.449
G1 F1200 X105.812 Y103.55 E53.35637
G0 F6000 X105.247 Y103.55
G1 F1200 X118.146 Y116.449 E53.9631
G0 F6000 X117.58 Y116.449
G1 F1200 X104.681 Y103.55 E54.56983
G0 F6000 X104.115 Y103.55
G1 F1200 X117.014 Y116.449 E55.17656
G0 F6000 X116.449 Y116.449
G1 F1200 X103.55 Y103.55 E55.78329
G0 F6000 X102.984 Y103.55
G1 F1200 X115.883 Y116.449 E56.39002
G0 F6000 X115.317 Y116.449
G1 F1200 X102.418 Y103.55 E56.99675
G0 F6000 X101.853 Y103.55
G1 F1200 X114.752 Y116.449 E57.60348
G0 F6000 X114.186 Y116.449
G1 F1200 X101.287 Y103.55 E58.21021
G0 F6000 X100.721 Y103.55
G1 F1200 X113.62 Y116.449 E58.81694
G0 F6000 X113.055 Y116.449
G1 F1200 X100.156 Y103.55 E59.42367
G0 F6000 X99.59 Y103.55
G1 F1200 X112.489 Y116.449 E60.0304
G0 F6000 X111.923 Y116.449
G1 F1200 X99.024 Y103.55 E60.63713
G0 F6000 X98.458 Y103.55
G1 F1200 X111.358 Y116.449 E61.24388
G0 F6000 X110.792 Y116.449
G1 F1200 X97.893 Y103.55 E61.85061
G0 F6000 X97.327 Y103.55
G1 F1200 X110.226 Y116.449 E62.45734
G0 F6000 X109.66 Y116.449
G1 F1200 X96.761 Y103.55 E63.06407
G0 F6000 X96.196 Y103.55
G1 F1200 X109.095 Y116.449 E63.6708
G0 F6000 X108.529 Y116.449
G1 F1200 X95.63 Y103.55 E64.27753
G0 F6000 X95.064 Y103.55
G1 F1200 X107.963 Y116.449 E64.88426
G0 F6000 X107.398 Y116.449
G1 F1200 X94.499 Y103.55 E65.49099
G0 F6000 X93.933 Y103.55
G1 F1200 X106.832 Y116.449 E66.09772
G0 F6000 X106.266 Y116.449
G1 F1200 X93.367 Y103.55 E66.70445
G0 F6000 X92.802 Y103.55
G1 F1200 X105.701 Y116.449 E67.31117
G0 F6000 X105.135 Y116.449
G1 F1200 X92.236 Y103.55 E67.9179
G0 F6000 X91.67 Y103.55
G1 F1200 X104.569 Y116.449 E68.52463
G0 F6000 X104.004 Y116.449
G1 F1200 X91.105 Y103.55 E69.13136
G0 F6000 X90.539 Y103.55
G1 F1200 X103.438 Y116.449 E69.73809
G0 F6000 X102.872 Y116.449
G1 F1200 X89.973 Y103.55 E70.34482
G0 F6000 X89.407 Y103.55
G1 F1200 X102.307 Y116.449 E70.95157
G0 F6000 X101.741 Y116.449
G1 F1200 X88.842 Y103.55 E71.5583
G0 F6000 X88.276 Y103.55
G1 F1200 X101.175 Y116.449 E72.16503
G0 F6000 X100.609 Y116.449
G1 F1200 X92.469 Y108.308 E72.54794
G0 F6000 X92.114 Y108.566
G0 X91.604 Y107.833
G0 X91.563 Y107.403
G1 F1200 X87.71 Y103.55 E72.72917
G0 F6000 X87.145 Y103.55
G1 F1200 X91.136 Y107.541 E72.9169
G0 F6000 X90.709 Y107.68
G1 F1200 X86.579 Y103.55 E73.11116
G0 F6000 X86.013 Y103.55
G1 F1200 X90.282 Y107.818 E73.31194
G0 F6000 X89.855 Y107.957
G1 F1200 X85.448 Y103.55 E73.51923
G0 F6000 X84.882 Y103.55
G1 F1200 X89.428 Y108.096 E73.73306
G0 F6000 X89.001 Y108.234
G1 F1200 X84.316 Y103.55 E73.9534
G0 F6000 X83.751 Y103.55
G1 F1200 X88.574 Y108.373 E74.18026
G0 F6000 X88.147 Y108.511
G1 F1200 X83.185 Y103.55 E74.41363
G0 F6000 X82.619 Y103.55
G1 F1200 X87.944 Y108.875 E74.66411
G0 F6000 X87.944 Y109.441
G1 F1200 X82.054 Y103.55 E74.94118
G0 F6000 X81.488 Y103.55
G1 F1200 X87.944 Y110.006 E75.24485
G0 F6000 X87.944 Y110.572
G1 F1200 X80.922 Y103.55 E75.57514
G0 F6000 X80.357 Y103.55
G1 F1200 X87.944 Y111.138 E75.93203
G0 F6000 X87.944 Y111.703
G1 F1200 X79.791 Y103.55 E76.31553
G0 F6000 X79.225 Y103.55
G1 F1200 X87.944 Y112.269 E76.72564
G0 F6000 X88.425 Y112.749
G1 F1200 X92.124 Y116.449 E76.89965
G0 F6000 X91.559 Y116.449
G1 F1200 X79.049 Y103.939 E77.48809
G0 F6000 X79.049 Y104.505
G1 F1200 X90.993 Y116.449 E78.0499
G0 F6000 X90.427 Y116.449
G1 F1200 X79.049 Y105.071 E78.58508
G0 F6000 X79.049 Y105.636
G1 F1200 X89.861 Y116.449 E79.09367
G0 F6000 X89.296 Y116.449
G1 F1200 X79.049 Y106.202 E79.57566
G0 F6000 X79.049 Y106.768
G1 F1200 X88.73 Y116.449 E80.03102
G0 F6000 X88.164 Y116.449
G1 F1200 X79.049 Y107.333 E80.45979
G0 F6000 X79.049 Y107.899
G1 F1200 X87.599 Y116.449 E80.86195
G0 F6000 X87.033 Y116.449
G1 F1200 X79.049 Y108.465 E81.23749
G0 F6000 X79.049 Y109.03
G1 F1200 X86.467 Y116.449 E81.58644
G0 F6000 X85.902 Y116.449
G1 F1200 X79.049 Y109.596 E81.90878
G0 F6000 X79.049 Y110.162
G1 F1200 X85.336 Y116.449 E82.2045
G0 F6000 X84.77 Y116.449
G1 F1200 X79.049 Y110.727 E82.47362
G0 F6000 X79.049 Y111.293
G1 F1200 X84.205 Y116.449 E82.71615
G0 F6000 X83.639 Y116.449
G1 F1200 X79.049 Y111.859 E82.93205
G0 F6000 X79.049 Y112.425
G1 F1200 X83.073 Y116.449 E83.12132
G0 F6000 X82.508 Y116.449
G1 F1200 X79.049 Y112.99 E83.28402
G0 F6000 X79.049 Y113.556
G1 F1200 X81.942 Y116.449 E83.4201
G0 F6000 X81.376 Y116.449
G1 F1200 X79.049 Y114.122 E83.52956
G0 F6000 X79.049 Y114.687
G1 F1200 X80.81 Y116.449 E83.61241
G0 F6000 X80.245 Y116.449
G1 F1200 X79.049 Y115.253 E83.66867
G0 F6000 X79.049 Y115.819
G1 F1200 X79.679 Y116.449 E83.6983
G0 F6000 X79.113 Y116.449
G1 F1200 X79.049 Y116.384 E83.70134
G1 F1500 E77.20134
G0 F6000 X78.61 Y116.384
G0 X78.682 Y116.818
G0 X89.397 Y116.79
G0 X89.397 Y118.665
G0 X90.921 Y111.241
G0 X90.596 Y113.098
G0 X89.397 Y112.605
G0 X89.262 Y113.021
G1 F1500 E83.70134
G1 F1200 X92.69 Y116.449 E83.86258
G0 F6000 X93.256 Y116.449
G1 F1200 X90.099 Y113.292 E84.01107
G0 F6000 X90.937 Y113.564
G1 F1200 X93.821 Y116.449 E84.14675
G0 F6000 X94.387 Y116.449
G1 F1200 X91.766 Y113.828 E84.27004
G0 F6000 X92.005 Y113.501
G1 F1200 X94.953 Y116.449 E84.4087
G0 F6000 X95.518 Y116.449
G1 F1200 X92.242 Y113.173 E84.56279
G0 F6000 X92.481 Y112.845
G1 F1200 X96.084 Y116.449 E84.73229
G0 F6000 X96.65 Y116.449
G1 F1200 X92.719 Y112.518 E84.91719
G0 F6000 X92.957 Y112.19
G1 F1200 X97.215 Y116.449 E85.1175
G0 F6000 X97.781 Y116.449
G1 F1200 X93.195 Y111.863 E85.33321
G0 F6000 X93.434 Y111.536
G1 F1200 X98.347 Y116.449 E85.5643
G0 F6000 X98.912 Y116.449
G1 F1200 X93.672 Y111.208 E85.8108
G0 F6000 X93.91 Y110.88
G1 F1200 X99.478 Y116.449 E86.07273
G0 F6000 X100.044 Y116.449
G1 F1200 X93.978 Y110.382 E86.35808
G0 F6000 X93.162 Y110.656
;MESH:NONMESH
G0 F300 X93.162 Y110.656 Z0.4
G0 F6000 X91.554 Y113.188
;TIME_ELAPSED:156.459461
;LAYER:1
M140 S60
M106 S85
;TYPE:WALL-INNER
;MESH:USB-Batt-Holder.stl
G1 F1350 X93.446 Y110.587 E86.46505
G1 X91.554 Y107.985 E86.57205
G1 X88.495 Y108.978 E86.67902
G1 X88.495 Y112.195 E86.78602
G1 X91.554 Y113.188 E86.89299
G0 F7500 X91.401 Y112.718
G1 F1350 X92.951 Y110.587 E86.98063
G1 X91.401 Y108.455 E87.0683
G1 X88.895 Y109.269 E87.15594
G1 X88.895 Y111.904 E87.24358
G1 X91.401 Y112.718 E87.33122
G0 F7500 X91.248 Y112.248
;TYPE:WALL-OUTER
G1 F1350 X92.456 Y110.587 E87.39953
G1 X91.248 Y108.925 E87.46787
G1 X89.295 Y109.56 E87.53617
G1 X89.295 Y111.613 E87.60445
G1 X91.248 Y112.248 E87.67276
G1 F1500 E81.17276
G0 F7500 X91.489 Y112.424
G0 X90.379 Y112.986
G0 X90.921 Y111.241
G0 X126.683 Y111.438
G0 X124.856 Y111.461
G0 X125.52 Y112.15
G0 X128.072 Y113.639
;TYPE:WALL-INNER
G1 F1500 E87.67276
G1 F1350 X129.978 Y111.034 E87.78012
G1 X128.085 Y108.431 E87.88716
G1 X125.026 Y109.423 E87.99412
G1 X125.026 Y112.639 E88.10109
G1 X128.072 Y113.639 E88.20772
G0 F7500 X127.921 Y113.168
G1 F1350 X129.483 Y111.033 E88.2957
G1 X127.932 Y108.901 E88.38339
G1 X125.426 Y109.714 E88.47102
G1 X125.426 Y112.349 E88.55866
G1 X127.921 Y113.168 E88.646
G0 F7500 X127.77 Y112.697
;TYPE:WALL-OUTER
G1 F1350 X128.988 Y111.032 E88.71462
G1 X127.779 Y109.371 E88.78295
G1 X125.826 Y110.005 E88.85124
G1 X125.826 Y112.059 E88.91956
G1 X127.77 Y112.697 E88.98761
G1 F1500 E82.48761
