;FLAVOR:Marlin
;TIME:34520
;Filament used: 23.2065m
;Layer height: 0.16
;MINX:57.347
;MINY:18.2
;MINZ:0.2
;MAXX:161.8
;MAXY:201.8
;MAXZ:24.92
;Generated with Cura_SteamEngine 4.4.1
M140 S60
M105
M190 S60
M104 S200
M105
M109 S200
M82 ;absolute extrusion mode
M201 X500.00 Y500.00 Z100.00 E5000.00 ;Setup machine max acceleration
M203 X500.00 Y500.00 Z10.00 E50.00 ;Setup machine max feedrate
M204 P500.00 R1000.00 T500.00 ;Setup Print/Retract/Travel acceleration
M205 X8.00 Y8.00 Z0.40 E5.00 ;Setup Jerk
M220 S100 ;Reset Feedrate
M221 S100 ;Reset Flowrate

G28 ;Home
G29 ;Auto bed level

G92 E0 ;Reset Extruder
G1 Z2.0 F3000 ;Move Z Axis up
G1 X10.1 Y20 Z0.28 F5000.0 ;Move to start position
G1 X10.1 Y200.0 Z0.28 F1500.0 E15 ;Draw the first line
G1 X10.4 Y200.0 Z0.28 F5000.0 ;Move to side a little
G1 X10.4 Y20 Z0.28 F1500.0 E30 ;Draw the second line
G92 E0 ;Reset Extruder
G1 Z2.0 F3000 ;Move Z Axis up
G92 E0
G92 E0
G1 F1500 E-6.5
;LAYER_COUNT:163
;LAYER:0
M107
;MESH:car-base-simple.stl
G0 F6000 X59 Y201 Z0.2
;TYPE:WALL-INNER
G1 F1500 E0
G1 F1200 X59 Y19 E6.05334
G1 X161 Y19 E9.44588
G1 X161 Y201 E15.49922
G1 X59 Y201 E18.89176
G0 F6000 X58.6 Y201.4
G1 F1200 X58.6 Y18.6 E24.97171
G1 X161.4 Y18.6 E28.39085
G1 X161.4 Y201.4 E34.4708
G1 X58.6 Y201.4 E37.88995
G0 F6000 X58.2 Y201.8
;TYPE:WALL-OUTER
G1 F1200 X58.2 Y18.2 E43.99651
G1 X161.8 Y18.2 E47.44226
G1 X161.8 Y201.8 E53.54882
G1 X58.2 Y201.8 E56.99457
G0 F6000 X58.47 Y201.53
G0 X59.11 Y200.61
G0 X59.39 Y200.61
;TYPE:SKIN
G1 F1200 X59.39 Y19.39 E63.02197
G1 X160.61 Y19.39 E66.38856
G1 X160.61 Y200.61 E72.41596
G1 X59.39 Y200.61 E75.78255
G0 F6000 X60.159 Y200.449
G1 F1200 X59.549 Y199.839 E75.81125
G0 F6000 X59.549 Y199.274
G1 F1200 X60.724 Y200.449 E75.86651
G0 F6000 X61.29 Y200.449
G1 F1200 X59.549 Y198.708 E75.9484
G0 F6000 X59.549 Y198.142
G1 F1200 X61.856 Y200.449 E76.05692
G0 F6000 X62.421 Y200.449
G1 F1200 X59.549 Y197.576 E76.19203
G0 F6000 X59.549 Y197.011
G1 F1200 X62.987 Y200.449 E76.35375
G0 F6000 X63.553 Y200.449
G1 F1200 X59.549 Y196.445 E76.54208
G0 F6000 X59.549 Y195.879
G1 F1200 X64.119 Y200.449 E76.75704
G0 F6000 X64.684 Y200.449
G1 F1200 X59.549 Y195.314 E76.99857
G0 F6000 X59.549 Y194.748
G1 F1200 X65.25 Y200.449 E77.26673
G0 F6000 X65.816 Y200.449
G1 F1200 X59.549 Y194.182 E77.56151
G0 F6000 X59.549 Y193.617
G1 F1200 X66.381 Y200.449 E77.88287
G0 F6000 X66.947 Y200.449
G1 F1200 X59.549 Y193.051 E78.23085
G0 F6000 X59.549 Y192.485
G1 F1200 X67.513 Y200.449 E78.60545
G0 F6000 X68.078 Y200.449
G1 F1200 X59.549 Y191.92 E79.00663
G0 F6000 X59.549 Y191.354
G1 F1200 X68.644 Y200.449 E79.43443
G0 F6000 X69.21 Y200.449
G1 F1200 X59.549 Y190.788 E79.88885
G0 F6000 X59.549 Y190.223
G1 F1200 X69.775 Y200.449 E80.36985
G0 F6000 X70.341 Y200.449
G1 F1200 X59.549 Y189.657 E80.87748
G0 F6000 X59.549 Y189.091
G1 F1200 X70.907 Y200.449 E81.41172
G0 F6000 X71.472 Y200.449
G1 F1200 X59.549 Y188.525 E81.97257
G0 F6000 X59.549 Y187.96
G1 F1200 X72.038 Y200.449 E82.56001
G0 F6000 X72.604 Y200.449
G1 F1200 X59.549 Y187.394 E83.17408
G0 F6000 X59.549 Y186.828
G1 F1200 X73.169 Y200.449 E83.81474
G0 F6000 X73.735 Y200.449
G1 F1200 X59.549 Y186.263 E84.48201
G0 F6000 X59.549 Y185.697
G1 F1200 X74.301 Y200.449 E85.1759
G0 F6000 X74.867 Y200.449
G1 F1200 X59.549 Y185.131 E85.89641
G0 F6000 X59.549 Y184.566
G1 F1200 X75.432 Y200.449 E86.6435
G0 F6000 X75.998 Y200.449
G1 F1200 X59.549 Y184 E87.41721
G0 F6000 X59.549 Y183.434
G1 F1200 X76.564 Y200.449 E88.21754
G0 F6000 X77.129 Y200.449
G1 F1200 X59.549 Y182.869 E89.04445
G0 F6000 X59.549 Y182.303
G1 F1200 X77.695 Y200.449 E89.89798
G0 F6000 X78.261 Y200.449
G1 F1200 X59.549 Y181.737 E90.77814
G0 F6000 X59.549 Y181.172
G1 F1200 X78.826 Y200.449 E91.68487
G0 F6000 X79.392 Y200.449
G1 F1200 X59.549 Y180.606 E92.61822
G0 F6000 X59.549 Y180.04
G1 F1200 X79.958 Y200.449 E93.5782
G0 F6000 X80.523 Y200.449
G1 F1200 X59.549 Y179.475 E94.56475
G0 F6000 X59.549 Y178.909
G1 F1200 X81.089 Y200.449 E95.57793
G0 F6000 X81.655 Y200.449
G1 F1200 X59.549 Y178.343 E96.61773
G0 F6000 X59.549 Y177.777
G1 F1200 X82.22 Y200.449 E97.68412
G0 F6000 X82.786 Y200.449
G1 F1200 X59.549 Y177.212 E98.77712
G0 F6000 X59.549 Y176.646
G1 F1200 X83.352 Y200.449 E99.89674
G0 F6000 X83.918 Y200.449
G1 F1200 X59.549 Y176.08 E101.04299
G0 F6000 X59.549 Y175.515
G1 F1200 X84.483 Y200.449 E102.2158
G0 F6000 X85.049 Y200.449
G1 F1200 X59.549 Y174.949 E103.41525
G0 F6000 X59.549 Y174.383
G1 F1200 X85.615 Y200.449 E104.64131
G0 F6000 X86.18 Y200.449
G1 F1200 X59.549 Y173.818 E105.89395
G0 F6000 X59.549 Y173.252
G1 F1200 X86.746 Y200.449 E107.17321
G0 F6000 X87.312 Y200.449
G1 F1200 X59.549 Y172.686 E108.4791
G0 F6000 X59.549 Y172.121
G1 F1200 X87.877 Y200.449 E109.81156
G0 F6000 X88.443 Y200.449
G1 F1200 X59.549 Y171.555 E111.17065
G0 F6000 X59.549 Y170.989
G1 F1200 X89.009 Y200.449 E112.55636
G0 F6000 X89.574 Y200.449
G1 F1200 X59.549 Y170.424 E113.96864
G0 F6000 X59.549 Y169.858
G1 F1200 X90.14 Y200.449 E115.40755
G0 F6000 X90.706 Y200.449
G1 F1200 X59.549 Y169.292 E116.87308
G0 F6000 X59.549 Y168.726
G1 F1200 X91.271 Y200.449 E118.36521
G0 F6000 X91.837 Y200.449
G1 F1200 X59.549 Y168.161 E119.88394
G0 F6000 X59.549 Y167.595
G1 F1200 X92.403 Y200.449 E121.42929
G0 F6000 X92.968 Y200.449
G1 F1200 X59.549 Y167.029 E123.00124
G0 F6000 X59.549 Y166.464
G1 F1200 X93.534 Y200.449 E124.59979
G0 F6000 X94.1 Y200.449
G1 F1200 X59.549 Y165.898 E126.22496
G0 F6000 X59.549 Y165.332
G1 F1200 X94.666 Y200.449 E127.87676
G0 F6000 X95.231 Y200.449
G1 F1200 X59.549 Y164.767 E129.55513
G0 F6000 X59.549 Y164.201
G1 F1200 X95.797 Y200.449 E131.26012
G0 F6000 X96.363 Y200.449
G1 F1200 X59.549 Y163.635 E132.99174
G0 F6000 X59.549 Y163.07
G1 F1200 X96.928 Y200.449 E134.74993
G0 F6000 X97.494 Y200.449
G1 F1200 X59.549 Y162.504 E136.53475
G0 F6000 X59.549 Y161.938
G1 F1200 X98.06 Y200.449 E138.34619
G0 F6000 X98.625 Y200.449
G1 F1200 X59.549 Y161.373 E140.18421
G0 F6000 X59.549 Y160.807
G1 F1200 X99.191 Y200.449 E142.04884
G0 F6000 X99.757 Y200.449
G1 F1200 X59.549 Y160.241 E143.9401
G0 F6000 X59.549 Y159.676
G1 F1200 X100.322 Y200.449 E145.85794
G0 F6000 X100.888 Y200.449
G1 F1200 X59.549 Y159.11 E147.8024
G0 F6000 X59.549 Y158.544
G1 F1200 X101.454 Y200.449 E149.77348
G0 F6000 X102.019 Y200.449
G1 F1200 X59.549 Y157.978 E151.77117
G0 F6000 X59.549 Y157.413
G1 F1200 X102.585 Y200.449 E153.79545
G0 F6000 X103.151 Y200.449
G1 F1200 X59.549 Y156.847 E155.84635
G0 F6000 X59.549 Y156.281
G1 F1200 X103.717 Y200.449 E157.92388
G0 F6000 X104.282 Y200.449
G1 F1200 X59.549 Y155.716 E160.02798
G0 F6000 X59.549 Y155.15
G1 F1200 X104.848 Y200.449 E162.15871
G0 F6000 X105.414 Y200.449
G1 F1200 X59.549 Y154.584 E164.31606
G0 F6000 X59.549 Y154.019
G1 F1200 X105.979 Y200.449 E166.49998
G0 F6000 X106.545 Y200.449
G1 F1200 X59.549 Y153.453 E168.71053
G0 F6000 X59.549 Y152.887
G1 F1200 X107.111 Y200.449 E170.9477
G0 F6000 X107.676 Y200.449
G1 F1200 X59.549 Y152.322 E173.21145
G0 F6000 X59.549 Y151.756
G1 F1200 X108.242 Y200.449 E175.50182
G0 F6000 X108.808 Y200.449
G1 F1200 X59.549 Y151.19 E177.81881
G0 F6000 X59.549 Y150.625
G1 F1200 X109.373 Y200.449 E180.16238
G0 F6000 X109.939 Y200.449
G1 F1200 X59.549 Y150.059 E182.53257
G0 F6000 X59.549 Y149.493
G1 F1200 X110.505 Y200.449 E184.92938
G0 F6000 X111.07 Y200.449
G1 F1200 X59.549 Y148.928 E187.35277
G0 F6000 X59.549 Y148.362
G1 F1200 X111.636 Y200.449 E189.80279
G0 F6000 X112.202 Y200.449
G1 F1200 X59.549 Y147.796 E192.27942
G0 F6000 X59.549 Y147.23
G1 F1200 X112.767 Y200.449 E194.78266
G0 F6000 X113.333 Y200.449
G1 F1200 X59.549 Y146.665 E197.31249
G0 F6000 X59.549 Y146.099
G1 F1200 X113.899 Y200.449 E199.86895
G0 F6000 X114.465 Y200.449
G1 F1200 X59.549 Y145.533 E202.45203
G0 F6000 X59.549 Y144.968
G1 F1200 X115.03 Y200.449 E205.06168
G0 F6000 X115.596 Y200.449
G1 F1200 X59.549 Y144.402 E207.69796
G0 F6000 X59.549 Y143.836
G1 F1200 X116.162 Y200.449 E210.36087
G0 F6000 X116.727 Y200.449
G1 F1200 X59.549 Y143.271 E213.05034
G0 F6000 X59.549 Y142.705
G1 F1200 X117.293 Y200.449 E215.76644
G0 F6000 X117.859 Y200.449
G1 F1200 X59.549 Y142.139 E218.50917
G0 F6000 X59.549 Y141.574
G1 F1200 X118.424 Y200.449 E221.27847
G0 F6000 X118.99 Y200.449
G1 F1200 X59.549 Y141.008 E224.07439
G0 F6000 X59.549 Y140.442
G1 F1200 X119.556 Y200.449 E226.89693
G0 F6000 X120.121 Y200.449
G1 F1200 X59.549 Y139.877 E229.74606
G0 F6000 X59.549 Y139.311
G1 F1200 X120.687 Y200.449 E232.6218
G0 F6000 X121.253 Y200.449
G1 F1200 X59.549 Y138.745 E235.52417
G0 F6000 X59.549 Y138.179
G1 F1200 X121.818 Y200.449 E238.45313
G0 F6000 X122.384 Y200.449
G1 F1200 X59.549 Y137.614 E241.4087
G0 F6000 X59.549 Y137.048
G1 F1200 X122.95 Y200.449 E244.39089
G0 F6000 X123.515 Y200.449
G1 F1200 X59.549 Y136.482 E247.39968
G0 F6000 X59.549 Y135.917
G1 F1200 X124.081 Y200.449 E250.43506
G0 F6000 X124.647 Y200.449
G1 F1200 X59.549 Y135.351 E253.49707
G0 F6000 X59.549 Y134.785
G1 F1200 X125.213 Y200.449 E256.58571
G0 F6000 X125.778 Y200.449
G1 F1200 X59.549 Y134.22 E259.70092
G0 F6000 X59.549 Y133.654
G1 F1200 X126.344 Y200.449 E262.84275
G0 F6000 X126.91 Y200.449
G1 F1200 X59.549 Y133.088 E266.0112
G0 F6000 X59.549 Y132.523
G1 F1200 X127.475 Y200.449 E269.20623
G0 F6000 X128.041 Y200.449
G1 F1200 X59.549 Y131.957 E272.42789
G0 F6000 X59.549 Y131.391
G1 F1200 X128.607 Y200.449 E275.67616
G0 F6000 X129.172 Y200.449
G1 F1200 X59.549 Y130.826 E278.95102
G0 F6000 X59.549 Y130.26
G1 F1200 X129.738 Y200.449 E282.25249
G0 F6000 X130.304 Y200.449
G1 F1200 X59.549 Y129.694 E285.58059
G0 F6000 X59.549 Y129.129
G1 F1200 X130.869 Y200.449 E288.93526
G0 F6000 X131.435 Y200.449
G1 F1200 X59.549 Y128.563 E292.31656
G0 F6000 X59.549 Y127.997
G1 F1200 X132.001 Y200.449 E295.72448
G0 F6000 X132.566 Y200.449
G1 F1200 X59.549 Y127.431 E299.159
G0 F6000 X59.549 Y126.866
G1 F1200 X133.132 Y200.449 E302.62012
G0 F6000 X133.698 Y200.449
G1 F1200 X59.549 Y126.3 E306.10786
G0 F6000 X59.549 Y125.734
G1 F1200 X134.264 Y200.449 E309.62223
G0 F6000 X134.829 Y200.449
G1 F1200 X59.549 Y125.169 E313.16317
G0 F6000 X59.549 Y124.603
G1 F1200 X135.395 Y200.449 E316.73073
G0 F6000 X135.961 Y200.449
G1 F1200 X59.549 Y124.037 E320.32492
G0 F6000 X59.549 Y123.472
G1 F1200 X136.526 Y200.449 E323.94568
G0 F6000 X137.092 Y200.449
G1 F1200 X59.549 Y122.906 E327.59306
G0 F6000 X59.549 Y122.34
G1 F1200 X137.658 Y200.449 E331.26707
G0 F6000 X138.223 Y200.449
G1 F1200 X59.549 Y121.775 E334.96765
G0 F6000 X59.549 Y121.209
G1 F1200 X138.789 Y200.449 E338.69486
G0 F6000 X139.355 Y200.449
G1 F1200 X59.549 Y120.643 E342.44869
G0 F6000 X59.549 Y120.078
G1 F1200 X139.92 Y200.449 E346.2291
G0 F6000 X140.486 Y200.449
G1 F1200 X59.549 Y119.512 E350.03612
G0 F6000 X59.549 Y118.946
G1 F1200 X141.052 Y200.449 E353.86978
G0 F6000 X141.617 Y200.449
G1 F1200 X59.549 Y118.38 E357.73003
G0 F6000 X59.549 Y117.815
G1 F1200 X142.183 Y200.449 E361.61688
G0 F6000 X142.749 Y200.449
G1 F1200 X59.549 Y117.249 E365.53035
G0 F6000 X59.549 Y116.683
G1 F1200 X143.314 Y200.449 E369.47042
G0 F6000 X143.88 Y200.449
G1 F1200 X59.549 Y116.118 E373.43709
G0 F6000 X59.549 Y115.552
G1 F1200 X144.446 Y200.449 E377.43039
G0 F6000 X145.012 Y200.449
G1 F1200 X59.549 Y114.986 E381.4503
G0 F6000 X59.549 Y114.421
G1 F1200 X145.577 Y200.449 E385.4968
G0 F6000 X146.143 Y200.449
G1 F1200 X59.549 Y113.855 E389.56991
G0 F6000 X59.549 Y113.289
G1 F1200 X146.709 Y200.449 E393.66965
G0 F6000 X147.274 Y200.449
G1 F1200 X59.549 Y112.724 E397.79597
G0 F6000 X59.549 Y112.158
G1 F1200 X147.84 Y200.449 E401.94891
G0 F6000 X148.406 Y200.449
G1 F1200 X59.549 Y111.592 E406.12847
G0 F6000 X59.549 Y111.027
G1 F1200 X148.971 Y200.449 E410.3346
G0 F6000 X149.537 Y200.449
G1 F1200 X59.549 Y110.461 E414.56736
G0 F6000 X59.549 Y109.895
G1 F1200 X150.103 Y200.449 E418.82675
G0 F6000 X150.668 Y200.449
G1 F1200 X59.549 Y109.33 E423.1127
G0 F6000 X59.549 Y108.764
G1 F1200 X151.234 Y200.449 E427.42529
G0 F6000 X151.8 Y200.449
G1 F1200 X59.549 Y108.198 E431.76449
G0 F6000 X59.549 Y107.632
G1 F1200 X152.365 Y200.449 E436.13029
G0 F6000 X152.931 Y200.449
G1 F1200 X59.549 Y107.067 E440.5227
G0 F6000 X59.549 Y106.501
G1 F1200 X153.497 Y200.449 E444.94172
G0 F6000 X154.063 Y200.449
G1 F1200 X59.549 Y105.935 E449.38737
G0 F6000 X59.549 Y105.37
G1 F1200 X154.628 Y200.449 E453.8596
G0 F6000 X155.194 Y200.449
G1 F1200 X59.549 Y104.804 E458.35844
G0 F6000 X59.549 Y104.238
G1 F1200 X155.76 Y200.449 E462.88391
G0 F6000 X156.325 Y200.449
G1 F1200 X59.549 Y103.673 E467.43596
G0 F6000 X59.549 Y103.107
G1 F1200 X156.891 Y200.449 E472.01463
G0 F6000 X157.457 Y200.449
G1 F1200 X59.549 Y102.541 E476.61992
G0 F6000 X59.549 Y101.976
G1 F1200 X158.022 Y200.449 E481.25179
G0 F6000 X158.588 Y200.449
G1 F1200 X59.549 Y101.41 E485.91028
G0 F6000 X59.549 Y100.844
G1 F1200 X159.154 Y200.449 E490.59539
G0 F6000 X159.719 Y200.449
G1 F1200 X59.549 Y100.279 E495.30708
G0 F6000 X59.549 Y99.713
G1 F1200 X160.285 Y200.449 E500.0454
G0 F6000 X160.449 Y200.047
G1 F1200 X59.549 Y99.147 E504.79142
G0 F6000 X59.549 Y98.581
G1 F1200 X160.449 Y199.481 E509.53745
G0 F6000 X160.449 Y198.916
G1 F1200 X59.549 Y98.016 E514.28348
G0 F6000 X59.549 Y97.45
G1 F1200 X160.449 Y198.35 E519.0295
G0 F6000 X160.449 Y197.784
G1 F1200 X59.549 Y96.884 E523.77553
G0 F6000 X59.549 Y96.319
G1 F1200 X160.449 Y197.219 E528.52156
G0 F6000 X160.449 Y196.653
G1 F1200 X59.549 Y95.753 E533.26758
G0 F6000 X59.549 Y95.187
G1 F1200 X160.449 Y196.087 E538.01361
G0 F6000 X160.449 Y195.522
G1 F1200 X59.549 Y94.622 E542.75964
G0 F6000 X59.549 Y94.056
G1 F1200 X160.449 Y194.956 E547.50566
G0 F6000 X160.449 Y194.39
G1 F1200 X59.549 Y93.49 E552.25169
G0 F6000 X59.549 Y92.925
G1 F1200 X160.449 Y193.825 E556.99772
G0 F6000 X160.449 Y193.259
G1 F1200 X59.549 Y92.359 E561.74374
G0 F6000 X59.549 Y91.793
G1 F1200 X160.449 Y192.693 E566.48977
G0 F6000 X160.449 Y192.127
G1 F1200 X59.549 Y91.228 E571.23577
G0 F6000 X59.549 Y90.662
G1 F1200 X160.449 Y191.562 E575.9818
G0 F6000 X160.449 Y190.996
G1 F1200 X59.549 Y90.096 E580.72783
G0 F6000 X59.549 Y89.531
G1 F1200 X160.449 Y190.43 E585.47383
G0 F6000 X160.449 Y189.865
G1 F1200 X59.549 Y88.965 E590.21986
G0 F6000 X59.549 Y88.399
G1 F1200 X160.449 Y189.299 E594.96588
G0 F6000 X160.449 Y188.733
G1 F1200 X59.549 Y87.833 E599.71191
G0 F6000 X59.549 Y87.268
G1 F1200 X160.449 Y188.168 E604.45794
G0 F6000 X160.449 Y187.602
G1 F1200 X59.549 Y86.702 E609.20396
G0 F6000 X59.549 Y86.136
G1 F1200 X160.449 Y187.036 E613.94999
G0 F6000 X160.449 Y186.471
G1 F1200 X59.549 Y85.571 E618.69602
G0 F6000 X59.549 Y85.005
G1 F1200 X160.449 Y185.905 E623.44204
G0 F6000 X160.449 Y185.339
G1 F1200 X59.549 Y84.439 E628.18807
G0 F6000 X59.549 Y83.874
G1 F1200 X160.449 Y184.774 E632.9341
G0 F6000 X160.449 Y184.208
G1 F1200 X59.549 Y83.308 E637.68012
G0 F6000 X59.549 Y82.742
G1 F1200 X160.449 Y183.642 E642.42615
G0 F6000 X160.449 Y183.077
G1 F1200 X59.549 Y82.177 E647.17218
G0 F6000 X59.549 Y81.611
G1 F1200 X160.449 Y182.511 E651.9182
G0 F6000 X160.449 Y181.945
G1 F1200 X59.549 Y81.045 E656.66423
G0 F6000 X59.549 Y80.48
G1 F1200 X160.449 Y181.379 E661.41023
G0 F6000 X160.449 Y180.814
G1 F1200 X59.549 Y79.914 E666.15626
G0 F6000 X59.549 Y79.348
G1 F1200 X160.449 Y180.248 E670.90229
G0 F6000 X160.449 Y179.682
G1 F1200 X59.549 Y78.783 E675.64829
G0 F6000 X59.549 Y78.217
G1 F1200 X160.449 Y179.117 E680.39432
G0 F6000 X160.449 Y178.551
G1 F1200 X59.549 Y77.651 E685.14034
G0 F6000 X59.549 Y77.085
G1 F1200 X160.449 Y177.985 E689.88637
G0 F6000 X160.449 Y177.42
G1 F1200 X59.549 Y76.52 E694.6324
G0 F6000 X59.549 Y75.954
G1 F1200 X160.449 Y176.854 E699.37842
G0 F6000 X160.449 Y176.288
G1 F1200 X59.549 Y75.388 E704.12445
G0 F6000 X59.549 Y74.823
G1 F1200 X160.449 Y175.723 E708.87048
G0 F6000 X160.449 Y175.157
G1 F1200 X59.549 Y74.257 E713.6165
G0 F6000 X59.549 Y73.691
G1 F1200 X160.449 Y174.591 E718.36253
G0 F6000 X160.449 Y174.026
G1 F1200 X59.549 Y73.126 E723.10856
G0 F6000 X59.549 Y72.56
G1 F1200 X160.449 Y173.46 E727.85458
G0 F6000 X160.449 Y172.894
G1 F1200 X59.549 Y71.994 E732.60061
G0 F6000 X59.549 Y71.429
G1 F1200 X160.449 Y172.328 E737.34661
G0 F6000 X160.449 Y171.763
