;FLAVOR:Marlin
;TIME:38610
;Filament used: 26.328m
;Layer height: 0.16
;MINX:47.347
;MINY:18.2
;MINZ:0.2
;MAXX:171.8
;MAXY:201.8
;MAXZ:24.92
;Generated with Cura_SteamEngine 4.4.1
M140 S60
M105
M190 S60
M104 S200
M105
M109 S200
M82 ;absolute extrusion mode
M201 X500.00 Y500.00 Z100.00 E5000.00 ;Setup machine max acceleration
M203 X500.00 Y500.00 Z10.00 E50.00 ;Setup machine max feedrate
M204 P500.00 R1000.00 T500.00 ;Setup Print/Retract/Travel acceleration
M205 X8.00 Y8.00 Z0.40 E5.00 ;Setup Jerk
M220 S100 ;Reset Feedrate
M221 S100 ;Reset Flowrate

G28 ;Home
G29 ;Auto bed level

G92 E0 ;Reset Extruder
G1 Z2.0 F3000 ;Move Z Axis up
G1 X10.1 Y20 Z0.28 F5000.0 ;Move to start position
G1 X10.1 Y200.0 Z0.28 F1500.0 E15 ;Draw the first line
G1 X10.4 Y200.0 Z0.28 F5000.0 ;Move to side a little
G1 X10.4 Y20 Z0.28 F1500.0 E30 ;Draw the second line
G92 E0 ;Reset Extruder
G1 Z2.0 F3000 ;Move Z Axis up
G92 E0
G92 E0
G1 F1500 E-6.5
;LAYER_COUNT:163
;LAYER:0
M107
;MESH:car-base-simple-v2.stl
G0 F6000 X49 Y201 Z0.2
;TYPE:WALL-INNER
G1 F1500 E0
G1 F1200 X49 Y19 E6.05334
G1 X171 Y19 E10.11108
G1 X171 Y201 E16.16443
G1 X49 Y201 E20.22216
G0 F6000 X48.6 Y201.4
G1 F1200 X48.6 Y18.6 E26.30211
G1 X171.4 Y18.6 E30.38646
G1 X171.4 Y201.4 E36.46641
G1 X48.6 Y201.4 E40.55076
G0 F6000 X48.2 Y201.8
;TYPE:WALL-OUTER
G1 F1200 X48.2 Y18.2 E46.65732
G1 X171.8 Y18.2 E50.76827
G1 X171.8 Y201.8 E56.87483
G1 X48.2 Y201.8 E60.98578
G0 F6000 X48.47 Y201.53
G0 X49.11 Y200.61
G0 X49.39 Y200.61
;TYPE:SKIN
G1 F1200 X49.39 Y19.39 E67.01319
G1 X170.61 Y19.39 E71.04498
G1 X170.61 Y200.61 E77.07238
G1 X49.39 Y200.61 E81.10417
G0 F6000 X49.976 Y200.449
G1 F1200 X49.549 Y200.022 E81.12426
G0 F6000 X49.549 Y199.456
G1 F1200 X50.542 Y200.449 E81.17097
G0 F6000 X51.108 Y200.449
G1 F1200 X49.549 Y198.89 E81.2443
G0 F6000 X49.549 Y198.325
G1 F1200 X51.673 Y200.449 E81.3442
G0 F6000 X52.239 Y200.449
G1 F1200 X49.549 Y197.759 E81.47073
G0 F6000 X49.549 Y197.193
G1 F1200 X52.805 Y200.449 E81.62389
G0 F6000 X53.371 Y200.449
G1 F1200 X49.549 Y196.628 E81.80364
G0 F6000 X49.549 Y196.062
G1 F1200 X53.936 Y200.449 E82.00999
G0 F6000 X54.502 Y200.449
G1 F1200 X49.549 Y195.496 E82.24296
G0 F6000 X49.549 Y194.93
G1 F1200 X55.068 Y200.449 E82.50256
G0 F6000 X55.633 Y200.449
G1 F1200 X49.549 Y194.365 E82.78873
G0 F6000 X49.549 Y193.799
G1 F1200 X56.199 Y200.449 E83.10153
G0 F6000 X56.765 Y200.449
G1 F1200 X49.549 Y193.233 E83.44095
G0 F6000 X49.549 Y192.668
G1 F1200 X57.33 Y200.449 E83.80694
G0 F6000 X57.896 Y200.449
G1 F1200 X49.549 Y192.102 E84.19956
G0 F6000 X49.549 Y191.536
G1 F1200 X58.462 Y200.449 E84.6188
G0 F6000 X59.027 Y200.449
G1 F1200 X49.549 Y190.971 E85.06461
G0 F6000 X49.549 Y190.405
G1 F1200 X59.593 Y200.449 E85.53705
G0 F6000 X60.159 Y200.449
G1 F1200 X49.549 Y189.839 E86.03611
G0 F6000 X49.549 Y189.274
G1 F1200 X60.724 Y200.449 E86.56175
G0 F6000 X61.29 Y200.449
G1 F1200 X49.549 Y188.708 E87.11401
G0 F6000 X49.549 Y188.142
G1 F1200 X61.856 Y200.449 E87.6929
G0 F6000 X62.421 Y200.449
G1 F1200 X49.549 Y187.577 E88.29836
G0 F6000 X49.549 Y187.011
G1 F1200 X62.987 Y200.449 E88.93044
G0 F6000 X63.553 Y200.449
G1 F1200 X49.549 Y186.445 E89.58914
G0 F6000 X49.549 Y185.879
G1 F1200 X64.119 Y200.449 E90.27447
G0 F6000 X64.684 Y200.449
G1 F1200 X49.549 Y185.314 E90.98638
G0 F6000 X49.549 Y184.748
G1 F1200 X65.25 Y200.449 E91.7249
G0 F6000 X65.816 Y200.449
G1 F1200 X49.549 Y184.182 E92.49005
G0 F6000 X49.549 Y183.617
G1 F1200 X66.381 Y200.449 E93.28178
G0 F6000 X66.947 Y200.449
G1 F1200 X49.549 Y183.051 E94.10013
G0 F6000 X49.549 Y182.485
G1 F1200 X67.513 Y200.449 E94.9451
G0 F6000 X68.078 Y200.449
G1 F1200 X49.549 Y181.92 E95.81665
G0 F6000 X49.549 Y181.354
G1 F1200 X68.644 Y200.449 E96.71482
G0 F6000 X69.21 Y200.449
G1 F1200 X49.549 Y180.788 E97.63961
G0 F6000 X49.549 Y180.223
G1 F1200 X69.775 Y200.449 E98.59098
G0 F6000 X70.341 Y200.449
G1 F1200 X49.549 Y179.657 E99.56897
G0 F6000 X49.549 Y179.091
G1 F1200 X70.907 Y200.449 E100.57358
G0 F6000 X71.472 Y200.449
G1 F1200 X49.549 Y178.526 E101.60477
G0 F6000 X49.549 Y177.96
G1 F1200 X72.038 Y200.449 E102.66259
G0 F6000 X72.604 Y200.449
G1 F1200 X49.549 Y177.394 E103.74703
G0 F6000 X49.549 Y176.829
G1 F1200 X73.169 Y200.449 E104.85804
G0 F6000 X73.735 Y200.449
G1 F1200 X49.549 Y176.263 E105.99567
G0 F6000 X49.549 Y175.697
G1 F1200 X74.301 Y200.449 E107.15993
G0 F6000 X74.867 Y200.449
G1 F1200 X49.549 Y175.131 E108.35081
G0 F6000 X49.549 Y174.566
G1 F1200 X75.432 Y200.449 E109.56827
G0 F6000 X75.998 Y200.449
G1 F1200 X49.549 Y174 E110.81235
G0 F6000 X49.549 Y173.434
G1 F1200 X76.564 Y200.449 E112.08305
G0 F6000 X77.129 Y200.449
G1 F1200 X49.549 Y172.869 E113.38033
G0 F6000 X49.549 Y172.303
G1 F1200 X77.695 Y200.449 E114.70423
G0 F6000 X78.261 Y200.449
G1 F1200 X49.549 Y171.737 E116.05476
G0 F6000 X49.549 Y171.172
G1 F1200 X78.826 Y200.449 E117.43186
G0 F6000 X79.392 Y200.449
G1 F1200 X49.549 Y170.606 E118.83558
G0 F6000 X49.549 Y170.04
G1 F1200 X79.958 Y200.449 E120.26593
G0 F6000 X80.523 Y200.449
G1 F1200 X49.549 Y169.475 E121.72285
G0 F6000 X49.549 Y168.909
G1 F1200 X81.089 Y200.449 E123.20639
G0 F6000 X81.655 Y200.449
G1 F1200 X49.549 Y168.343 E124.71656
G0 F6000 X49.549 Y167.778
G1 F1200 X82.22 Y200.449 E126.2533
G0 F6000 X82.786 Y200.449
G1 F1200 X49.549 Y167.212 E127.81667
G0 F6000 X49.549 Y166.646
G1 F1200 X83.352 Y200.449 E129.40666
G0 F6000 X83.918 Y200.449
G1 F1200 X49.549 Y166.08 E131.02327
G0 F6000 X49.549 Y165.515
G1 F1200 X84.483 Y200.449 E132.66646
G0 F6000 X85.049 Y200.449
G1 F1200 X49.549 Y164.949 E134.33627
G0 F6000 X49.549 Y164.383
G1 F1200 X85.615 Y200.449 E136.03271
G0 F6000 X86.18 Y200.449
G1 F1200 X49.549 Y163.818 E137.75572
G0 F6000 X49.549 Y163.252
G1 F1200 X86.746 Y200.449 E139.50535
G0 F6000 X87.312 Y200.449
G1 F1200 X49.549 Y162.686 E141.2816
G0 F6000 X49.549 Y162.121
G1 F1200 X87.877 Y200.449 E143.08444
G0 F6000 X88.443 Y200.449
G1 F1200 X49.549 Y161.555 E144.91389
G0 F6000 X49.549 Y160.989
G1 F1200 X89.009 Y200.449 E146.76997
G0 F6000 X89.574 Y200.449
G1 F1200 X49.549 Y160.424 E148.65262
G0 F6000 X49.549 Y159.858
G1 F1200 X90.14 Y200.449 E150.5619
G0 F6000 X90.706 Y200.449
G1 F1200 X49.549 Y159.292 E152.4978
G0 F6000 X49.549 Y158.727
G1 F1200 X91.271 Y200.449 E154.46027
G0 F6000 X91.837 Y200.449
G1 F1200 X49.549 Y158.161 E156.44937
G0 F6000 X49.549 Y157.595
G1 F1200 X92.403 Y200.449 E158.46509
G0 F6000 X92.968 Y200.449
G1 F1200 X49.549 Y157.03 E160.50739
G0 F6000 X49.549 Y156.464
G1 F1200 X93.534 Y200.449 E162.57631
G0 F6000 X94.1 Y200.449
G1 F1200 X49.549 Y155.898 E164.67185
G0 F6000 X49.549 Y155.332
G1 F1200 X94.666 Y200.449 E166.79401
G0 F6000 X95.231 Y200.449
G1 F1200 X49.549 Y154.767 E168.94276
G0 F6000 X49.549 Y154.201
G1 F1200 X95.797 Y200.449 E171.11812
G0 F6000 X96.363 Y200.449
G1 F1200 X49.549 Y153.635 E173.32011
G0 F6000 X49.549 Y153.07
G1 F1200 X96.928 Y200.449 E175.54867
G0 F6000 X97.494 Y200.449
G1 F1200 X49.549 Y152.504 E177.80386
G0 F6000 X49.549 Y151.938
G1 F1200 X98.06 Y200.449 E180.08566
G0 F6000 X98.625 Y200.449
G1 F1200 X49.549 Y151.373 E182.39405
G0 F6000 X49.549 Y150.807
G1 F1200 X99.191 Y200.449 E184.72906
G0 F6000 X99.757 Y200.449
G1 F1200 X49.549 Y150.241 E187.09069
G0 F6000 X49.549 Y149.676
G1 F1200 X100.322 Y200.449 E189.47889
G0 F6000 X100.888 Y200.449
G1 F1200 X49.549 Y149.11 E191.89372
G0 F6000 X49.549 Y148.544
G1 F1200 X101.454 Y200.449 E194.33517
G0 F6000 X102.019 Y200.449
G1 F1200 X49.549 Y147.979 E196.8032
G0 F6000 X49.549 Y147.413
G1 F1200 X102.585 Y200.449 E199.29785
G0 F6000 X103.151 Y200.449
G1 F1200 X49.549 Y146.847 E201.81913
G0 F6000 X49.549 Y146.282
G1 F1200 X103.717 Y200.449 E204.367
G0 F6000 X104.282 Y200.449
G1 F1200 X49.549 Y145.716 E206.94147
G0 F6000 X49.549 Y145.15
G1 F1200 X104.848 Y200.449 E209.54257
G0 F6000 X105.414 Y200.449
G1 F1200 X49.549 Y144.584 E212.17029
G0 F6000 X49.549 Y144.019
G1 F1200 X105.979 Y200.449 E214.82458
G0 F6000 X106.545 Y200.449
G1 F1200 X49.549 Y143.453 E217.5055
G0 F6000 X49.549 Y142.887
G1 F1200 X107.111 Y200.449 E220.21304
G0 F6000 X107.676 Y200.449
G1 F1200 X49.549 Y142.322 E222.94715
G0 F6000 X49.549 Y141.756
G1 F1200 X108.242 Y200.449 E225.70789
G0 F6000 X108.808 Y200.449
G1 F1200 X49.549 Y141.19 E228.49525
G0 F6000 X49.549 Y140.625
G1 F1200 X109.373 Y200.449 E231.30919
G0 F6000 X109.939 Y200.449
G1 F1200 X49.549 Y140.059 E234.14975
G0 F6000 X49.549 Y139.493
G1 F1200 X110.505 Y200.449 E237.01694
G0 F6000 X111.07 Y200.449
G1 F1200 X49.549 Y138.928 E239.91069
G0 F6000 X49.549 Y138.362
G1 F1200 X111.636 Y200.449 E242.83108
G0 F6000 X112.202 Y200.449
G1 F1200 X49.549 Y137.796 E245.77808
G0 F6000 X49.549 Y137.231
G1 F1200 X112.767 Y200.449 E248.75166
G0 F6000 X113.333 Y200.449
G1 F1200 X49.549 Y136.665 E251.75187
G0 F6000 X49.549 Y136.099
G1 F1200 X113.899 Y200.449 E254.77869
G0 F6000 X114.465 Y200.449
G1 F1200 X49.549 Y135.533 E257.83214
G0 F6000 X49.549 Y134.968
G1 F1200 X115.03 Y200.449 E260.91217
G0 F6000 X115.596 Y200.449
G1 F1200 X49.549 Y134.402 E264.01882
G0 F6000 X49.549 Y133.836
G1 F1200 X116.162 Y200.449 E267.15209
G0 F6000 X116.727 Y200.449
G1 F1200 X49.549 Y133.271 E270.31193
G0 F6000 X49.549 Y132.705
G1 F1200 X117.293 Y200.449 E273.4984
G0 F6000 X117.859 Y200.449
G1 F1200 X49.549 Y132.139 E276.7115
G0 F6000 X49.549 Y131.574
G1 F1200 X118.424 Y200.449 E279.95117
G0 F6000 X118.99 Y200.449
G1 F1200 X49.549 Y131.008 E283.21746
G0 F6000 X49.549 Y130.442
G1 F1200 X119.556 Y200.449 E286.51037
G0 F6000 X120.121 Y200.449
G1 F1200 X49.549 Y129.877 E289.82986
G0 F6000 X49.549 Y129.311
G1 F1200 X120.687 Y200.449 E293.17598
G0 F6000 X121.253 Y200.449
G1 F1200 X49.549 Y128.745 E296.54871
G0 F6000 X49.549 Y128.18
G1 F1200 X121.818 Y200.449 E299.94803
G0 F6000 X122.384 Y200.449
G1 F1200 X49.549 Y127.614 E303.37396
G0 F6000 X49.549 Y127.048
G1 F1200 X122.95 Y200.449 E306.82652
G0 F6000 X123.515 Y200.449
G1 F1200 X49.549 Y126.483 E310.30565
G0 F6000 X49.549 Y125.917
G1 F1200 X124.081 Y200.449 E313.81141
G0 F6000 X124.647 Y200.449
G1 F1200 X49.549 Y125.351 E317.34379
G0 F6000 X49.549 Y124.785
G1 F1200 X125.213 Y200.449 E320.90279
G0 F6000 X125.778 Y200.449
G1 F1200 X49.549 Y124.22 E324.48837
G0 F6000 X49.549 Y123.654
G1 F1200 X126.344 Y200.449 E328.10057
G0 F6000 X126.91 Y200.449
G1 F1200 X49.549 Y123.088 E331.7394
G0 F6000 X49.549 Y122.523
G1 F1200 X127.475 Y200.449 E335.4048
G0 F6000 X128.041 Y200.449
G1 F1200 X49.549 Y121.957 E339.09682
G0 F6000 X49.549 Y121.391
G1 F1200 X128.607 Y200.449 E342.81546
G0 F6000 X129.172 Y200.449
G1 F1200 X49.549 Y120.826 E346.56069
G0 F6000 X49.549 Y120.26
G1 F1200 X129.738 Y200.449 E350.33253
G0 F6000 X130.304 Y200.449
G1 F1200 X49.549 Y119.694 E354.131
G0 F6000 X49.549 Y119.129
G1 F1200 X130.869 Y200.449 E357.95604
G0 F6000 X131.435 Y200.449
G1 F1200 X49.549 Y118.563 E361.80771
G0 F6000 X49.549 Y117.997
G1 F1200 X132.001 Y200.449 E365.686
G0 F6000 X132.566 Y200.449
G1 F1200 X49.549 Y117.432 E369.59086
G0 F6000 X49.549 Y116.866
G1 F1200 X133.132 Y200.449 E373.52235
G0 F6000 X133.698 Y200.449
G1 F1200 X49.549 Y116.3 E377.48046
G0 F6000 X49.549 Y115.734
G1 F1200 X134.264 Y200.449 E381.4652
G0 F6000 X134.829 Y200.449
G1 F1200 X49.549 Y115.169 E385.47651
G0 F6000 X49.549 Y114.603
G1 F1200 X135.395 Y200.449 E389.51444
G0 F6000 X135.961 Y200.449
G1 F1200 X49.549 Y114.037 E393.57899
G0 F6000 X49.549 Y113.472
G1 F1200 X136.526 Y200.449 E397.67013
G0 F6000 X137.092 Y200.449
G1 F1200 X49.549 Y112.906 E401.78788
G0 F6000 X49.549 Y112.34
G1 F1200 X137.658 Y200.449 E405.93226
G0 F6000 X138.223 Y200.449
G1 F1200 X49.549 Y111.775 E410.10321
G0 F6000 X49.549 Y111.209
G1 F1200 X138.789 Y200.449 E414.30079
G0 F6000 X139.355 Y200.449
G1 F1200 X49.549 Y110.643 E418.52498
G0 F6000 X49.549 Y110.078
G1 F1200 X139.92 Y200.449 E422.77576
G0 F6000 X140.486 Y200.449
G1 F1200 X49.549 Y109.512 E427.05316
G0 F6000 X49.549 Y108.946
G1 F1200 X141.052 Y200.449 E431.35718
G0 F6000 X141.617 Y200.449
G1 F1200 X49.549 Y108.381 E435.68777
G0 F6000 X49.549 Y107.815
G1 F1200 X142.183 Y200.449 E440.04499
G0 F6000 X142.749 Y200.449
G1 F1200 X49.549 Y107.249 E444.42884
G0 F6000 X49.549 Y106.684
G1 F1200 X143.314 Y200.449 E448.83925
G0 F6000 X143.88 Y200.449
G1 F1200 X49.549 Y106.118 E453.27629
G0 F6000 X49.549 Y105.552
G1 F1200 X144.446 Y200.449 E457.73996
G0 F6000 X145.012 Y200.449
G1 F1200 X49.549 Y104.986 E462.23025
G0 F6000 X49.549 Y104.421
G1 F1200 X145.577 Y200.449 E466.74711
G0 F6000 X146.143 Y200.449
G1 F1200 X49.549 Y103.855 E471.29059
G0 F6000 X49.549 Y103.289
G1 F1200 X146.709 Y200.449 E475.8607
G0 F6000 X147.274 Y200.449
G1 F1200 X49.549 Y102.724 E480.45739
G0 F6000 X49.549 Y102.158
G1 F1200 X147.84 Y200.449 E485.08069
G0 F6000 X148.406 Y200.449
G1 F1200 X49.549 Y101.592 E489.73062
G0 F6000 X49.549 Y101.027
G1 F1200 X148.971 Y200.449 E494.40713
G0 F6000 X149.537 Y200.449
G1 F1200 X49.549 Y100.461 E499.11026
G0 F6000 X49.549 Y99.895
G1 F1200 X150.103 Y200.449 E503.84001
G0 F6000 X150.668 Y200.449
G1 F1200 X49.549 Y99.33 E508.59634
G0 F6000 X49.549 Y98.764
G1 F1200 X151.234 Y200.449 E513.37929
G0 F6000 X151.8 Y200.449
G1 F1200 X49.549 Y98.198 E518.18886
G0 F6000 X49.549 Y97.633
G1 F1200 X152.365 Y200.449 E523.02501
G0 F6000 X152.931 Y200.449
G1 F1200 X49.549 Y97.067 E527.88778
G0 F6000 X49.549 Y96.501
G1 F1200 X153.497 Y200.449 E532.77718
G0 F6000 X154.063 Y200.449
G1 F1200 X49.549 Y95.936 E537.69317
G0 F6000 X49.549 Y95.37
G1 F1200 X154.628 Y200.449 E542.63577
G0 F6000 X155.194 Y200.449
G1 F1200 X49.549 Y94.804 E547.60499
G0 F6000 X49.549 Y94.238
G1 F1200 X155.76 Y200.449 E552.60083
G0 F6000 X156.325 Y200.449
G1 F1200 X49.549 Y93.673 E557.62324
G0 F6000 X49.549 Y93.107
G1 F1200 X156.891 Y200.449 E562.67228
G0 F6000 X157.457 Y200.449
G1 F1200 X49.549 Y92.541 E567.74794
G0 F6000 X49.549 Y91.976
G1 F1200 X158.022 Y200.449 E572.85018
G0 F6000 X158.588 Y200.449
G1 F1200 X49.549 Y91.41 E577.97904
G0 F6000 X49.549 Y90.844
G1 F1200 X159.154 Y200.449 E583.13452
G0 F6000 X159.719 Y200.449
G1 F1200 X49.549 Y90.279 E588.31658
G0 F6000 X49.549 Y89.713
G1 F1200 X160.285 Y200.449 E593.52526
G0 F6000 X160.851 Y200.449
G1 F1200 X49.549 Y89.147 E598.76057
G0 F6000 X49.549 Y88.582
G1 F1200 X161.416 Y200.449 E604.02245
G0 F6000 X161.982 Y200.449
G1 F1200 X49.549 Y88.016 E609.31095
G0 F6000 X49.549 Y87.45
G1 F1200 X162.548 Y200.449 E614.62608
G0 F6000 X163.113 Y200.449
G1 F1200 X49.549 Y86.885 E619.96778
G0 F6000 X49.549 Y86.319
G1 F1200 X163.679 Y200.449 E625.33611
G0 F6000 X164.245 Y200.449
G1 F1200 X49.549 Y85.753 E630.73105
G0 F6000 X49.549 Y85.187
G1 F1200 X164.811 Y200.449 E636.15263
G0 F6000 X165.376 Y200.449
G1 F1200 X49.549 Y84.622 E641.60077
G0 F6000 X49.549 Y84.056
G1 F1200 X165.942 Y200.449 E647.07554
G0 F6000 X166.508 Y200.449
G1 F1200 X49.549 Y83.49 E652.57694
G0 F6000 X49.549 Y82.925
G1 F1200 X167.073 Y200.449 E658.1049
G0 F6000 X167.639 Y200.449
G1 F1200 X49.549 Y82.359 E663.6595
G0 F6000 X49.549 Y81.793
G1 F1200 X168.205 Y200.449 E669.24071
G0 F6000 X168.77 Y200.449
G1 F1200 X49.549 Y81.228 E674.8485
G0 F6000 X49.549 Y80.662
G1 F1200 X169.336 Y200.449 E680.48291
G0 F6000 X169.902 Y200.449
G1 F1200 X49.549 Y80.096 E686.14395
G0 F6000 X49.549 Y79.531
G1 F1200 X170.449 Y200.43 E691.83069
G0 F6000 X170.449 Y199.865
G1 F1200 X49.549 Y78.965 E697.51746
G0 F6000 X49.549 Y78.399
G1 F1200 X170.449 Y199.299 E703.20422
G0 F6000 X170.449 Y198.733
G1 F1200 X49.549 Y77.834 E708.89096
G0 F6000 X49.549 Y77.268
G1 F1200 X170.449 Y198.168 E714.57773
G0 F6000 X170.449 Y197.602
G1 F1200 X49.549 Y76.702 E720.26449
G0 F6000 X49.549 Y76.137
G1 F1200 X170.449 Y197.036 E725.95124
G0 F6000 X170.449 Y196.471
G1 F1200 X49.549 Y75.571 E731.638
G0 F6000 X49.549 Y75.005
G1 F1200 X170.449 Y195.905 E737.32477
G0 F6000 X170.449 Y195.339
G1 F1200 X49.549 Y74.439 E743.01153
G0 F6000 X49.549 Y73.874
G1 F1200 X170.449 Y194.773 E748.69827
G0 F6000 X170.449 Y194.208
G1 F1200 X49.549 Y73.308 E754.38504
G0 F6000 X49.549 Y72.742
G1 F1200 X170.449 Y193.642 E760.0718
G0 F6000 X170.449 Y193.076
G1 F1200 X49.549 Y72.177 E765.75855
G0 F6000 X49.549 Y71.611
G1 F1200 X170.449 Y192.511 E771.44531
G0 F6000 X170.449 Y191.945
