;FLAVOR:Marlin
;TIME:38332
;Filament used: 28.7215m
;Layer height: 0.16
;MINX:27.7
;MINY:17.581
;MINZ:0.2
;MAXX:192.797
;MAXY:203.165
;MAXZ:8
;Generated with Cura_SteamEngine 4.4.1
M140 S60
M105
M190 S60
M104 S200
M105
M109 S200
M82 ;absolute extrusion mode
M201 X500.00 Y500.00 Z100.00 E5000.00 ;Setup machine max acceleration
M203 X500.00 Y500.00 Z10.00 E50.00 ;Setup machine max feedrate
M204 P500.00 R1000.00 T500.00 ;Setup Print/Retract/Travel acceleration
M205 X8.00 Y8.00 Z0.40 E5.00 ;Setup Jerk
M220 S100 ;Reset Feedrate
M221 S100 ;Reset Flowrate

G28 ;Home
G29 ;Auto bed level

G92 E0 ;Reset Extruder
G1 Z2.0 F3000 ;Move Z Axis up
G1 X10.1 Y20 Z0.28 F5000.0 ;Move to start position
G1 X10.1 Y200.0 Z0.28 F1500.0 E15 ;Draw the first line
G1 X10.4 Y200.0 Z0.28 F5000.0 ;Move to side a little
G1 X10.4 Y20 Z0.28 F1500.0 E30 ;Draw the second line
G92 E0 ;Reset Extruder
G1 Z2.0 F3000 ;Move Z Axis up
G92 E0
G92 E0
G1 F1500 E-6.5
;LAYER_COUNT:41
;LAYER:0
M107
;MESH:car-upper-deck-v1.stl
G0 F6000 X70.876 Y32.584 Z0.2
;TYPE:WALL-INNER
G1 F1500 E0
G1 F1200 X72.752 Y29.97 E0.10701
G1 X70.666 Y27.332 E0.21887
G1 X67.709 Y28.525 E0.32492
G1 X67.847 Y31.672 E0.4297
G1 X70.876 Y32.584 E0.53491
G0 F6000 X70.718 Y32.119
G1 F1200 X72.251 Y29.982 E0.62238
G1 X70.538 Y27.815 E0.71426
G1 X68.121 Y28.79 E0.80094
G1 X68.234 Y31.371 E0.88687
G1 X70.718 Y32.119 E0.97315
G0 F6000 X70.56 Y31.654
;TYPE:WALL-OUTER
G1 F1200 X71.75 Y29.994 E1.04108
G1 X70.41 Y28.298 E1.11297
G1 X68.533 Y29.055 E1.18029
G1 X68.621 Y31.07 E1.24737
G1 X70.56 Y31.654 E1.31472
G1 F1500 E-5.18528
G0 F6000 X70.474 Y31.94
G0 X71.691 Y31.741
G0 X70.221 Y30.657
G0 X149.415 Y29.624
G0 X147.589 Y29.683
G0 X148.396 Y31.245
G0 X150.876 Y32.584
;TYPE:WALL-INNER
G1 F1500 E1.31472
G1 F1200 X152.752 Y29.97 E1.42174
G1 X150.666 Y27.332 E1.5336
G1 X147.709 Y28.525 E1.63965
G1 X147.847 Y31.672 E1.74442
G1 X150.876 Y32.584 E1.84963
G0 F6000 X150.718 Y32.119
G1 F1200 X152.251 Y29.982 E1.93711
G1 X150.538 Y27.815 E2.02898
G1 X148.121 Y28.79 E2.11566
G1 X148.234 Y31.371 E2.20159
G1 X150.718 Y32.119 E2.28787
G0 F6000 X150.56 Y31.654
;TYPE:WALL-OUTER
G1 F1200 X151.75 Y29.994 E2.35581
G1 X150.41 Y28.298 E2.4277
G1 X148.533 Y29.055 E2.49501
G1 X148.621 Y31.07 E2.5621
G1 X150.56 Y31.654 E2.62945
G1 F1500 E-3.87055
G0 F6000 X150.474 Y31.94
G0 X151.691 Y31.741
G0 X150.221 Y30.657
G0 X139.448 Y110.422
G0 X137.623 Y110.514
G0 X138.311 Y111.162
G0 X140.862 Y112.591
;TYPE:WALL-INNER
G1 F1500 E2.62945
G1 F1200 X142.752 Y109.975 E2.73679
G1 X140.68 Y107.338 E2.84833
G1 X137.719 Y108.51 E2.95425
G1 X137.836 Y111.659 E3.05906
G1 X140.862 Y112.591 E3.16437
G0 F6000 X140.706 Y112.124
G1 F1200 X142.251 Y109.985 E3.25213
G1 X140.55 Y107.82 E3.34371
G1 X138.129 Y108.778 E3.4303
G1 X138.225 Y111.36 E3.51624
G1 X140.706 Y112.124 E3.60258
G0 F6000 X140.55 Y111.657
;TYPE:WALL-OUTER
G1 F1200 X141.75 Y109.995 E3.67076
G1 X140.42 Y108.302 E3.74237
G1 X138.539 Y109.046 E3.80965
G1 X138.614 Y111.061 E3.87671
G1 X140.55 Y111.657 E3.94409
G1 F1500 E-2.55591
G0 F6000 X140.461 Y111.942
G0 X138.388 Y111.234
G0 X137.557 Y109.792
G0 X139.43 Y109.723
G0 X80.153 Y109.918
G0 X81.582 Y111.056
G0 X80.708 Y111.903
;TYPE:WALL-INNER
G1 F1500 E3.94409
G1 F1200 X82.75 Y109.272 E4.05486
G1 X80.849 Y106.656 E4.16242
G1 X77.823 Y107.608 E4.26792
G1 X77.734 Y110.77 E4.37313
G1 X80.708 Y111.903 E4.47898
G0 F6000 X80.574 Y111.424
G1 F1200 X82.25 Y109.264 E4.56992
G1 X80.695 Y107.124 E4.6579
G1 X78.215 Y107.904 E4.74437
G1 X78.142 Y110.497 E4.83065
G1 X80.574 Y111.424 E4.91721
G0 F6000 X80.44 Y110.945
;TYPE:WALL-OUTER
G1 F1200 X81.75 Y109.256 E4.9883
G1 X80.541 Y107.592 E5.05672
G1 X78.607 Y108.2 E5.12414
G1 X78.55 Y110.224 E5.19149
G1 X80.44 Y110.945 E5.25877
G1 F1500 E-1.24123
G0 F6000 X80.677 Y111.129
G0 X80.517 Y111.223
G0 X78.313 Y110.382
G0 X78.38 Y108.028
G0 X78.876 Y107.099
G0 X79.446 Y108.834
G0 X70.147 Y189.335
G0 X71.572 Y188.19
G0 X72.752 Y189.978
;TYPE:WALL-INNER
G1 F1500 E5.25877
G1 F1200 X70.694 Y187.343 E5.36997
G1 X67.724 Y188.498 E5.47596
G1 X67.834 Y191.657 E5.5811
G1 X70.852 Y192.595 E5.68621
G1 X72.752 Y189.978 E5.79377
G0 F6000 X72.251 Y189.987
G1 F1200 X70.562 Y187.824 E5.88505
G1 X68.134 Y188.768 E5.97169
G1 X68.224 Y191.359 E6.05792
G1 X70.697 Y192.128 E6.14406
G1 X72.251 Y189.987 E6.23205
G0 F6000 X71.75 Y189.996
;TYPE:WALL-OUTER
G1 F1200 X70.43 Y188.305 E6.3034
G1 X68.544 Y189.038 E6.3707
G1 X68.614 Y191.061 E6.43803
G1 X70.542 Y191.661 E6.50519
G1 X71.75 Y189.996 E6.5736
G1 F1500 E0.0736
G0 F6000 X71.991 Y190.173
G0 X71.675 Y191.751
G0 X70.21 Y190.66
G0 X149.422 Y189.617
G0 X147.594 Y189.658
G0 X147.834 Y191.657
;TYPE:WALL-INNER
G1 F1500 E6.5736
G1 F1200 X150.852 Y192.595 E6.67872
G1 X152.752 Y189.978 E6.78628
G1 X150.694 Y187.343 E6.89748
G1 X147.724 Y188.498 E7.00347
G1 X147.834 Y191.657 E7.10861
G0 F6000 X148.224 Y191.359
G1 F1200 X150.697 Y192.128 E7.19474
G1 X152.251 Y189.987 E7.28273
G1 X150.562 Y187.824 E7.37401
G1 X148.134 Y188.768 E7.46066
G1 X148.224 Y191.359 E7.54688
G0 F6000 X148.614 Y191.061
;TYPE:WALL-OUTER
G1 F1200 X150.542 Y191.661 E7.61404
G1 X151.75 Y189.996 E7.68246
G1 X150.43 Y188.305 E7.75381
G1 X148.544 Y189.038 E7.82111
G1 X148.614 Y191.061 E7.88844
G1 F1500 E1.38844
G0 F6000 X148.315 Y191.069
G0 X147.594 Y189.658
G0 X149.422 Y189.617
G0 X147.644 Y203.165
G0 X147.644 Y201.29
G0 X37.566 Y201.5
;TYPE:WALL-INNER
G1 F1500 E7.88844
G1 F1200 X35.313 Y201.221 E7.96394
G1 X33.167 Y200.369 E8.04074
G1 X33.052 Y200.315 E8.04497
G1 X31.249 Y198.959 E8.12
G1 X31.152 Y198.868 E8.12442
G1 X29.76 Y197.075 E8.19992
G1 X29.706 Y196.99 E8.20327
G1 X28.807 Y194.81 E8.2817
G1 X28.793 Y194.682 E8.28598
G1 X28.5 Y192.431 E8.36148
G1 X28.5 Y27.551 E13.84542
G1 X28.718 Y25.628 E13.90978
G1 X28.742 Y25.462 E13.91536
G1 X29.567 Y23.279 E13.99298
G1 X29.634 Y23.144 E13.99799
G1 X31.002 Y21.289 E14.07465
G1 X31.108 Y21.18 E14.07971
G1 X32.93 Y19.757 E14.1566
G1 X33.041 Y19.692 E14.16088
G1 X35.204 Y18.804 E14.23865
G1 X35.276 Y18.783 E14.24114
G1 X37.547 Y18.5 E14.31726
G1 X182.438 Y18.5 E19.13636
G1 X184.627 Y18.766 E19.2097
G1 X187.004 Y19.717 E19.29485
G1 X188.875 Y21.164 E19.37352
G1 X188.935 Y21.218 E19.3762
G1 X190.397 Y23.195 E19.45799
G1 X191.262 Y25.467 E19.53885
G1 X191.273 Y25.581 E19.54265
G1 X191.5 Y27.553 E19.60868
G1 X191.5 Y192.431 E25.09254
G1 X191.21 Y194.661 E25.16734
G1 X191.177 Y194.852 E25.17378
G1 X190.304 Y196.959 E25.24964
G1 X190.246 Y197.068 E25.25375
G1 X188.831 Y198.883 E25.33029
G1 X188.754 Y198.964 E25.33401
G1 X186.92 Y200.325 E25.40997
G1 X186.813 Y200.392 E25.41417
G1 X184.595 Y201.246 E25.49322
G1 X184.485 Y201.257 E25.49689
G1 X182.44 Y201.5 E25.56539
G1 X37.566 Y201.5 E30.38392
G0 F6000 X37.541 Y201.9
G1 F1200 X35.212 Y201.611 E30.46198
G1 X33.008 Y200.736 E30.54085
G1 X32.847 Y200.661 E30.54675
G1 X30.994 Y199.267 E30.62388
G1 X30.856 Y199.139 E30.63014
G1 X29.432 Y197.305 E30.70737
G1 X29.348 Y197.171 E30.71263
G1 X28.451 Y195.003 E30.79066
G1 X28.43 Y194.94 E30.79287
G1 X28.414 Y194.895 E30.79446
G1 X28.396 Y194.73 E30.79998
G1 X28.1 Y192.46 E30.87612
G1 X28.1 Y27.532 E36.36165
G1 X28.322 Y25.572 E36.42725
G1 X28.352 Y25.361 E36.43434
G1 X29.201 Y23.117 E36.51414
G1 X29.29 Y22.937 E36.52082
G1 X30.698 Y21.027 E36.59974
G1 X30.837 Y20.884 E36.60637
G1 X32.684 Y19.443 E36.68429
G1 X32.706 Y19.425 E36.68524
G1 X32.728 Y19.413 E36.68607
G1 X32.865 Y19.332 E36.69136
G1 X35.07 Y18.427 E36.77064
G1 X35.093 Y18.421 E36.77143
G1 X35.163 Y18.401 E36.77385
G1 X35.198 Y18.39 E36.77507
G1 X37.521 Y18.1 E36.85293
G1 X182.461 Y18.1 E41.67366
G1 X184.729 Y18.375 E41.74964
G1 X187.055 Y19.302 E41.83292
G1 X187.209 Y19.37 E41.83852
G1 X189.134 Y20.859 E41.91947
G1 X189.23 Y20.945 E41.92375
G1 X190.709 Y22.938 E42.0063
G1 X190.758 Y23.018 E42.00942
G1 X191.631 Y25.308 E42.09093
G1 X191.643 Y25.349 E42.09235
G1 X191.656 Y25.389 E42.09375
G1 X191.671 Y25.538 E42.09873
G1 X191.9 Y27.533 E42.16552
G1 X191.9 Y192.46 E47.65102
G1 X191.607 Y194.713 E47.72658
G1 X191.563 Y194.967 E47.73516
G1 X190.668 Y197.127 E47.81292
G1 X190.584 Y197.285 E47.81887
G1 X189.134 Y199.144 E47.89729
G1 X189.02 Y199.264 E47.90279
G1 X187.143 Y200.657 E47.98054
G1 X186.993 Y200.751 E47.98643
G1 X184.803 Y201.599 E48.06454
G1 X184.678 Y201.64 E48.06891
G1 X184.529 Y201.655 E48.07389
G1 X182.462 Y201.9 E48.14312
G1 X37.541 Y201.9 E52.96321
G0 F6000 X37.516 Y202.3
;TYPE:WALL-OUTER
G1 F1200 X35.111 Y202.002 E53.04382
G1 X32.856 Y201.106 E53.12452
G1 X32.64 Y201.006 E53.13244
G1 X30.739 Y199.576 E53.21156
G1 X30.56 Y199.41 E53.21968
G1 X29.103 Y197.533 E53.29871
G1 X28.99 Y197.354 E53.30575
G1 X28.076 Y195.144 E53.38529
G1 X28.021 Y194.982 E53.39098
G1 X27.999 Y194.777 E53.39784
G1 X27.7 Y192.489 E53.47458
G1 X27.7 Y27.514 E58.96168
G1 X27.926 Y25.516 E59.02855
G1 X27.962 Y25.261 E59.03712
G1 X28.833 Y22.959 E59.11898
G1 X28.948 Y22.728 E59.12756
G1 X30.394 Y20.765 E59.20865
G1 X30.567 Y20.588 E59.21689
G1 X32.482 Y19.093 E59.29769
G1 X32.689 Y18.972 E59.30567
G1 X34.936 Y18.05 E59.38645
G1 X35.119 Y17.997 E59.39278
G1 X37.35 Y17.714 E59.46758
G1 X37.507 Y17.7 E59.47283
G1 X182.484 Y17.7 E64.29478
G1 X184.831 Y17.984 E64.37341
G1 X187.209 Y18.933 E64.45857
G1 X187.413 Y19.022 E64.46597
G1 X189.393 Y20.554 E64.54924
G1 X189.525 Y20.672 E64.55513
G1 X191.04 Y22.714 E64.63969
G1 X191.119 Y22.842 E64.6447
G1 X192.01 Y25.18 E64.72792
G1 X192.05 Y25.308 E64.73238
G1 X192.069 Y25.495 E64.73863
G1 X192.3 Y27.514 E64.80622
G1 X192.3 Y192.489 E70.29331
G1 X192.004 Y194.765 E70.36965
G1 X191.949 Y195.082 E70.38035
G1 X191.034 Y197.289 E70.45981
G1 X190.92 Y197.504 E70.4679
G1 X189.437 Y199.405 E70.5481
G1 X189.287 Y199.564 E70.55537
G1 X187.366 Y200.989 E70.63492
G1 X187.171 Y201.111 E70.64257
G1 X184.941 Y201.975 E70.72211
G1 X184.761 Y202.034 E70.72841
G1 X184.573 Y202.053 E70.7347
G1 X182.484 Y202.3 E70.80466
G1 X37.516 Y202.3 E75.62632
G0 F6000 X37.543 Y201.861
G0 X37.59 Y201.11
;TYPE:SKIN
G1 F1200 X35.412 Y200.84 E75.69931
G1 X33.254 Y199.979 E75.77659
G1 X31.504 Y198.663 E75.84942
G1 X31.442 Y198.605 E75.85224
G1 X30.054 Y196.811 E75.92768
G1 X29.189 Y194.714 E76.00313
G1 X29.181 Y194.636 E76.00574
G1 X28.89 Y192.41 E76.0804
G1 X28.89 Y27.577 E81.56277
G1 X29.122 Y25.561 E81.63027
G1 X29.926 Y23.433 E81.70593
G1 X29.967 Y23.35 E81.70901
G1 X31.303 Y21.538 E81.78388
G1 X31.364 Y21.475 E81.7868
G1 X33.148 Y20.082 E81.86208
G1 X33.218 Y20.041 E81.86478
G1 X35.355 Y19.166 E81.94159
G1 X37.572 Y18.89 E82.01589
G1 X182.407 Y18.89 E86.83312
G1 X184.533 Y19.148 E86.90435
G1 X186.811 Y20.06 E86.98597
G1 X188.615 Y21.455 E87.06181
G1 X188.645 Y21.481 E87.06313
G1 X190.051 Y23.383 E87.1418
G1 X190.88 Y25.559 E87.21925
G1 X190.885 Y25.621 E87.22132
G1 X191.11 Y27.58 E87.28691
G1 X191.11 Y192.41 E92.76917
G1 X190.826 Y194.594 E92.84243
G1 X190.801 Y194.738 E92.84729
G1 X189.951 Y196.791 E92.92119
G1 X189.916 Y196.856 E92.92365
G1 X188.535 Y198.628 E92.99837
G1 X188.496 Y198.669 E93.00025
G1 X186.637 Y200.042 E93.07712
G1 X184.504 Y200.863 E93.15313
G1 X184.443 Y200.869 E93.15517
G1 X182.41 Y201.11 E93.22326
G1 X37.59 Y201.11 E98.04
G1 F1500 E91.54
G0 F6000 X37.57 Y201.389
G0 X67.727 Y201.29
G0 X67.727 Y203.165
G0 X70.21 Y190.66
G0 X70.411 Y192.657
G0 X67.727 Y191.753
G0 X67.454 Y191.947
G1 F1500 E98.04
G1 F1200 X71.004 Y193.051 E98.16365
G1 X73.24 Y189.97 E98.29027
G1 X70.823 Y186.875 E98.42088
G1 X67.324 Y188.235 E98.54573
G1 X67.454 Y191.947 E98.66927
G1 F1500 E92.16927
G0 F6000 X67.727 Y191.753
G0 X70.632 Y191.932
G0 X71.675 Y191.751
G0 X70.21 Y190.66
G0 X149.422 Y189.617
G0 X147.594 Y189.658
G0 X147.727 Y191.753
G0 X147.454 Y191.947
G1 F1500 E98.66927
G1 F1200 X151.004 Y193.051 E98.79292
G1 X153.24 Y189.97 E98.91954
G1 X150.823 Y186.875 E99.05015
G1 X147.324 Y188.235 E99.17501
G1 X147.454 Y191.947 E99.29855
G1 F1500 E92.79855
G0 F6000 X147.727 Y191.753
G0 X148.885 Y192.162
G0 X149.45 Y190.423
G0 X139.448 Y110.422
G0 X137.623 Y110.514
G0 X137.729 Y111.757
G0 X137.456 Y111.95
G1 F1500 E99.29855
G1 F1200 X141.014 Y113.046 E99.42237
G1 X143.24 Y109.965 E99.5488
G1 X140.807 Y106.868 E99.67979
G1 X137.319 Y108.249 E99.80456
G1 X137.456 Y111.95 E99.92774
G1 F1500 E93.42774
G0 F6000 X137.729 Y111.757
G0 X137.623 Y110.514
G0 X139.448 Y110.422
G0 X79.446 Y108.834
G0 X78.876 Y107.099
G0 X78.43 Y107.935
G0 X77.61 Y110.841
G0 X77.336 Y111.035
G1 F1500 E99.92774
G1 F1200 X80.839 Y112.371 E100.05244
G1 X83.238 Y109.28 E100.18258
G1 X80.999 Y106.2 E100.30922
G1 X77.441 Y107.319 E100.43328
G1 X77.336 Y111.035 E100.55692
G1 F1500 E94.05692
G0 F6000 X77.61 Y110.841
G0 X78.38 Y108.028
G0 X78.876 Y107.099
G0 X79.446 Y108.834
G0 X70.221 Y30.657
G0 X71.691 Y31.741
G0 X70.912 Y32.723
G0 X71.03 Y33.038
G1 F1500 E100.55692
G1 F1200 X73.24 Y29.958 E100.68301
G1 X70.791 Y26.862 E100.8143
G1 X67.307 Y28.266 E100.93923
G1 X67.469 Y31.966 E101.06241
G1 X71.03 Y33.038 E101.1861
G1 F1500 E94.6861
G0 F6000 X70.912 Y32.723
G0 X71.691 Y31.741
G0 X70.221 Y30.657
G0 X149.415 Y29.624
G0 X147.589 Y29.683
G0 X147.741 Y31.769
G0 X147.469 Y31.966
G1 F1500 E101.1861
G1 F1200 X151.03 Y33.038 E101.30979
G1 X153.24 Y29.958 E101.43588
G1 X150.791 Y26.862 E101.56717
G1 X147.307 Y28.266 E101.69211
G1 X147.469 Y31.966 E101.81529
G1 F1500 E95.31529
G0 F6000 X147.741 Y31.769
G0 X147.589 Y29.683
G0 X149.415 Y29.624
G0 X189.925 Y19.874
G0 X188.777 Y21.358
G0 X189.044 Y21.552
G0 X188.69 Y21.812
G1 F1500 E101.81529
G1 F1200 X188.26 Y21.382 E101.83551
G0 F6000 X188.529 Y21.035
G0 X188.073 Y20.705
G0 X186.53 Y19.647
G0 X186.366 Y20.054
G1 F1200 X189.992 Y23.681 E102.00609
G0 F6000 X190.34 Y24.594
G1 F1200 X185.423 Y19.677 E102.23737
G0 F6000 X185.587 Y19.27
G0 X184.538 Y18.866
G0 X184.484 Y19.304
G1 F1200 X190.689 Y25.508 E102.52921
G0 F6000 X190.786 Y26.172
G1 F1200 X183.84 Y19.226 E102.85593
G0 F6000 X183.196 Y19.147
G1 F1200 X190.86 Y26.811 E103.21642
G0 F6000 X190.932 Y27.449
G1 F1200 X182.553 Y19.069 E103.61057
G0 F6000 X181.967 Y19.05
G1 F1200 X190.949 Y28.032 E104.03305
G0 F6000 X190.949 Y28.598
G1 F1200 X181.401 Y19.05 E104.48216
G0 F6000 X180.836 Y19.05
G1 F1200 X190.949 Y29.163 E104.95785
G0 F6000 X190.949 Y29.729
G1 F1200 X180.27 Y19.05 E105.46016
G0 F6000 X179.704 Y19.05
G1 F1200 X190.949 Y30.295 E105.98909
G0 F6000 X190.949 Y30.86
G1 F1200 X179.139 Y19.05 E106.54459
G0 F6000 X178.573 Y19.05
G1 F1200 X190.949 Y31.426 E107.12672
G0 F6000 X190.949 Y31.992
G1 F1200 X178.007 Y19.05 E107.73547
G0 F6000 X177.442 Y19.05
G1 F1200 X190.949 Y32.558 E108.37082
G0 F6000 X190.949 Y33.123
G1 F1200 X176.876 Y19.05 E109.03278
G0 F6000 X176.31 Y19.05
G1 F1200 X190.949 Y33.689 E109.72135
G0 F6000 X190.949 Y34.255
G1 F1200 X175.745 Y19.05 E110.43652
G0 F6000 X175.179 Y19.05
G1 F1200 X190.949 Y34.82 E111.17829
G0 F6000 X190.949 Y35.386
G1 F1200 X174.613 Y19.05 E111.94669
G0 F6000 X174.047 Y19.05
G1 F1200 X190.949 Y35.952 E112.74171
G0 F6000 X190.949 Y36.517
G1 F1200 X173.482 Y19.05 E113.5633
G0 F6000 X172.916 Y19.05
G1 F1200 X190.949 Y37.083 E114.41152
G0 F6000 X190.949 Y37.649
G1 F1200 X172.35 Y19.05 E115.28636
G0 F6000 X171.785 Y19.05
G1 F1200 X190.949 Y38.214 E116.18777
G0 F6000 X190.949 Y38.78
G1 F1200 X171.219 Y19.05 E117.11581
G0 F6000 X170.653 Y19.05
G1 F1200 X190.949 Y39.346 E118.07048
G0 F6000 X190.949 Y39.911
G1 F1200 X170.088 Y19.05 E119.05171
G0 F6000 X169.522 Y19.05
G1 F1200 X190.949 Y40.477 E120.05957
G0 F6000 X190.949 Y41.043
G1 F1200 X168.956 Y19.05 E121.09406
G0 F6000 X168.391 Y19.05
G1 F1200 X190.949 Y41.608 E122.15512
G0 F6000 X190.949 Y42.174
G1 F1200 X167.825 Y19.05 E123.2428
G0 F6000 X167.259 Y19.05
G1 F1200 X190.949 Y42.74 E124.3571
G0 F6000 X190.949 Y43.306
G1 F1200 X166.694 Y19.05 E125.49801
G0 F6000 X166.128 Y19.05
G1 F1200 X190.949 Y43.871 E126.66551
G0 F6000 X190.949 Y44.437
G1 F1200 X165.562 Y19.05 E127.85964
G0 F6000 X164.997 Y19.05
G1 F1200 X190.949 Y45.003 E129.08036
G0 F6000 X190.949 Y45.568
G1 F1200 X164.431 Y19.05 E130.32769
G0 F6000 X163.865 Y19.05
G1 F1200 X190.949 Y46.134 E131.60164
G0 F6000 X190.949 Y46.7
G1 F1200 X163.299 Y19.05 E132.90221
G0 F6000 X162.734 Y19.05
G1 F1200 X190.949 Y47.265 E134.22936
G0 F6000 X190.949 Y47.831
