;FLAVOR:Marlin
;TIME:4510
;Filament used: 2.9238m
;Layer height: 0.16
;MINX:94.799
;MINY:67.3
;MINZ:0.2
;MAXX:125.2
;MAXY:152.701
;MAXZ:25.92
;Generated with Cura_SteamEngine 4.4.1
M140 S60
M105
M190 S60
M104 S200
M105
M109 S200
M82 ;absolute extrusion mode
M201 X500.00 Y500.00 Z100.00 E5000.00 ;Setup machine max acceleration
M203 X500.00 Y500.00 Z10.00 E50.00 ;Setup machine max feedrate
M204 P500.00 R1000.00 T500.00 ;Setup Print/Retract/Travel acceleration
M205 X8.00 Y8.00 Z0.40 E5.00 ;Setup Jerk
M220 S100 ;Reset Feedrate
M221 S100 ;Reset Flowrate

G28 ;Home
G29 ;Auto bed level

G92 E0 ;Reset Extruder
G1 Z2.0 F3000 ;Move Z Axis up
G1 X10.1 Y20 Z0.28 F5000.0 ;Move to start position
G1 X10.1 Y200.0 Z0.28 F1500.0 E15 ;Draw the first line
G1 X10.4 Y200.0 Z0.28 F5000.0 ;Move to side a little
G1 X10.4 Y20 Z0.28 F1500.0 E30 ;Draw the second line
G92 E0 ;Reset Extruder
G1 Z2.0 F3000 ;Move Z Axis up
G92 E0
G92 E0
G1 F1500 E-6.5
;LAYER_COUNT:135
;LAYER:0
M107
G0 F6000 X96.44 Y70.784 Z0.2
;TYPE:SKIRT
G1 F1500 E0
G1 F1200 X96.934 Y70.168 E0.02626
G1 X97.751 Y69.375 E0.06413
G1 X97.937 Y69.219 E0.07221
G1 X98.567 Y68.743 E0.09847
G1 X99.241 Y68.332 E0.12472
G1 X100.252 Y67.876 E0.16161
G1 X100.48 Y67.792 E0.16969
G1 X101.234 Y67.557 E0.19596
G1 X102.008 Y67.399 E0.22224
G1 X103.171 Y67.311 E0.26103
G1 X117.053 Y67.3 E0.72275
G1 X117.842 Y67.339 E0.74902
G1 X118.622 Y67.458 E0.77526
G1 X119.387 Y67.655 E0.80154
G1 X120.128 Y67.929 E0.82781
G1 X120.837 Y68.276 E0.85407
G1 X121.508 Y68.693 E0.88034
G1 X122.133 Y69.176 E0.90662
G1 X122.574 Y69.585 E0.92662
G1 X122.915 Y69.926 E0.94266
G1 X123.445 Y70.512 E0.96894
G1 X123.912 Y71.148 E0.99518
G1 X124.313 Y71.828 E1.02144
G1 X124.643 Y72.546 E1.04772
G1 X124.898 Y73.293 E1.07398
G1 X125.077 Y74.062 E1.10024
G1 X125.177 Y74.846 E1.12652
G1 X125.2 Y75.441 E1.14633
G1 X125.2 Y108.459 E2.24451
G1 X125.16 Y109.248 E2.27079
G1 X125.043 Y110.015 E2.29659
G1 X125.078 Y110.165 E2.30172
G1 X125.177 Y110.948 E2.32797
G1 X125.2 Y111.541 E2.3477
G1 X125.2 Y144.559 E3.44589
G1 X125.16 Y145.348 E3.47216
G1 X125.041 Y146.128 E3.49841
G1 X124.843 Y146.893 E3.52469
G1 X124.569 Y147.633 E3.55093
G1 X124.221 Y148.342 E3.5772
G1 X123.803 Y149.013 E3.6035
G1 X123.32 Y149.637 E3.62974
G1 X122.932 Y150.058 E3.64878
G1 X122.592 Y150.4 E3.66482
G1 X122.007 Y150.931 E3.6911
G1 X121.372 Y151.401 E3.71738
G1 X120.693 Y151.803 E3.74362
G1 X119.976 Y152.135 E3.7699
G1 X119.23 Y152.393 E3.79616
G1 X118.461 Y152.574 E3.82243
G1 X117.678 Y152.676 E3.8487
G1 X117.06 Y152.701 E3.86927
G1 X103.301 Y152.701 E4.32689
G1 X102.512 Y152.661 E4.35317
G1 X101.951 Y152.583 E4.37201
G1 X101.712 Y152.541 E4.38008
G1 X100.942 Y152.365 E4.40635
G1 X100.194 Y152.113 E4.4326
G1 X99.158 Y151.612 E4.47088
G1 X98.947 Y151.49 E4.47898
G1 X98.284 Y151.06 E4.50527
G1 X97.668 Y150.566 E4.53153
G1 X96.875 Y149.749 E4.5694
G1 X96.719 Y149.563 E4.57747
G1 X96.243 Y148.933 E4.60373
G1 X95.832 Y148.259 E4.62999
G1 X95.376 Y147.248 E4.66688
G1 X95.292 Y147.02 E4.67496
G1 X95.057 Y146.266 E4.70123
G1 X94.899 Y145.492 E4.7275
G1 X94.811 Y144.368 E4.765
G1 X94.799 Y142.296 E4.83392
G1 X94.835 Y141.507 E4.86019
G1 X94.917 Y140.901 E4.88053
G1 X94.959 Y140.662 E4.8886
G1 X95.135 Y139.892 E4.91487
G1 X95.387 Y139.144 E4.94112
G1 X95.888 Y138.108 E4.9794
G1 X96.01 Y137.897 E4.9875
G1 X96.44 Y137.234 E5.01379
G1 X96.934 Y136.618 E5.04005
G1 X97.751 Y135.825 E5.07792
G1 X97.937 Y135.669 E5.08599
G1 X98.567 Y135.193 E5.11225
G1 X99.586 Y134.607 E5.15135
G1 X99.699 Y134.553 E5.15552
G1 X100.428 Y134.249 E5.18179
G1 X101.184 Y134.021 E5.20805
G1 X101.959 Y133.869 E5.23432
G1 X102.878 Y133.793 E5.26499
G1 X104.616 Y133.752 E5.32281
G1 X105.405 Y133.774 E5.34906
G1 X105.8 Y133.825 E5.36231
G1 X105.8 Y86.178 E6.94706
G1 X105.202 Y86.24 E6.96705
G1 X104.805 Y86.25 E6.98026
G1 X103.306 Y86.251 E7.03012
G1 X102.518 Y86.212 E7.05636
G1 X101.951 Y86.133 E7.0754
G1 X101.712 Y86.091 E7.08347
G1 X100.942 Y85.915 E7.10974
G1 X100.194 Y85.663 E7.13599
G1 X99.158 Y85.162 E7.17427
G1 X98.947 Y85.04 E7.18237
G1 X98.284 Y84.61 E7.20866
G1 X97.668 Y84.116 E7.23492
G1 X96.875 Y83.299 E7.27279
G1 X96.719 Y83.113 E7.28086
G1 X96.243 Y82.483 E7.30713
G1 X95.832 Y81.809 E7.33338
G1 X95.376 Y80.798 E7.37027
G1 X95.292 Y80.57 E7.37835
G1 X95.057 Y79.816 E7.40462
G1 X94.899 Y79.042 E7.43089
G1 X94.811 Y77.918 E7.46839
G1 X94.799 Y75.846 E7.53731
G1 X94.835 Y75.057 E7.56358
G1 X94.917 Y74.451 E7.58392
G1 X94.959 Y74.212 E7.59199
G1 X95.135 Y73.442 E7.61826
G1 X95.387 Y72.694 E7.64451
G1 X95.888 Y71.658 E7.68279
G1 X96.01 Y71.447 E7.69089
G1 X96.44 Y70.784 E7.71718
G0 F6000 X96.776 Y71.002
G1 F1200 X97.26 Y70.404 E7.74277
G1 X98.008 Y69.681 E7.77737
G1 X98.194 Y69.525 E7.78544
G1 X98.808 Y69.062 E7.81102
G1 X99.467 Y68.665 E7.83661
G1 X100.391 Y68.251 E7.87028
G1 X100.619 Y68.167 E7.87836
G1 X101.353 Y67.939 E7.90393
G1 X102.108 Y67.789 E7.92953
G1 X103.171 Y67.711 E7.96498
G1 X117.053 Y67.7 E8.4267
G1 X117.821 Y67.739 E8.45227
G1 X118.581 Y67.858 E8.47786
G1 X119.325 Y68.055 E8.50346
G1 X120.044 Y68.329 E8.52905
G1 X120.73 Y68.675 E8.5546
G1 X121.377 Y69.091 E8.58019
G1 X121.978 Y69.571 E8.60577
G1 X122.292 Y69.867 E8.62012
G1 X122.633 Y70.208 E8.63616
G1 X123.147 Y70.78 E8.66174
G1 X123.6 Y71.402 E8.68733
G1 X123.986 Y72.067 E8.71291
G1 X124.301 Y72.769 E8.7385
G1 X124.541 Y73.5 E8.76409
G1 X124.704 Y74.251 E8.78965
G1 X124.788 Y75.016 E8.81524
G1 X124.8 Y75.441 E8.82939
G1 X124.8 Y108.459 E9.92757
G1 X124.76 Y109.227 E9.95315
G1 X124.641 Y109.987 E9.97873
G1 X124.632 Y110.021 E9.9799
G1 X124.704 Y110.354 E9.99123
G1 X124.788 Y111.118 E10.0168
G1 X124.8 Y111.541 E10.03087
G1 X124.8 Y144.559 E11.12906
G1 X124.76 Y145.327 E11.15463
G1 X124.641 Y146.087 E11.18022
G1 X124.443 Y146.83 E11.2058
G1 X124.169 Y147.549 E11.23139
G1 X123.822 Y148.235 E11.25696
G1 X123.406 Y148.882 E11.28254
G1 X122.925 Y149.482 E11.30812
G1 X122.648 Y149.776 E11.32155
G1 X122.308 Y150.118 E11.33759
G1 X121.738 Y150.635 E11.36319
G1 X121.118 Y151.089 E11.38875
G1 X120.453 Y151.477 E11.41435
G1 X119.752 Y151.794 E11.43994
G1 X119.022 Y152.036 E11.46552
G1 X118.271 Y152.201 E11.49109
G1 X117.507 Y152.287 E11.51667
G1 X117.06 Y152.301 E11.53154
G1 X103.301 Y152.301 E11.98917
G1 X102.533 Y152.261 E12.01474
G1 X102.02 Y152.189 E12.03197
G1 X101.781 Y152.147 E12.04005
G1 X101.032 Y151.975 E12.06561
G1 X100.304 Y151.726 E12.0912
G1 X99.358 Y151.265 E12.1262
G1 X99.147 Y151.143 E12.1343
G1 X98.502 Y150.724 E12.15989
G1 X97.904 Y150.24 E12.18547
G1 X97.181 Y149.492 E12.22007
G1 X97.025 Y149.306 E12.22815
G1 X96.562 Y148.692 E12.25373
G1 X96.165 Y148.033 E12.27931
G1 X95.751 Y147.109 E12.31299
G1 X95.667 Y146.881 E12.32107
G1 X95.439 Y146.147 E12.34664
G1 X95.289 Y145.392 E12.37224
G1 X95.211 Y144.366 E12.40646
G1 X95.199 Y142.294 E12.47538
G1 X95.235 Y141.526 E12.50095
G1 X95.311 Y140.97 E12.51961
G1 X95.353 Y140.731 E12.52768
G1 X95.525 Y139.982 E12.55325
G1 X95.774 Y139.254 E12.57884
G1 X96.235 Y138.308 E12.61384
G1 X96.357 Y138.097 E12.62194
G1 X96.776 Y137.452 E12.64753
G1 X97.26 Y136.854 E12.67311
G1 X98.008 Y136.131 E12.70771
G1 X98.194 Y135.975 E12.71579
G1 X98.808 Y135.512 E12.74137
G1 X99.758 Y134.968 E12.77778
G1 X99.871 Y134.914 E12.78194
G1 X100.582 Y134.619 E12.80754
G1 X101.319 Y134.399 E12.83313
G1 X102.075 Y134.257 E12.85871
G1 X102.887 Y134.193 E12.8858
G1 X104.625 Y134.152 E12.94362
G1 X105.394 Y134.174 E12.96921
G1 X106.157 Y134.275 E12.99481
G1 X106.2 Y134.285 E12.99628
G1 X106.2 Y85.708 E14.61196
G1 X105.649 Y85.801 E14.63054
G1 X104.805 Y85.85 E14.65866
G1 X103.306 Y85.851 E14.70852
G1 X102.538 Y85.812 E14.73409
G1 X102.02 Y85.739 E14.75149
G1 X101.781 Y85.697 E14.75956
G1 X101.032 Y85.525 E14.78512
G1 X100.304 Y85.276 E14.81071
G1 X99.358 Y84.815 E14.84572
G1 X99.147 Y84.693 E14.85382
G1 X98.502 Y84.274 E14.8794
G1 X97.904 Y83.79 E14.90499
G1 X97.181 Y83.042 E14.93959
G1 X97.025 Y82.856 E14.94767
G1 X96.562 Y82.242 E14.97324
G1 X96.165 Y81.583 E14.99883
G1 X95.751 Y80.659 E15.03251
G1 X95.667 Y80.431 E15.04059
G1 X95.439 Y79.697 E15.06615
G1 X95.289 Y78.942 E15.09176
G1 X95.211 Y77.916 E15.12598
G1 X95.199 Y75.844 E15.1949
G1 X95.235 Y75.076 E15.22047
G1 X95.311 Y74.52 E15.23913
G1 X95.353 Y74.281 E15.2472
G1 X95.525 Y73.532 E15.27276
G1 X95.774 Y72.804 E15.29835
G1 X96.235 Y71.858 E15.33335
G1 X96.357 Y71.647 E15.34146
G1 X96.776 Y71.002 E15.36704
G0 F6000 X97.112 Y71.22
G1 F1200 X97.585 Y70.641 E15.39191
G1 X98.265 Y69.988 E15.42327
G1 X98.451 Y69.832 E15.43134
G1 X99.049 Y69.382 E15.45623
G1 X99.691 Y68.999 E15.4811
G1 X100.529 Y68.627 E15.51159
G1 X100.757 Y68.543 E15.51967
G1 X101.472 Y68.322 E15.54456
G1 X102.206 Y68.179 E15.56944
G1 X103.171 Y68.111 E15.60161
G1 X117.053 Y68.1 E16.06333
G1 X117.8 Y68.139 E16.08821
G1 X118.539 Y68.258 E16.1131
G1 X119.261 Y68.455 E16.138
G1 X119.957 Y68.728 E16.16286
G1 X120.621 Y69.074 E16.18777
G1 X121.243 Y69.488 E16.21262
G1 X122.009 Y70.15 E16.24629
G1 X122.35 Y70.491 E16.26233
G1 X122.85 Y71.048 E16.28722
G1 X123.287 Y71.654 E16.31207
G1 X123.658 Y72.304 E16.33697
G1 X123.957 Y72.99 E16.36186
G1 X124.181 Y73.704 E16.38675
G1 X124.328 Y74.437 E16.41161
G1 X124.4 Y75.441 E16.44509
G1 X124.4 Y108.459 E17.54327
G1 X124.36 Y109.206 E17.56815
G1 X124.241 Y109.944 E17.59302
G1 X124.223 Y110.011 E17.59532
G1 X124.328 Y110.539 E17.61323
G1 X124.4 Y111.541 E17.64664
G1 X124.4 Y144.559 E18.74483
G1 X124.36 Y145.306 E18.76971
G1 X124.241 Y146.044 E18.79457
G1 X124.043 Y146.766 E18.81947
G1 X123.77 Y147.462 E18.84434
G1 X123.423 Y148.125 E18.86922
G1 X123.008 Y148.748 E18.89412
G1 X122.364 Y149.494 E18.9269
G1 X122.024 Y149.836 E18.94294
G1 X121.469 Y150.338 E18.96783
G1 X120.864 Y150.777 E18.99269
G1 X120.215 Y151.15 E19.01759
G1 X119.53 Y151.451 E19.04248
G1 X118.817 Y151.677 E19.06735
G1 X118.084 Y151.826 E19.09223
G1 X117.06 Y151.901 E19.12638
G1 X103.301 Y151.901 E19.58401
G1 X102.554 Y151.861 E19.60889
G1 X102.089 Y151.795 E19.62451
G1 X101.85 Y151.753 E19.63258
G1 X101.122 Y151.585 E19.65743
G1 X100.415 Y151.339 E19.68233
G1 X99.558 Y150.919 E19.71407
G1 X99.347 Y150.797 E19.72218
G1 X98.72 Y150.388 E19.74708
G1 X98.141 Y149.915 E19.77194
G1 X97.488 Y149.235 E19.8033
G1 X97.332 Y149.049 E19.81137
G1 X96.882 Y148.451 E19.83626
G1 X96.499 Y147.809 E19.86113
G1 X96.127 Y146.971 E19.89162
G1 X96.043 Y146.743 E19.8997
G1 X95.822 Y146.028 E19.9246
G1 X95.679 Y145.294 E19.94947
G1 X95.611 Y144.364 E19.98048
G1 X95.599 Y142.292 E20.0494
G1 X95.635 Y141.544 E20.07431
G1 X95.705 Y141.039 E20.09126
G1 X95.747 Y140.8 E20.09933
G1 X95.915 Y140.072 E20.12418
G1 X96.161 Y139.365 E20.14908
G1 X96.581 Y138.508 E20.18082
G1 X96.703 Y138.297 E20.18893
G1 X97.112 Y137.67 E20.21383
G1 X97.585 Y137.091 E20.2387
G1 X98.265 Y136.438 E20.27005
G1 X98.451 Y136.282 E20.27813
G1 X99.049 Y135.832 E20.30302
G1 X99.931 Y135.329 E20.33679
G1 X100.044 Y135.275 E20.34096
G1 X100.735 Y134.989 E20.36583
G1 X101.453 Y134.778 E20.39072
G1 X102.189 Y134.646 E20.41559
G1 X102.897 Y134.593 E20.4392
G1 X104.635 Y134.552 E20.49703
G1 X105.383 Y134.574 E20.52191
G1 X106.124 Y134.676 E20.54679
G1 X106.6 Y134.795 E20.56311
G1 X106.6 Y85.207 E22.21242
G1 X106.059 Y85.336 E22.23091
G1 X105.317 Y85.431 E22.25579
G1 X104.805 Y85.45 E22.27284
G1 X103.306 Y85.451 E22.32269
G1 X102.559 Y85.412 E22.34757
G1 X102.089 Y85.345 E22.36336
G1 X101.85 Y85.303 E22.37143
G1 X101.122 Y85.135 E22.39628
G1 X100.415 Y84.889 E22.42118
G1 X99.558 Y84.469 E22.45292
G1 X99.347 Y84.347 E22.46103
G1 X98.72 Y83.938 E22.48593
G1 X98.141 Y83.465 E22.5108
G1 X97.488 Y82.785 E22.54215
G1 X97.332 Y82.599 E22.55023
G1 X96.882 Y82.001 E22.57512
G1 X96.499 Y81.359 E22.59998
G1 X96.127 Y80.521 E22.63048
G1 X96.043 Y80.293 E22.63856
G1 X95.822 Y79.578 E22.66345
G1 X95.679 Y78.844 E22.68832
G1 X95.611 Y77.914 E22.71934
G1 X95.599 Y75.842 E22.78825
G1 X95.635 Y75.094 E22.81316
G1 X95.705 Y74.589 E22.83012
G1 X95.747 Y74.35 E22.83819
G1 X95.915 Y73.622 E22.86304
G1 X96.161 Y72.915 E22.88793
G1 X96.581 Y72.058 E22.91968
G1 X96.703 Y71.847 E22.92778
G1 X97.112 Y71.22 E22.95268
G0 F6000 X97.447 Y71.44
G1 F1200 X97.909 Y70.879 E22.97685
G1 X98.522 Y70.294 E23.00504
G1 X98.708 Y70.138 E23.01311
G1 X99.289 Y69.703 E23.03725
G1 X99.915 Y69.334 E23.06142
G1 X100.667 Y69.002 E23.08876
G1 X100.895 Y68.918 E23.09684
G1 X101.59 Y68.705 E23.12102
G1 X102.303 Y68.569 E23.14516
G1 X103.172 Y68.511 E23.17413
G1 X117.054 Y68.5 E23.63585
G1 X117.779 Y68.539 E23.66
G1 X118.496 Y68.658 E23.68417
G1 X119.195 Y68.855 E23.70832
G1 X119.868 Y69.128 E23.73248
G1 X120.507 Y69.473 E23.75663
G1 X121.105 Y69.886 E23.7808
G1 X121.726 Y70.433 E23.80833
G1 X122.067 Y70.774 E23.82437
G1 X122.551 Y71.315 E23.84851
G1 X122.974 Y71.906 E23.87268
G1 X123.328 Y72.54 E23.89684
G1 X123.611 Y73.209 E23.921
G1 X123.819 Y73.905 E23.94516
G1 X123.949 Y74.62 E23.96933
G1 X124 Y75.441 E23.99669
G1 X124 Y108.459 E25.09487
G1 X123.96 Y109.184 E25.11902
G1 X123.841 Y109.901 E25.14319
G1 X123.815 Y109.993 E25.14637
G1 X123.819 Y110.007 E25.14686
G1 X123.949 Y110.722 E25.17103
G1 X124 Y111.541 E25.19832
G1 X124 Y144.559 E26.29651
G1 X123.96 Y145.284 E26.32066
G1 X123.841 Y146.001 E26.34483
G1 X123.643 Y146.7 E26.36899
G1 X123.37 Y147.373 E26.39315
G1 X123.025 Y148.012 E26.4173
G1 X122.611 Y148.609 E26.44146
G1 X122.081 Y149.212 E26.46817
G1 X121.741 Y149.554 E26.48421
G1 X121.201 Y150.04 E26.50837
G1 X120.611 Y150.464 E26.53253
G1 X119.978 Y150.821 E26.55671
G1 X119.31 Y151.106 E26.58086
G1 X118.615 Y151.315 E26.605
G1 X117.9 Y151.447 E26.62918
G1 X117.06 Y151.501 E26.65718
G1 X103.301 Y151.501 E27.1148
G1 X102.576 Y151.461 E27.13896
G1 X102.159 Y151.401 E27.15297
G1 X101.92 Y151.359 E27.16104
G1 X101.212 Y151.194 E27.18522
G1 X100.527 Y150.953 E27.20937
G1 X99.758 Y150.573 E27.2379
G1 X99.547 Y150.451 E27.24601
G1 X98.94 Y150.053 E27.27015
G1 X98.379 Y149.591 E27.29432
G1 X97.794 Y148.978 E27.3225
G1 X97.638 Y148.792 E27.33058
G1 X97.203 Y148.211 E27.35472
G1 X96.834 Y147.585 E27.37889
G1 X96.502 Y146.833 E27.40623
G1 X96.418 Y146.605 E27.41431
G1 X96.205 Y145.91 E27.43848
G1 X96.069 Y145.197 E27.46263
G1 X96.011 Y144.361 E27.4905
G1 X95.999 Y142.289 E27.55942
G1 X96.035 Y141.564 E27.58356
G1 X96.099 Y141.109 E27.59884
G1 X96.141 Y140.87 E27.60691
G1 X96.306 Y140.162 E27.63109
G1 X96.547 Y139.477 E27.65524
G1 X96.927 Y138.708 E27.68377
G1 X97.049 Y138.497 E27.69188
G1 X97.447 Y137.89 E27.71602
G1 X97.909 Y137.329 E27.74019
G1 X98.522 Y136.744 E27.76838
G1 X98.708 Y136.588 E27.77645
G1 X99.289 Y136.153 E27.80059
G1 X100.103 Y135.69 E27.83174
G1 X100.216 Y135.636 E27.8359
G1 X100.888 Y135.359 E27.86008
G1 X101.586 Y135.158 E27.88424
G1 X102.302 Y135.035 E27.9084
G1 X102.906 Y134.993 E27.92854
G1 X104.644 Y134.952 E27.98636
G1 X105.37 Y134.975 E28.01052
G1 X106.089 Y135.077 E28.03467
G1 X106.793 Y135.258 E28.05885
G1 X107 Y135.336 E28.06621
G1 X107 Y84.666 E29.7515
G1 X106.429 Y84.846 E29.77141
G1 X105.717 Y84.986 E29.79554
G1 X104.804 Y85.05 E29.82599
G1 X103.305 Y85.051 E29.87584
G1 X102.58 Y85.012 E29.89999
G1 X102.159 Y84.951 E29.91414
G1 X101.92 Y84.909 E29.92221
G1 X101.212 Y84.744 E29.94639
G1 X100.527 Y84.503 E29.97054
G1 X99.758 Y84.123 E29.99907
G1 X99.547 Y84.001 E30.00718
G1 X98.94 Y83.603 E30.03132
G1 X98.379 Y83.141 E30.05549
G1 X97.794 Y82.528 E30.08367
G1 X97.638 Y82.342 E30.09175
G1 X97.203 Y81.761 E30.11589
G1 X96.834 Y81.135 E30.14006
G1 X96.502 Y80.383 E30.1674
G1 X96.418 Y80.155 E30.17548
G1 X96.205 Y79.46 E30.19966
G1 X96.069 Y78.747 E30.2238
G1 X96.011 Y77.911 E30.25167
G1 X95.999 Y75.839 E30.32059
G1 X96.035 Y75.114 E30.34473
G1 X96.099 Y74.659 E30.36001
G1 X96.141 Y74.42 E30.36808
G1 X96.306 Y73.712 E30.39226
G1 X96.547 Y73.027 E30.41642
G1 X96.927 Y72.258 E30.44494
G1 X97.049 Y72.047 E30.45305
G1 X97.447 Y71.44 E30.47719
G0 F6000 X97.782 Y71.659
G1 F1200 X98.233 Y71.118 E30.50062
G1 X98.779 Y70.601 E30.52563
G1 X98.965 Y70.445 E30.5337
G1 X99.529 Y70.024 E30.55711
G1 X100.137 Y69.669 E30.58053
G1 X100.806 Y69.377 E30.60481
G1 X101.034 Y69.293 E30.61289
G1 X101.707 Y69.088 E30.63629
G1 X102.399 Y68.96 E30.65969
G1 X103.172 Y68.911 E30.68546
