;FLAVOR:Marlin
;TIME:4687
;Filament used: 2.50593m
;Layer height: 0.16
;MINX:63.449
;MINY:67.299
;MINZ:0.2
;MAXX:156.551
;MAXY:152.701
;MAXZ:2.72
;Generated with Cura_SteamEngine 4.4.1
M140 S60
M105
M190 S60
M104 S200
M105
M109 S200
M82 ;absolute extrusion mode
M201 X500.00 Y500.00 Z100.00 E5000.00 ;Setup machine max acceleration
M203 X500.00 Y500.00 Z10.00 E50.00 ;Setup machine max feedrate
M204 P500.00 R1000.00 T500.00 ;Setup Print/Retract/Travel acceleration
M205 X8.00 Y8.00 Z0.40 E5.00 ;Setup Jerk
M220 S100 ;Reset Feedrate
M221 S100 ;Reset Flowrate

G28 ;Home
G29 ;Auto bed level

G92 E0 ;Reset Extruder
G1 Z2.0 F3000 ;Move Z Axis up
G1 X10.1 Y20 Z0.28 F5000.0 ;Move to start position
G1 X10.1 Y200.0 Z0.28 F1500.0 E15 ;Draw the first line
G1 X10.4 Y200.0 Z0.28 F5000.0 ;Move to side a little
G1 X10.4 Y20 Z0.28 F1500.0 E30 ;Draw the second line
G92 E0 ;Reset Extruder
G1 Z2.0 F3000 ;Move Z Axis up
G92 E0
G92 E0
G1 F1500 E-6.5
;LAYER_COUNT:15
;LAYER:0
M107
G0 F6000 X65.87 Y69.45 Z0.2
;TYPE:SKIRT
G1 F1500 E0
G1 F1200 X66.469 Y68.935 E0.02627
G1 X67.117 Y68.483 E0.05255
G1 X67.807 Y68.1 E0.0788
G1 X68.532 Y67.787 E0.10506
G1 X69.286 Y67.55 E0.13135
G1 X70.059 Y67.39 E0.15761
G1 X70.844 Y67.309 E0.18386
G1 X71.25 Y67.299 E0.19736
G1 X76.751 Y67.3 E0.38033
G1 X77.54 Y67.34 E0.4066
G1 X78.321 Y67.46 E0.43288
G1 X79.085 Y67.658 E0.45913
G1 X79.826 Y67.932 E0.48541
G1 X79.999 Y68.017 E0.49182
G1 X80.532 Y67.787 E0.51113
G1 X81.286 Y67.55 E0.53742
G1 X82.059 Y67.39 E0.56367
G1 X82.844 Y67.309 E0.58992
G1 X83.25 Y67.299 E0.60343
G1 X88.751 Y67.3 E0.78639
G1 X89.54 Y67.34 E0.81267
G1 X90.321 Y67.46 E0.83895
G1 X91.085 Y67.658 E0.8652
G1 X91.826 Y67.932 E0.89148
G1 X91.999 Y68.017 E0.89789
G1 X92.532 Y67.787 E0.91719
G1 X93.286 Y67.55 E0.94348
G1 X94.059 Y67.39 E0.96974
G1 X94.844 Y67.309 E0.99599
G1 X95.25 Y67.299 E1.00949
G1 X100.751 Y67.3 E1.19246
G1 X101.54 Y67.34 E1.21873
G1 X102.321 Y67.46 E1.24501
G1 X103.085 Y67.658 E1.27126
G1 X103.826 Y67.932 E1.29754
G1 X103.999 Y68.017 E1.30395
G1 X104.532 Y67.787 E1.32326
G1 X105.286 Y67.55 E1.34955
G1 X106.059 Y67.39 E1.3758
G1 X106.844 Y67.309 E1.40205
G1 X107.25 Y67.299 E1.41556
G1 X112.751 Y67.3 E1.59852
G1 X113.54 Y67.34 E1.6248
G1 X114.321 Y67.46 E1.65108
G1 X115.085 Y67.658 E1.67733
G1 X115.826 Y67.932 E1.70361
G1 X115.999 Y68.017 E1.71002
G1 X116.532 Y67.787 E1.72932
G1 X117.286 Y67.55 E1.75561
G1 X118.059 Y67.39 E1.78187
G1 X118.844 Y67.309 E1.80812
G1 X119.25 Y67.299 E1.82162
G1 X124.751 Y67.3 E2.00459
G1 X125.54 Y67.34 E2.03086
G1 X126.321 Y67.46 E2.05714
G1 X127.085 Y67.658 E2.08339
G1 X127.826 Y67.932 E2.10967
G1 X127.999 Y68.017 E2.11608
G1 X128.532 Y67.787 E2.13539
G1 X129.286 Y67.55 E2.16168
G1 X130.059 Y67.39 E2.18793
G1 X130.844 Y67.309 E2.21418
G1 X131.25 Y67.299 E2.22769
G1 X136.751 Y67.3 E2.41065
G1 X137.54 Y67.34 E2.43693
G1 X138.321 Y67.46 E2.46321
G1 X139.085 Y67.658 E2.48946
G1 X139.826 Y67.932 E2.51574
G1 X139.999 Y68.017 E2.52215
G1 X140.532 Y67.787 E2.54146
G1 X141.286 Y67.55 E2.56774
G1 X142.059 Y67.39 E2.594
G1 X142.844 Y67.309 E2.62025
G1 X143.25 Y67.299 E2.63375
G1 X148.751 Y67.3 E2.81672
G1 X149.54 Y67.34 E2.84299
G1 X150.321 Y67.46 E2.86927
G1 X151.085 Y67.658 E2.89552
G1 X151.826 Y67.932 E2.9218
G1 X152.535 Y68.28 E2.94807
G1 X153.205 Y68.697 E2.97432
G1 X153.829 Y69.181 E3.00058
G1 X154.402 Y69.725 E3.02686
G1 X154.916 Y70.324 E3.05311
G1 X155.368 Y70.972 E3.07939
G1 X155.751 Y71.662 E3.10564
G1 X156.063 Y72.387 E3.13189
G1 X156.3 Y73.141 E3.15818
G1 X156.459 Y73.914 E3.18443
G1 X156.54 Y74.7 E3.21071
G1 X156.55 Y75.1 E3.22402
G1 X156.551 Y122.687 E4.80677
G1 X156.511 Y123.476 E4.83304
G1 X156.357 Y124.415 E4.86469
G1 X156.012 Y125.934 E4.9165
G1 X155.714 Y127.343 E4.9644
G1 X155.438 Y128.773 E5.01284
G1 X155.177 Y130.256 E5.06292
G1 X154.939 Y131.746 E5.11311
G1 X154.747 Y133.106 E5.15879
G1 X154.552 Y134.656 E5.21075
G1 X154.398 Y136.076 E5.25826
G1 X154.261 Y137.553 E5.30759
G1 X154.153 Y138.993 E5.35562
G1 X154.063 Y140.52 E5.4065
G1 X154.001 Y141.993 E5.45554
G1 X153.965 Y143.377 E5.50158
G1 X153.949 Y144.978 E5.55483
G1 X153.901 Y145.766 E5.58109
G1 X153.773 Y146.546 E5.60738
G1 X153.568 Y147.308 E5.63363
G1 X153.286 Y148.046 E5.6599
G1 X152.932 Y148.751 E5.68614
G1 X152.508 Y149.417 E5.7124
G1 X152.018 Y150.037 E5.73869
G1 X151.469 Y150.604 E5.76494
G1 X150.865 Y151.113 E5.79121
G1 X150.212 Y151.558 E5.81749
G1 X149.518 Y151.935 E5.84376
G1 X148.79 Y152.239 E5.87
G1 X148.034 Y152.469 E5.89628
G1 X147.259 Y152.621 E5.92255
G1 X146.154 Y152.7 E5.95939
G1 X144.562 Y152.701 E6.01234
G1 X143.773 Y152.662 E6.03862
G1 X142.993 Y152.542 E6.06487
G1 X142.228 Y152.345 E6.09114
G1 X141.487 Y152.072 E6.11741
G1 X140.778 Y151.724 E6.14368
G1 X140.107 Y151.307 E6.16995
G1 X139.482 Y150.825 E6.1962
G1 X139.353 Y150.702 E6.20213
G1 X138.865 Y151.113 E6.22335
G1 X138.212 Y151.558 E6.24963
G1 X137.518 Y151.935 E6.2759
G1 X136.79 Y152.239 E6.30214
G1 X136.034 Y152.469 E6.32842
G1 X135.259 Y152.621 E6.35469
G1 X134.154 Y152.7 E6.39154
G1 X132.562 Y152.701 E6.44449
G1 X131.773 Y152.662 E6.47076
G1 X130.993 Y152.542 E6.49701
G1 X130.228 Y152.345 E6.52329
G1 X129.487 Y152.072 E6.54955
G1 X128.778 Y151.724 E6.57582
G1 X128.107 Y151.307 E6.6021
G1 X127.482 Y150.825 E6.62835
G1 X127.353 Y150.702 E6.63428
G1 X126.865 Y151.113 E6.6555
G1 X126.212 Y151.558 E6.68178
G1 X125.518 Y151.935 E6.70805
G1 X124.79 Y152.239 E6.73429
G1 X124.034 Y152.469 E6.76057
G1 X123.259 Y152.621 E6.78684
G1 X122.154 Y152.7 E6.82368
G1 X120.562 Y152.701 E6.87663
G1 X119.773 Y152.662 E6.90291
G1 X118.993 Y152.542 E6.92916
G1 X118.228 Y152.345 E6.95543
G1 X117.487 Y152.072 E6.98169
G1 X116.778 Y151.724 E7.00796
G1 X116.107 Y151.307 E7.03424
G1 X115.482 Y150.825 E7.06049
G1 X115.353 Y150.702 E7.06642
G1 X114.865 Y151.113 E7.08764
G1 X114.212 Y151.558 E7.11392
G1 X113.518 Y151.935 E7.14019
G1 X112.79 Y152.239 E7.16643
G1 X112.034 Y152.469 E7.19271
G1 X111.259 Y152.621 E7.21898
G1 X110.154 Y152.7 E7.25583
G1 X108.562 Y152.701 E7.30878
G1 X107.773 Y152.662 E7.33505
G1 X106.993 Y152.542 E7.3613
G1 X106.228 Y152.345 E7.38757
G1 X105.487 Y152.072 E7.41384
G1 X104.778 Y151.724 E7.44011
G1 X104.107 Y151.307 E7.46638
G1 X103.482 Y150.825 E7.49264
G1 X103.353 Y150.702 E7.49856
G1 X102.865 Y151.113 E7.51978
G1 X102.212 Y151.558 E7.54607
G1 X101.518 Y151.935 E7.57234
G1 X100.79 Y152.239 E7.59857
G1 X100.034 Y152.469 E7.62486
G1 X99.259 Y152.621 E7.65113
G1 X98.154 Y152.7 E7.68797
G1 X96.562 Y152.701 E7.74092
G1 X95.773 Y152.662 E7.7672
G1 X94.993 Y152.542 E7.79344
G1 X94.228 Y152.345 E7.81972
G1 X93.487 Y152.072 E7.84598
G1 X92.778 Y151.724 E7.87225
G1 X92.107 Y151.307 E7.89853
G1 X91.482 Y150.825 E7.92478
G1 X91.353 Y150.702 E7.93071
G1 X90.865 Y151.113 E7.95193
G1 X90.212 Y151.558 E7.97821
G1 X89.518 Y151.935 E8.00448
G1 X88.79 Y152.239 E8.03072
G1 X88.034 Y152.469 E8.057
G1 X87.259 Y152.621 E8.08327
G1 X86.154 Y152.7 E8.12012
G1 X84.562 Y152.701 E8.17307
G1 X83.773 Y152.662 E8.19934
G1 X82.993 Y152.542 E8.22559
G1 X82.228 Y152.345 E8.25186
G1 X81.487 Y152.072 E8.27813
G1 X80.778 Y151.724 E8.3044
G1 X80.107 Y151.307 E8.33067
G1 X79.482 Y150.825 E8.35692
G1 X79.353 Y150.702 E8.36285
G1 X78.865 Y151.113 E8.38407
G1 X78.212 Y151.558 E8.41036
G1 X77.518 Y151.935 E8.43662
G1 X76.79 Y152.239 E8.46286
G1 X76.034 Y152.469 E8.48915
G1 X75.259 Y152.621 E8.51541
G1 X74.154 Y152.7 E8.55226
G1 X72.562 Y152.701 E8.60521
G1 X71.773 Y152.662 E8.63148
G1 X70.993 Y152.542 E8.65773
G1 X70.228 Y152.345 E8.68401
G1 X69.487 Y152.072 E8.71027
G1 X68.778 Y151.724 E8.73654
G1 X68.107 Y151.307 E8.76282
G1 X67.482 Y150.825 E8.78907
G1 X66.909 Y150.281 E8.81535
G1 X66.166 Y149.373 E8.85437
G1 X64.859 Y147.505 E8.9302
G1 X64.44 Y146.836 E8.95645
G1 X64.09 Y146.127 E8.98275
G1 X63.814 Y145.388 E9.00899
G1 X63.614 Y144.624 E9.03525
G1 X63.492 Y143.843 E9.06155
G1 X63.45 Y143.033 E9.08852
G1 X63.45 Y142.173 E9.11713
G1 X63.49 Y141.384 E9.1434
G1 X63.609 Y140.604 E9.16965
G1 X63.807 Y139.839 E9.19593
G1 X64.081 Y139.099 E9.22217
G1 X64.429 Y138.39 E9.24844
G1 X64.847 Y137.719 E9.27474
G1 X64.949 Y137.587 E9.28028
G1 X64.95 Y82.418 E11.11521
G1 X64.575 Y81.862 E11.13752
G1 X64.201 Y81.167 E11.16377
G1 X63.9 Y80.437 E11.19003
G1 X63.673 Y79.68 E11.21632
G1 X63.525 Y78.905 E11.24256
G1 X63.45 Y77.83 E11.2784
G1 X63.449 Y75.102 E11.36914
G1 X63.489 Y74.313 E11.39541
G1 X63.608 Y73.533 E11.42165
G1 X63.805 Y72.768 E11.44793
G1 X64.079 Y72.027 E11.4742
G1 X64.427 Y71.318 E11.50047
G1 X64.844 Y70.648 E11.52672
G1 X65.327 Y70.023 E11.55299
G1 X65.87 Y69.45 E11.57925
G0 F6000 X66.263 Y69.631
G1 F1200 X66.858 Y69.143 E11.60484
G1 X67.5 Y68.719 E11.63043
G1 X68.182 Y68.364 E11.65601
G1 X68.898 Y68.082 E11.6816
G1 X69.639 Y67.876 E11.70718
G1 X70.397 Y67.748 E11.73275
G1 X71.25 Y67.699 E11.76117
G1 X76.751 Y67.7 E11.94413
G1 X77.519 Y67.74 E11.96971
G1 X78.279 Y67.86 E11.9953
G1 X79.023 Y68.058 E12.02091
G1 X79.741 Y68.332 E12.04647
G1 X79.996 Y68.461 E12.05597
G1 X80.182 Y68.364 E12.06295
G1 X80.898 Y68.082 E12.08854
G1 X81.639 Y67.876 E12.11412
G1 X82.397 Y67.748 E12.13969
G1 X83.25 Y67.699 E12.16811
G1 X88.751 Y67.7 E12.35107
G1 X89.519 Y67.74 E12.37665
G1 X90.279 Y67.86 E12.40224
G1 X91.023 Y68.058 E12.42785
G1 X91.741 Y68.332 E12.45341
G1 X91.996 Y68.461 E12.46292
G1 X92.182 Y68.364 E12.46989
G1 X92.898 Y68.082 E12.49549
G1 X93.639 Y67.876 E12.52107
G1 X94.397 Y67.748 E12.54664
G1 X95.25 Y67.699 E12.57505
G1 X100.751 Y67.7 E12.75802
G1 X101.519 Y67.74 E12.7836
G1 X102.279 Y67.86 E12.80919
G1 X103.023 Y68.058 E12.83479
G1 X103.741 Y68.332 E12.86035
G1 X103.996 Y68.461 E12.86986
G1 X104.182 Y68.364 E12.87684
G1 X104.898 Y68.082 E12.90243
G1 X105.639 Y67.876 E12.92801
G1 X106.397 Y67.748 E12.95358
G1 X107.25 Y67.699 E12.982
G1 X112.751 Y67.7 E13.16496
G1 X113.519 Y67.74 E13.19054
G1 X114.279 Y67.86 E13.21613
G1 X115.023 Y68.058 E13.24174
G1 X115.741 Y68.332 E13.2673
G1 X115.996 Y68.461 E13.2768
G1 X116.182 Y68.364 E13.28378
G1 X116.898 Y68.082 E13.30938
G1 X117.639 Y67.876 E13.33496
G1 X118.397 Y67.748 E13.36052
G1 X119.25 Y67.699 E13.38894
G1 X124.751 Y67.7 E13.57191
G1 X125.519 Y67.74 E13.59748
G1 X126.279 Y67.86 E13.62307
G1 X127.023 Y68.058 E13.64868
G1 X127.741 Y68.332 E13.67424
G1 X127.996 Y68.461 E13.68375
G1 X128.182 Y68.364 E13.69072
G1 X128.898 Y68.082 E13.71632
G1 X129.639 Y67.876 E13.7419
G1 X130.397 Y67.748 E13.76747
G1 X131.25 Y67.699 E13.79588
G1 X136.751 Y67.7 E13.97885
G1 X137.519 Y67.74 E14.00443
G1 X138.279 Y67.86 E14.03002
G1 X139.023 Y68.058 E14.05562
G1 X139.741 Y68.332 E14.08119
G1 X139.996 Y68.461 E14.09069
G1 X140.182 Y68.364 E14.09767
G1 X140.898 Y68.082 E14.12326
G1 X141.639 Y67.876 E14.14884
G1 X142.397 Y67.748 E14.17441
G1 X143.25 Y67.699 E14.20283
G1 X148.751 Y67.7 E14.38579
G1 X149.519 Y67.74 E14.41137
G1 X150.279 Y67.86 E14.43696
G1 X151.023 Y68.058 E14.46257
G1 X151.741 Y68.332 E14.48813
G1 X152.428 Y68.679 E14.51373
G1 X153.074 Y69.095 E14.53928
G1 X153.674 Y69.576 E14.56486
G1 X154.221 Y70.117 E14.59045
G1 X154.709 Y70.712 E14.61604
G1 X155.132 Y71.354 E14.64162
G1 X155.486 Y72.037 E14.6672
G1 X155.768 Y72.753 E14.6928
G1 X155.974 Y73.494 E14.71838
G1 X156.101 Y74.252 E14.74394
G1 X156.15 Y75.1 E14.77219
G1 X156.151 Y122.687 E16.35494
G1 X156.111 Y123.455 E16.38052
G1 X155.967 Y124.326 E16.40988
G1 X155.626 Y125.828 E16.46111
G1 X155.318 Y127.285 E16.51064
G1 X155.05 Y128.673 E16.55766
G1 X154.783 Y130.189 E16.60886
G1 X154.54 Y131.711 E16.66012
G1 X154.346 Y133.091 E16.70647
G1 X154.16 Y134.568 E16.75598
G1 X153.999 Y136.048 E16.8055
G1 X153.86 Y137.55 E16.85567
G1 X153.751 Y138.998 E16.90397
G1 X153.664 Y140.481 E16.95338
G1 X153.604 Y141.89 E17.00028
G1 X153.564 Y143.435 E17.05169
G1 X153.549 Y144.974 E17.10288
G1 X153.501 Y145.742 E17.12847
G1 X153.374 Y146.5 E17.15403
G1 X153.169 Y147.242 E17.17964
G1 X152.888 Y147.958 E17.20522
G1 X152.534 Y148.64 E17.23078
G1 X152.111 Y149.283 E17.25637
G1 X151.624 Y149.878 E17.28195
G1 X151.078 Y150.42 E17.30754
G1 X150.478 Y150.901 E17.33311
G1 X149.832 Y151.318 E17.35869
G1 X149.146 Y151.666 E17.38427
G1 X148.427 Y151.941 E17.40987
G1 X147.684 Y152.139 E17.43545
G1 X146.924 Y152.259 E17.46104
G1 X146.154 Y152.3 E17.48669
G1 X144.562 Y152.301 E17.53964
G1 X143.794 Y152.262 E17.56521
G1 X143.034 Y152.142 E17.5908
G1 X142.29 Y151.945 E17.6164
G1 X141.571 Y151.672 E17.64198
G1 X140.885 Y151.325 E17.66755
G1 X140.238 Y150.91 E17.69312
G1 X139.637 Y150.429 E17.71872
G1 X139.352 Y150.148 E17.73203
G1 X139.078 Y150.42 E17.74487
G1 X138.478 Y150.901 E17.77045
G1 X137.832 Y151.318 E17.79602
G1 X137.146 Y151.666 E17.82161
G1 X136.427 Y151.941 E17.84721
G1 X135.684 Y152.139 E17.87279
G1 X134.924 Y152.259 E17.89838
G1 X134.154 Y152.3 E17.92402
G1 X132.562 Y152.301 E17.97697
G1 X131.794 Y152.262 E18.00255
G1 X131.034 Y152.142 E18.02814
G1 X130.29 Y151.945 E18.05374
G1 X129.571 Y151.672 E18.07932
G1 X128.885 Y151.325 E18.10489
G1 X128.238 Y150.91 E18.13046
G1 X127.637 Y150.429 E18.15606
G1 X127.352 Y150.148 E18.16937
G1 X127.078 Y150.42 E18.18221
G1 X126.478 Y150.901 E18.20779
G1 X125.832 Y151.318 E18.23336
G1 X125.146 Y151.666 E18.25895
G1 X124.427 Y151.941 E18.28455
G1 X123.684 Y152.139 E18.31012
G1 X122.924 Y152.259 E18.33572
G1 X122.154 Y152.3 E18.36136
G1 X120.562 Y152.301 E18.41431
G1 X119.794 Y152.262 E18.43989
G1 X119.034 Y152.142 E18.46548
G1 X118.29 Y151.945 E18.49108
G1 X117.571 Y151.672 E18.51666
G1 X116.885 Y151.325 E18.54223
G1 X116.238 Y150.91 E18.56779
G1 X115.637 Y150.429 E18.5934
G1 X115.352 Y150.148 E18.60671
G1 X115.078 Y150.42 E18.61955
G1 X114.478 Y150.901 E18.64513
G1 X113.832 Y151.318 E18.6707
G1 X113.146 Y151.666 E18.69628
G1 X112.427 Y151.941 E18.72189
G1 X111.684 Y152.139 E18.74746
G1 X110.924 Y152.259 E18.77305
G1 X110.154 Y152.3 E18.7987
G1 X108.562 Y152.301 E18.85165
G1 X107.794 Y152.262 E18.87723
G1 X107.034 Y152.142 E18.90282
G1 X106.29 Y151.945 E18.92842
G1 X105.571 Y151.672 E18.954
G1 X104.885 Y151.325 E18.97956
G1 X104.238 Y150.91 E19.00513
G1 X103.637 Y150.429 E19.03073
G1 X103.352 Y150.148 E19.04405
G1 X103.078 Y150.42 E19.05689
G1 X102.478 Y150.901 E19.08246
G1 X101.832 Y151.318 E19.10804
G1 X101.146 Y151.666 E19.13362
G1 X100.427 Y151.941 E19.15923
G1 X99.684 Y152.139 E19.1848
G1 X98.924 Y152.259 E19.21039
G1 X98.154 Y152.3 E19.23604
G1 X96.562 Y152.301 E19.28899
G1 X95.794 Y152.262 E19.31456
G1 X95.034 Y152.142 E19.34015
G1 X94.29 Y151.945 E19.36575
G1 X93.571 Y151.672 E19.39133
G1 X92.885 Y151.325 E19.4169
G1 X92.238 Y150.91 E19.44247
G1 X91.637 Y150.429 E19.46807
G1 X91.352 Y150.148 E19.48138
G1 X91.078 Y150.42 E19.49422
G1 X90.478 Y150.901 E19.5198
G1 X89.832 Y151.318 E19.54537
G1 X89.146 Y151.666 E19.57096
G1 X88.427 Y151.941 E19.59656
G1 X87.684 Y152.139 E19.62214
G1 X86.924 Y152.259 E19.64773
G1 X86.154 Y152.3 E19.67337
G1 X84.562 Y152.301 E19.72632
G1 X83.794 Y152.262 E19.7519
G1 X83.034 Y152.142 E19.77749
G1 X82.29 Y151.945 E19.80309
G1 X81.571 Y151.672 E19.82867
G1 X80.885 Y151.325 E19.85424
G1 X80.238 Y150.91 E19.87981
G1 X79.637 Y150.429 E19.90541
G1 X79.352 Y150.148 E19.91872
G1 X79.078 Y150.42 E19.93156
G1 X78.478 Y150.901 E19.95714
G1 X77.832 Y151.318 E19.98271
G1 X77.146 Y151.666 E20.0083
G1 X76.427 Y151.941 E20.0339
G1 X75.684 Y152.139 E20.05947
G1 X74.924 Y152.259 E20.08507
G1 X74.154 Y152.3 E20.11071
G1 X72.562 Y152.301 E20.16366
G1 X71.794 Y152.262 E20.18924
G1 X71.034 Y152.142 E20.21483
G1 X70.29 Y151.945 E20.24043
G1 X69.571 Y151.672 E20.26601
G1 X68.885 Y151.325 E20.29158
G1 X68.238 Y150.91 E20.31714
G1 X67.637 Y150.429 E20.34275
G1 X67.09 Y149.888 E20.36833
G1 X66.494 Y149.143 E20.40007
G1 X65.187 Y147.275 E20.47589
G1 X64.779 Y146.623 E20.50148
G1 X64.441 Y145.932 E20.52706
G1 X64.177 Y145.21 E20.55263
G1 X63.99 Y144.464 E20.57821
G1 X63.88 Y143.702 E20.60382
G1 X63.85 Y143.033 E20.62609
G1 X63.85 Y142.173 E20.65469
G1 X63.89 Y141.405 E20.68027
G1 X64.009 Y140.645 E20.70586
G1 X64.207 Y139.902 E20.73143
G1 X64.481 Y139.183 E20.75702
G1 X64.828 Y138.497 E20.78259
G1 X65.244 Y137.85 E20.80818
G1 X65.349 Y137.719 E20.81376
G1 X65.35 Y82.28 E22.65767
G1 X65.219 Y82.115 E22.66468
