;FLAVOR:Marlin
;TIME:4434
;Filament used: 2.77694m
;Layer height: 0.16
;MINX:98.85
;MINY:67.299
;MINZ:0.2
;MAXX:121.15
;MAXY:152.701
;MAXZ:25.96
;Generated with Cura_SteamEngine 4.4.1
M140 S60
M105
M190 S60
M104 S200
M105
M109 S200
M82 ;absolute extrusion mode
M201 X500.00 Y500.00 Z100.00 E5000.00 ;Setup machine max acceleration
M203 X500.00 Y500.00 Z10.00 E50.00 ;Setup machine max feedrate
M204 P500.00 R1000.00 T500.00 ;Setup Print/Retract/Travel acceleration
M205 X8.00 Y8.00 Z0.40 E5.00 ;Setup Jerk
M220 S100 ;Reset Feedrate
M221 S100 ;Reset Flowrate

G28 ;Home
G29 ;Auto bed level

G92 E0 ;Reset Extruder
G1 Z2.0 F3000 ;Move Z Axis up
G1 X10.1 Y20 Z0.28 F5000.0 ;Move to start position
G1 X10.1 Y200.0 Z0.28 F1500.0 E15 ;Draw the first line
G1 X10.4 Y200.0 Z0.28 F5000.0 ;Move to side a little
G1 X10.4 Y20 Z0.28 F1500.0 E30 ;Draw the second line
G92 E0 ;Reset Extruder
G1 Z2.0 F3000 ;Move Z Axis up
G92 E0
G92 E0
G1 F1500 E-6.5
;LAYER_COUNT:135
;LAYER:0
M107
G0 F6000 X100.247 Y70.987 Z0.2
;TYPE:SKIRT
G1 F1500 E0
G1 F1200 X100.73 Y70.363 E0.02625
G1 X101.118 Y69.942 E0.04529
G1 X101.458 Y69.6 E0.06133
G1 X102.043 Y69.069 E0.0876
G1 X102.678 Y68.599 E0.11388
G1 X103.357 Y68.197 E0.14013
G1 X104.074 Y67.865 E0.16641
G1 X104.82 Y67.607 E0.19266
G1 X105.589 Y67.426 E0.21894
G1 X106.372 Y67.324 E0.2452
G1 X106.992 Y67.299 E0.26584
G1 X110.752 Y67.3 E0.39089
G1 X111.541 Y67.34 E0.41717
G1 X112.321 Y67.46 E0.44342
G1 X113.086 Y67.658 E0.4697
G1 X113.826 Y67.932 E0.49595
G1 X114.535 Y68.28 E0.52222
G1 X115.205 Y68.698 E0.54848
G1 X115.83 Y69.181 E0.57475
G1 X116.402 Y69.725 E0.60101
G1 X116.917 Y70.324 E0.62728
G1 X117.368 Y70.972 E0.65354
G1 X117.752 Y71.662 E0.6798
G1 X118.063 Y72.388 E0.70607
G1 X118.3 Y73.141 E0.73233
G1 X118.459 Y73.915 E0.75861
G1 X118.54 Y74.7 E0.78486
G1 X118.55 Y75.1 E0.79817
G1 X118.55 Y77.1 E0.86469
G1 X118.51 Y77.889 E0.89096
G1 X118.391 Y78.669 E0.91721
G1 X118.251 Y79.21 E0.93579
G1 X118.251 Y79.952 E0.96047
G1 X118.446 Y80.112 E0.96886
G1 X119.004 Y80.671 E0.99513
G1 X119.391 Y81.135 E1.01523
G1 X119.515 Y81.296 E1.02199
G1 X119.964 Y81.945 E1.04823
G1 X120.346 Y82.636 E1.07449
G1 X120.656 Y83.363 E1.10078
G1 X120.89 Y84.117 E1.12704
G1 X121.048 Y84.89 E1.15328
G1 X121.135 Y86.053 E1.19207
G1 X121.15 Y133.85 E2.78181
G1 X121.11 Y134.638 E2.80805
G1 X120.991 Y135.419 E2.83432
G1 X120.696 Y136.475 E2.87079
G1 X120.626 Y136.671 E2.87771
G1 X120.323 Y137.401 E2.904
G1 X119.948 Y138.096 E2.93027
G1 X119.504 Y138.749 E2.95653
G1 X118.997 Y139.354 E2.98279
G1 X118.431 Y139.905 E3.00906
G1 X118.256 Y140.044 E3.01649
G1 X118.254 Y140.779 E3.04094
G1 X118.427 Y141.521 E3.06628
G1 X118.527 Y142.305 E3.09257
G1 X118.55 Y142.896 E3.11224
G1 X118.551 Y144.897 E3.17879
G1 X118.511 Y145.686 E3.20507
G1 X118.392 Y146.466 E3.23131
G1 X118.195 Y147.231 E3.25758
G1 X117.921 Y147.972 E3.28386
G1 X117.574 Y148.681 E3.31012
G1 X117.157 Y149.352 E3.33639
G1 X116.674 Y149.976 E3.36264
G1 X116.13 Y150.549 E3.38892
G1 X115.532 Y151.064 E3.41516
G1 X114.884 Y151.516 E3.44144
G1 X114.194 Y151.9 E3.46771
G1 X113.469 Y152.212 E3.49396
G1 X112.715 Y152.45 E3.52026
G1 X111.942 Y152.61 E3.54651
G1 X111.157 Y152.69 E3.57276
G1 X110.751 Y152.701 E3.58626
G1 X106.989 Y152.701 E3.71139
G1 X106.2 Y152.661 E3.73766
G1 X105.42 Y152.542 E3.76391
G1 X104.655 Y152.344 E3.79019
G1 X103.915 Y152.07 E3.81644
G1 X103.206 Y151.722 E3.8427
G1 X102.535 Y151.304 E3.869
G1 X101.911 Y150.821 E3.89524
G1 X101.449 Y150.392 E3.91621
G1 X101.11 Y150.05 E3.93223
G1 X100.584 Y149.462 E3.95847
G1 X100.119 Y148.823 E3.98475
G1 X99.721 Y148.141 E4.01102
G1 X99.394 Y147.422 E4.03729
G1 X99.142 Y146.674 E4.06354
G1 X98.967 Y145.904 E4.0898
G1 X98.87 Y145.12 E4.11608
G1 X98.85 Y144.559 E4.13475
G1 X98.85 Y111.541 E5.23293
G1 X98.89 Y110.752 E5.25921
G1 X99.007 Y109.985 E5.28501
G1 X98.972 Y109.835 E5.29014
G1 X98.873 Y109.052 E5.31639
G1 X98.85 Y108.459 E5.33613
G1 X98.85 Y75.441 E6.43431
G1 X98.89 Y74.652 E6.46058
G1 X99.009 Y73.872 E6.48683
G1 X99.207 Y73.107 E6.51311
G1 X99.481 Y72.367 E6.53936
G1 X99.829 Y71.658 E6.56562
G1 X100.247 Y70.987 E6.59192
G0 F6000 X100.644 Y71.118
G1 F1200 X101.125 Y70.518 E6.6175
G1 X101.402 Y70.224 E6.63093
G1 X101.742 Y69.882 E6.64697
G1 X102.312 Y69.365 E6.67256
G1 X102.932 Y68.911 E6.69812
G1 X103.597 Y68.523 E6.72373
G1 X104.298 Y68.206 E6.74932
G1 X105.028 Y67.964 E6.7749
G1 X105.779 Y67.799 E6.80047
G1 X106.543 Y67.713 E6.82604
G1 X106.992 Y67.699 E6.84099
G1 X110.752 Y67.7 E6.96604
G1 X111.52 Y67.74 E6.99162
G1 X112.28 Y67.86 E7.01721
G1 X113.023 Y68.058 E7.04279
G1 X113.742 Y68.332 E7.06838
G1 X114.428 Y68.679 E7.09395
G1 X115.075 Y69.095 E7.11953
G1 X115.675 Y69.577 E7.14513
G1 X116.221 Y70.118 E7.17069
G1 X116.709 Y70.713 E7.19629
G1 X117.132 Y71.355 E7.22186
G1 X117.487 Y72.038 E7.24746
G1 X117.768 Y72.753 E7.27301
G1 X117.974 Y73.494 E7.29859
G1 X118.101 Y74.253 E7.32419
G1 X118.15 Y75.1 E7.35241
G1 X118.15 Y77.1 E7.41893
G1 X118.11 Y77.868 E7.44451
G1 X117.991 Y78.628 E7.47009
G1 X117.851 Y79.153 E7.48816
G1 X117.851 Y80.141 E7.52103
G1 X118.251 Y80.476 E7.53838
G1 X118.787 Y81.029 E7.56399
G1 X119.074 Y81.379 E7.57905
G1 X119.198 Y81.54 E7.58581
G1 X119.635 Y82.173 E7.61139
G1 X120.004 Y82.847 E7.63695
G1 X120.301 Y83.557 E7.66255
G1 X120.522 Y84.293 E7.6881
G1 X120.666 Y85.049 E7.7137
G1 X120.735 Y86.053 E7.74717
G1 X120.75 Y133.85 E9.33691
G1 X120.71 Y134.618 E9.36249
G1 X120.591 Y135.378 E9.38807
G1 X120.319 Y136.341 E9.42135
G1 X120.249 Y136.537 E9.42828
G1 X119.953 Y137.247 E9.45386
G1 X119.585 Y137.922 E9.47943
G1 X119.149 Y138.556 E9.50502
G1 X118.649 Y139.14 E9.53059
G1 X118.091 Y139.67 E9.55619
G1 X117.857 Y139.851 E9.56603
G1 X117.854 Y140.847 E9.59916
G1 X117.891 Y140.959 E9.60308
G1 X118.054 Y141.71 E9.62864
G1 X118.138 Y142.475 E9.65424
G1 X118.15 Y142.896 E9.66825
G1 X118.151 Y144.897 E9.7348
G1 X118.111 Y145.665 E9.76038
G1 X117.992 Y146.425 E9.78596
G1 X117.795 Y147.169 E9.81156
G1 X117.522 Y147.888 E9.83714
G1 X117.175 Y148.574 E9.86271
G1 X116.759 Y149.221 E9.88829
G1 X116.278 Y149.822 E9.9139
G1 X115.737 Y150.369 E9.93949
G1 X115.143 Y150.857 E9.96505
G1 X114.501 Y151.28 E9.99063
G1 X113.819 Y151.635 E10.0162
G1 X113.103 Y151.917 E10.04179
G1 X112.362 Y152.123 E10.06737
G1 X111.604 Y152.252 E10.09295
G1 X110.751 Y152.301 E10.12136
G1 X106.989 Y152.301 E10.24649
G1 X106.221 Y152.261 E10.27207
G1 X105.461 Y152.142 E10.29765
G1 X104.718 Y151.944 E10.32323
G1 X103.999 Y151.67 E10.34882
G1 X103.313 Y151.323 E10.37439
G1 X102.666 Y150.907 E10.39997
G1 X102.066 Y150.426 E10.42555
G1 X101.733 Y150.11 E10.44082
G1 X101.394 Y149.768 E10.45684
G1 X100.882 Y149.195 E10.48239
G1 X100.432 Y148.571 E10.50798
G1 X100.049 Y147.904 E10.53356
G1 X99.738 Y147.201 E10.55913
G1 X99.501 Y146.469 E10.58472
G1 X99.341 Y145.717 E10.61029
G1 X99.26 Y144.952 E10.63588
G1 X99.25 Y144.559 E10.64895
G1 X99.25 Y111.541 E11.74714
G1 X99.29 Y110.773 E11.77272
G1 X99.409 Y110.013 E11.7983
G1 X99.418 Y109.979 E11.79947
G1 X99.346 Y109.646 E11.8108
G1 X99.262 Y108.882 E11.83637
G1 X99.25 Y108.459 E11.85044
G1 X99.25 Y75.441 E12.94862
G1 X99.29 Y74.673 E12.9742
G1 X99.409 Y73.913 E12.99979
G1 X99.607 Y73.17 E13.02536
G1 X99.881 Y72.451 E13.05096
G1 X100.228 Y71.765 E13.07652
G1 X100.644 Y71.118 E13.10211
G0 F6000 X101.042 Y71.252
G1 F1200 X101.686 Y70.506 E13.13489
G1 X102.026 Y70.164 E13.15093
G1 X102.581 Y69.662 E13.17582
G1 X103.186 Y69.223 E13.20068
G1 X103.835 Y68.85 E13.22558
G1 X104.52 Y68.549 E13.25046
G1 X105.233 Y68.323 E13.27534
G1 X105.966 Y68.174 E13.30022
G1 X106.992 Y68.099 E13.33443
G1 X110.752 Y68.1 E13.45949
G1 X111.499 Y68.14 E13.48437
G1 X112.237 Y68.26 E13.50924
G1 X112.959 Y68.458 E13.53414
G1 X113.655 Y68.731 E13.55901
G1 X114.318 Y69.078 E13.5839
G1 X114.94 Y69.493 E13.60877
G1 X115.515 Y69.972 E13.63366
G1 X116.035 Y70.51 E13.65854
G1 X116.494 Y71.1 E13.68341
G1 X116.889 Y71.736 E13.70831
G1 X117.212 Y72.41 E13.73316
G1 X117.463 Y73.115 E13.75806
G1 X117.636 Y73.843 E13.78294
G1 X117.731 Y74.585 E13.80782
G1 X117.75 Y75.1 E13.82496
G1 X117.75 Y77.1 E13.89148
G1 X117.71 Y77.847 E13.91636
G1 X117.591 Y78.585 E13.94123
G1 X117.451 Y79.096 E13.95885
G1 X117.451 Y80.326 E13.99976
G1 X117.487 Y80.351 E14.00122
G1 X118.054 Y80.839 E14.0261
G1 X118.757 Y81.623 E14.06112
G1 X118.881 Y81.784 E14.06788
G1 X119.305 Y82.4 E14.09275
G1 X119.661 Y83.058 E14.11764
G1 X119.945 Y83.75 E14.14252
G1 X120.153 Y84.469 E14.16741
G1 X120.283 Y85.205 E14.19227
G1 X120.335 Y86.053 E14.22053
G1 X120.35 Y133.85 E15.81026
G1 X120.31 Y134.597 E15.83514
G1 X120.191 Y135.335 E15.86001
G1 X119.942 Y136.206 E15.89014
G1 X119.872 Y136.402 E15.89706
G1 X119.583 Y137.092 E15.92194
G1 X119.222 Y137.748 E15.94684
G1 X118.794 Y138.361 E15.97171
G1 X118.302 Y138.924 E15.99658
G1 X117.753 Y139.432 E16.02146
G1 X117.457 Y139.641 E16.03351
G1 X117.454 Y140.916 E16.07591
G1 X117.531 Y141.163 E16.08452
G1 X117.678 Y141.896 E16.10938
G1 X117.75 Y142.897 E16.14276
G1 X117.751 Y144.898 E16.20932
G1 X117.711 Y145.645 E16.2342
G1 X117.592 Y146.383 E16.25906
G1 X117.395 Y147.105 E16.28395
G1 X117.122 Y147.801 E16.30882
G1 X116.776 Y148.464 E16.33369
G1 X116.361 Y149.087 E16.35859
G1 X115.883 Y149.662 E16.38346
G1 X115.345 Y150.182 E16.40835
G1 X114.756 Y150.642 E16.4332
G1 X114.12 Y151.037 E16.4581
G1 X113.446 Y151.361 E16.48298
G1 X112.741 Y151.612 E16.50787
G1 X112.014 Y151.786 E16.53273
G1 X111.272 Y151.882 E16.55762
G1 X110.751 Y151.901 E16.57496
G1 X106.989 Y151.901 E16.70008
G1 X106.242 Y151.861 E16.72496
G1 X105.504 Y151.742 E16.74982
G1 X104.782 Y151.544 E16.77472
G1 X104.086 Y151.271 E16.79959
G1 X103.423 Y150.924 E16.82448
G1 X102.8 Y150.509 E16.84938
G1 X102.017 Y149.829 E16.88387
G1 X101.678 Y149.487 E16.89989
G1 X101.181 Y148.928 E16.92476
G1 X100.746 Y148.32 E16.94963
G1 X100.378 Y147.668 E16.97453
G1 X100.082 Y146.981 E16.99941
G1 X99.861 Y146.266 E17.0243
G1 X99.718 Y145.532 E17.04917
G1 X99.65 Y144.559 E17.08162
G1 X99.65 Y111.541 E18.1798
G1 X99.69 Y110.794 E18.20468
G1 X99.809 Y110.056 E18.22954
G1 X99.827 Y109.989 E18.23185
G1 X99.722 Y109.461 E18.24975
G1 X99.65 Y108.459 E18.28317
G1 X99.65 Y75.441 E19.38135
G1 X99.69 Y74.694 E19.40623
G1 X99.809 Y73.956 E19.43109
G1 X100.007 Y73.234 E19.45599
G1 X100.28 Y72.538 E19.48086
G1 X100.627 Y71.875 E19.50575
G1 X101.042 Y71.252 E19.53065
G0 F6000 X101.439 Y71.391
G1 F1200 X101.969 Y70.788 E19.55735
G1 X102.309 Y70.446 E19.57339
G1 X102.849 Y69.96 E19.59755
G1 X103.439 Y69.536 E19.62172
G1 X104.072 Y69.179 E19.64589
G1 X104.74 Y68.894 E19.67004
G1 X105.435 Y68.685 E19.69418
G1 X106.15 Y68.553 E19.71837
G1 X106.992 Y68.499 E19.74643
G1 X110.752 Y68.5 E19.87149
G1 X111.477 Y68.54 E19.89564
G1 X112.193 Y68.66 E19.91978
G1 X112.892 Y68.857 E19.94394
G1 X113.565 Y69.131 E19.96811
G1 X114.204 Y69.476 E19.99226
G1 X114.801 Y69.89 E20.01642
G1 X115.349 Y70.367 E20.04059
G1 X115.842 Y70.901 E20.06476
G1 X116.272 Y71.486 E20.08891
G1 X116.636 Y72.114 E20.11305
G1 X116.929 Y72.779 E20.13722
G1 X117.146 Y73.472 E20.16137
G1 X117.286 Y74.185 E20.18554
G1 X117.35 Y75.1 E20.21605
G1 X117.35 Y77.1 E20.28257
G1 X117.31 Y77.825 E20.30672
G1 X117.191 Y78.542 E20.33089
G1 X117.051 Y79.036 E20.34797
G1 X117.051 Y80.538 E20.39793
G1 X117.309 Y80.72 E20.40843
G1 X117.852 Y81.202 E20.43258
G1 X118.44 Y81.867 E20.4621
G1 X118.564 Y82.028 E20.46886
G1 X118.975 Y82.627 E20.49302
G1 X119.317 Y83.267 E20.51716
G1 X119.587 Y83.942 E20.54134
G1 X119.782 Y84.641 E20.56547
G1 X119.898 Y85.358 E20.58963
G1 X119.935 Y86.053 E20.61278
G1 X119.95 Y133.85 E22.20251
G1 X119.91 Y134.575 E22.22666
G1 X119.791 Y135.292 E22.25084
G1 X119.565 Y136.072 E22.27785
G1 X119.495 Y136.268 E22.28477
G1 X119.214 Y136.937 E22.3089
G1 X118.86 Y137.572 E22.33308
G1 X118.439 Y138.164 E22.35724
G1 X117.956 Y138.706 E22.38139
G1 X117.416 Y139.191 E22.40553
G1 X117.058 Y139.44 E22.42004
G1 X117.054 Y140.979 E22.47122
G1 X117.169 Y141.364 E22.48459
G1 X117.299 Y142.079 E22.50876
G1 X117.35 Y142.897 E22.53602
G1 X117.351 Y144.898 E22.60257
G1 X117.311 Y145.623 E22.62672
G1 X117.192 Y146.34 E22.6509
G1 X116.995 Y147.039 E22.67505
G1 X116.723 Y147.712 E22.69919
G1 X116.377 Y148.351 E22.72336
G1 X115.964 Y148.948 E22.74751
G1 X115.488 Y149.497 E22.77167
G1 X114.954 Y149.989 E22.79582
G1 X114.37 Y150.421 E22.81999
G1 X113.741 Y150.785 E22.84416
G1 X113.077 Y151.078 E22.8683
G1 X112.384 Y151.296 E22.89246
G1 X111.671 Y151.437 E22.91663
G1 X110.751 Y151.501 E22.94731
G1 X106.989 Y151.501 E23.07243
G1 X106.264 Y151.461 E23.09658
G1 X105.547 Y151.342 E23.12075
G1 X104.848 Y151.144 E23.14492
G1 X104.175 Y150.871 E23.16907
G1 X103.536 Y150.526 E23.19323
G1 X102.939 Y150.112 E23.21739
G1 X102.302 Y149.547 E23.24571
G1 X101.963 Y149.205 E23.26173
G1 X101.48 Y148.662 E23.2859
G1 X101.061 Y148.069 E23.31005
G1 X100.709 Y147.434 E23.3342
G1 X100.429 Y146.763 E23.35838
G1 X100.224 Y146.066 E23.38254
G1 X100.098 Y145.351 E23.40669
G1 X100.05 Y144.559 E23.43308
G1 X100.05 Y111.541 E24.53126
G1 X100.09 Y110.816 E24.55541
G1 X100.209 Y110.099 E24.57959
G1 X100.235 Y110.007 E24.58277
G1 X100.231 Y109.993 E24.58325
G1 X100.101 Y109.278 E24.60742
G1 X100.05 Y108.459 E24.63472
G1 X100.05 Y75.441 E25.7329
G1 X100.09 Y74.716 E25.75705
G1 X100.209 Y73.999 E25.78122
G1 X100.407 Y73.3 E25.80539
G1 X100.68 Y72.627 E25.82954
G1 X101.025 Y71.988 E25.85369
G1 X101.439 Y71.391 E25.87786
G0 F6000 X101.424 Y72.106
G1 F1200 X101.835 Y71.535 E25.90126
G1 X102.253 Y71.07 E25.92205
G1 X102.593 Y70.728 E25.93809
G1 X103.117 Y70.258 E25.96151
G1 X103.691 Y69.85 E25.98493
G1 X104.307 Y69.51 E26.00833
G1 X104.958 Y69.241 E26.03176
G1 X105.635 Y69.049 E26.05516
G1 X106.33 Y68.934 E26.07859
G1 X106.992 Y68.899 E26.10064
G1 X110.752 Y68.9 E26.2257
G1 X111.454 Y68.94 E26.24909
G1 X112.148 Y69.06 E26.27251
G1 X112.824 Y69.257 E26.29593
G1 X113.473 Y69.53 E26.31935
G1 X114.087 Y69.875 E26.34277
G1 X114.658 Y70.287 E26.36619
G1 X115.178 Y70.761 E26.3896
G1 X115.642 Y71.291 E26.41302
G1 X116.042 Y71.87 E26.43643
G1 X116.374 Y72.49 E26.45982
G1 X116.634 Y73.145 E26.48326
G1 X116.817 Y73.824 E26.50665
G1 X116.923 Y74.52 E26.53007
G1 X116.95 Y75.1 E26.54938
G1 X116.95 Y77.1 E26.6159
G1 X116.91 Y77.803 E26.63932
G1 X116.791 Y78.497 E26.66274
G1 X116.651 Y78.974 E26.67927
G1 X116.651 Y80.742 E26.73808
G1 X117.128 Y81.088 E26.75768
G1 X117.647 Y81.563 E26.78108
G1 X118.123 Y82.111 E26.80522
G1 X118.247 Y82.272 E26.81198
G1 X118.644 Y82.853 E26.83538
G1 X118.973 Y83.476 E26.85881
G1 X119.229 Y84.131 E26.8822
G1 X119.409 Y84.812 E26.90563
G1 X119.511 Y85.509 E26.92906
G1 X119.535 Y86.053 E26.94717
G1 X119.55 Y133.85 E28.53691
G1 X119.51 Y134.553 E28.56033
G1 X119.391 Y135.247 E28.58375
G1 X119.189 Y135.937 E28.60766
G1 X119.119 Y136.133 E28.61458
G1 X118.845 Y136.782 E28.63801
G1 X118.499 Y137.395 E28.66142
G1 X118.086 Y137.965 E28.68484
G1 X117.611 Y138.485 E28.70826
G1 X117.08 Y138.947 E28.73167
G1 X116.658 Y139.234 E28.74865
G1 X116.654 Y141.027 E28.80828
G1 X116.804 Y141.563 E28.82679
G1 X116.917 Y142.258 E28.85021
G1 X116.95 Y142.897 E28.87149
G1 X116.951 Y144.898 E28.93805
G1 X116.911 Y145.601 E28.96147
G1 X116.792 Y146.295 E28.98489
G1 X116.595 Y146.971 E29.00831
G1 X116.323 Y147.62 E29.03171
G1 X115.979 Y148.234 E29.05512
G1 X115.567 Y148.805 E29.07854
G1 X115.094 Y149.326 E29.10194
G1 X114.564 Y149.79 E29.12537
G1 X113.985 Y150.19 E29.14878
G1 X113.365 Y150.523 E29.17219
G1 X112.711 Y150.783 E29.19559
G1 X112.031 Y150.967 E29.21902
G1 X111.335 Y151.073 E29.24244
G1 X110.751 Y151.101 E29.26189
G1 X106.989 Y151.101 E29.38701
G1 X106.286 Y151.061 E29.41043
G1 X105.592 Y150.942 E29.43385
G1 X104.917 Y150.744 E29.45725
G1 X104.268 Y150.472 E29.48065
G1 X103.654 Y150.127 E29.50408
G1 X103.083 Y149.716 E29.52748
G1 X102.586 Y149.266 E29.54977
G1 X102.247 Y148.924 E29.56579
G1 X101.78 Y148.396 E29.58924
G1 X101.377 Y147.82 E29.61262
G1 X101.041 Y147.201 E29.63604
G1 X100.778 Y146.548 E29.65946
G1 X100.59 Y145.869 E29.68289
G1 X100.481 Y145.174 E29.70629
G1 X100.45 Y144.559 E29.72677
G1 X100.45 Y111.541 E30.82495
G1 X100.49 Y110.838 E30.84837
G1 X100.609 Y110.144 E30.87179
