;FLAVOR:Marlin
;TIME:732
;Filament used: 0.402833m
;Layer height: 0.16
;MINX:99.449
;MINY:67.299
;MINZ:0.2
;MAXX:120.551
;MAXY:152.701
;MAXZ:2.72
;Generated with Cura_SteamEngine 4.4.1
M140 S60
M105
M190 S60
M104 S200
M105
M109 S200
M82 ;absolute extrusion mode
M201 X500.00 Y500.00 Z100.00 E5000.00 ;Setup machine max acceleration
M203 X500.00 Y500.00 Z10.00 E50.00 ;Setup machine max feedrate
M204 P500.00 R1000.00 T500.00 ;Setup Print/Retract/Travel acceleration
M205 X8.00 Y8.00 Z0.40 E5.00 ;Setup Jerk
M220 S100 ;Reset Feedrate
M221 S100 ;Reset Flowrate

G28 ;Home
G29 ;Auto bed level

G92 E0 ;Reset Extruder
G1 Z2.0 F3000 ;Move Z Axis up
G1 X10.1 Y20 Z0.28 F5000.0 ;Move to start position
G1 X10.1 Y200.0 Z0.28 F1500.0 E15 ;Draw the first line
G1 X10.4 Y200.0 Z0.28 F5000.0 ;Move to side a little
G1 X10.4 Y20 Z0.28 F1500.0 E30 ;Draw the second line
G92 E0 ;Reset Extruder
G1 Z2.0 F3000 ;Move Z Axis up
G92 E0
G92 E0
G1 F1500 E-6.5
;LAYER_COUNT:15
;LAYER:0
M107
G0 F6000 X100.844 Y70.648 Z0.2
;TYPE:SKIRT
G1 F1500 E0
G1 F1200 X101.327 Y70.023 E0.02627
G1 X101.87 Y69.45 E0.05253
G1 X102.469 Y68.935 E0.0788
G1 X103.117 Y68.483 E0.10508
G1 X103.807 Y68.1 E0.13133
G1 X104.532 Y67.787 E0.15759
G1 X105.286 Y67.55 E0.18388
G1 X106.059 Y67.39 E0.21014
G1 X106.844 Y67.309 E0.23638
G1 X107.25 Y67.299 E0.24989
G1 X112.751 Y67.3 E0.43285
G1 X113.54 Y67.34 E0.45913
G1 X114.321 Y67.46 E0.48541
G1 X115.085 Y67.658 E0.51166
G1 X115.826 Y67.932 E0.53794
G1 X116.535 Y68.28 E0.56421
G1 X117.205 Y68.697 E0.59046
G1 X117.829 Y69.181 E0.61672
G1 X118.402 Y69.725 E0.643
G1 X118.916 Y70.324 E0.66925
G1 X119.368 Y70.972 E0.69553
G1 X119.751 Y71.662 E0.72178
G1 X120.063 Y72.387 E0.74803
G1 X120.3 Y73.141 E0.77432
G1 X120.459 Y73.914 E0.80057
G1 X120.54 Y74.7 E0.82685
G1 X120.55 Y75.1 E0.84015
G1 X120.551 Y122.687 E2.4229
G1 X120.511 Y123.476 E2.44918
G1 X120.357 Y124.415 E2.48083
G1 X120.012 Y125.934 E2.53264
G1 X119.714 Y127.343 E2.58054
G1 X119.438 Y128.773 E2.62898
G1 X119.177 Y130.256 E2.67906
G1 X118.939 Y131.746 E2.72925
G1 X118.747 Y133.106 E2.77493
G1 X118.552 Y134.656 E2.82689
G1 X118.398 Y136.076 E2.8744
G1 X118.261 Y137.553 E2.92373
G1 X118.153 Y138.993 E2.97176
G1 X118.063 Y140.52 E3.02264
G1 X118.001 Y141.993 E3.07167
G1 X117.965 Y143.377 E3.11772
G1 X117.949 Y144.978 E3.17097
G1 X117.901 Y145.766 E3.19723
G1 X117.773 Y146.546 E3.22352
G1 X117.568 Y147.308 E3.24976
G1 X117.286 Y148.046 E3.27604
G1 X116.932 Y148.751 E3.30228
G1 X116.508 Y149.417 E3.32854
G1 X116.018 Y150.037 E3.35482
G1 X115.469 Y150.604 E3.38107
G1 X114.865 Y151.113 E3.40734
G1 X114.212 Y151.558 E3.43363
G1 X113.518 Y151.935 E3.4599
G1 X112.79 Y152.239 E3.48614
G1 X112.034 Y152.469 E3.51242
G1 X111.259 Y152.621 E3.53869
G1 X110.154 Y152.7 E3.57553
G1 X108.562 Y152.701 E3.62848
G1 X107.773 Y152.662 E3.65476
G1 X106.993 Y152.542 E3.681
G1 X106.228 Y152.345 E3.70728
G1 X105.487 Y152.072 E3.73354
G1 X104.778 Y151.724 E3.75981
G1 X104.107 Y151.307 E3.78609
G1 X103.482 Y150.825 E3.81234
G1 X102.909 Y150.281 E3.83862
G1 X102.166 Y149.373 E3.87764
G1 X100.859 Y147.505 E3.95347
G1 X100.44 Y146.836 E3.97972
G1 X100.09 Y146.127 E4.00602
G1 X99.814 Y145.388 E4.03226
G1 X99.614 Y144.624 E4.05853
G1 X99.492 Y143.843 E4.08482
G1 X99.45 Y143.033 E4.11179
G1 X99.45 Y142.173 E4.1404
G1 X99.49 Y141.384 E4.16667
G1 X99.609 Y140.604 E4.19292
G1 X99.807 Y139.839 E4.2192
G1 X100.081 Y139.099 E4.24545
G1 X100.429 Y138.39 E4.27171
G1 X100.847 Y137.719 E4.29801
G1 X100.949 Y137.587 E4.30356
G1 X100.95 Y82.418 E6.13849
G1 X100.575 Y81.862 E6.16079
G1 X100.201 Y81.167 E6.18704
G1 X99.9 Y80.437 E6.2133
G1 X99.673 Y79.68 E6.23959
G1 X99.525 Y78.905 E6.26583
G1 X99.45 Y77.83 E6.30167
G1 X99.449 Y75.102 E6.39241
G1 X99.489 Y74.313 E6.41868
G1 X99.608 Y73.533 E6.44493
G1 X99.805 Y72.768 E6.4712
G1 X100.079 Y72.027 E6.49748
G1 X100.427 Y71.318 E6.52375
G1 X100.844 Y70.648 E6.54999
G0 F6000 X101.242 Y70.778
G1 F1200 X101.723 Y70.178 E6.57557
G1 X102.263 Y69.631 E6.60114
G1 X102.858 Y69.143 E6.62673
G1 X103.5 Y68.719 E6.65232
G1 X104.182 Y68.364 E6.67789
G1 X104.898 Y68.082 E6.70349
G1 X105.639 Y67.876 E6.72907
G1 X106.397 Y67.748 E6.75464
G1 X107.25 Y67.699 E6.78305
G1 X112.751 Y67.7 E6.96602
G1 X113.519 Y67.74 E6.9916
G1 X114.279 Y67.86 E7.01719
G1 X115.023 Y68.058 E7.04279
G1 X115.741 Y68.332 E7.06835
G1 X116.428 Y68.679 E7.09395
G1 X117.074 Y69.095 E7.11951
G1 X117.674 Y69.576 E7.14509
G1 X118.221 Y70.117 E7.17067
G1 X118.709 Y70.712 E7.19627
G1 X119.132 Y71.354 E7.22184
G1 X119.486 Y72.037 E7.24743
G1 X119.768 Y72.753 E7.27302
G1 X119.974 Y73.494 E7.2986
G1 X120.101 Y74.252 E7.32416
G1 X120.15 Y75.1 E7.35242
G1 X120.151 Y122.687 E8.93517
G1 X120.111 Y123.455 E8.96074
G1 X119.967 Y124.326 E8.99011
G1 X119.626 Y125.828 E9.04134
G1 X119.318 Y127.285 E9.09087
G1 X119.05 Y128.673 E9.13788
G1 X118.783 Y130.189 E9.18908
G1 X118.54 Y131.711 E9.24035
G1 X118.346 Y133.091 E9.2867
G1 X118.16 Y134.568 E9.33621
G1 X117.999 Y136.048 E9.38572
G1 X117.86 Y137.55 E9.43589
G1 X117.751 Y138.998 E9.48419
G1 X117.664 Y140.481 E9.5336
G1 X117.604 Y141.89 E9.58051
G1 X117.564 Y143.435 E9.63191
G1 X117.549 Y144.974 E9.6831
G1 X117.501 Y145.742 E9.70869
G1 X117.374 Y146.5 E9.73426
G1 X117.169 Y147.242 E9.75986
G1 X116.888 Y147.958 E9.78544
G1 X116.534 Y148.64 E9.811
G1 X116.111 Y149.283 E9.8366
G1 X115.624 Y149.878 E9.86217
G1 X115.078 Y150.42 E9.88776
G1 X114.478 Y150.901 E9.91334
G1 X113.832 Y151.318 E9.93891
G1 X113.146 Y151.666 E9.9645
G1 X112.427 Y151.941 E9.9901
G1 X111.684 Y152.139 E10.01567
G1 X110.924 Y152.259 E10.04127
G1 X110.154 Y152.3 E10.06691
G1 X108.562 Y152.301 E10.11986
G1 X107.794 Y152.262 E10.14544
G1 X107.034 Y152.142 E10.17103
G1 X106.29 Y151.945 E10.19663
G1 X105.571 Y151.672 E10.22221
G1 X104.885 Y151.325 E10.24778
G1 X104.238 Y150.91 E10.27334
G1 X103.637 Y150.429 E10.29895
G1 X103.09 Y149.888 E10.32453
G1 X102.494 Y149.143 E10.35627
G1 X101.187 Y147.275 E10.43209
G1 X100.779 Y146.623 E10.45768
G1 X100.441 Y145.932 E10.48326
G1 X100.177 Y145.21 E10.50883
G1 X99.99 Y144.464 E10.53441
G1 X99.88 Y143.702 E10.56002
G1 X99.85 Y143.033 E10.58229
G1 X99.85 Y142.173 E10.61089
G1 X99.89 Y141.405 E10.63647
G1 X100.009 Y140.645 E10.66206
G1 X100.207 Y139.902 E10.68763
G1 X100.481 Y139.183 E10.71322
G1 X100.828 Y138.497 E10.73879
G1 X101.244 Y137.85 E10.76438
G1 X101.349 Y137.719 E10.76996
G1 X101.35 Y82.28 E12.61387
G1 X101.219 Y82.115 E12.62088
G1 X100.806 Y81.466 E12.64646
G1 X100.464 Y80.777 E12.67205
G1 X100.194 Y80.057 E12.69762
G1 X100.001 Y79.312 E12.72322
G1 X99.886 Y78.552 E12.74878
G1 X99.85 Y77.83 E12.77283
G1 X99.849 Y75.102 E12.86356
G1 X99.889 Y74.334 E12.88914
G1 X100.008 Y73.574 E12.91473
G1 X100.205 Y72.83 E12.94032
G1 X100.479 Y72.111 E12.96592
G1 X100.826 Y71.425 E12.99149
G1 X101.242 Y70.778 E13.01707
G0 F6000 X101.639 Y70.912
G1 F1200 X102.118 Y70.338 E13.04193
G1 X102.655 Y69.817 E13.06682
G1 X103.245 Y69.357 E13.0917
G1 X103.881 Y68.963 E13.11659
G1 X104.555 Y68.638 E13.14147
G1 X105.26 Y68.388 E13.16635
G1 X105.987 Y68.214 E13.19122
G1 X106.729 Y68.118 E13.2161
G1 X107.25 Y68.099 E13.23344
G1 X112.751 Y68.1 E13.4164
G1 X113.498 Y68.14 E13.44129
G1 X114.237 Y68.26 E13.46619
G1 X114.958 Y68.457 E13.49105
G1 X115.654 Y68.731 E13.51592
G1 X116.317 Y69.077 E13.5408
G1 X116.94 Y69.492 E13.5657
G1 X117.514 Y69.972 E13.59058
G1 X118.034 Y70.509 E13.61544
G1 X118.494 Y71.099 E13.64033
G1 X118.888 Y71.735 E13.66521
G1 X119.212 Y72.409 E13.69008
G1 X119.462 Y73.114 E13.71496
G1 X119.636 Y73.842 E13.73986
G1 X119.731 Y74.584 E13.76474
G1 X119.75 Y75.1 E13.78191
G1 X119.751 Y122.687 E15.36466
G1 X119.711 Y123.434 E15.38954
G1 X119.577 Y124.237 E15.41662
G1 X119.245 Y125.698 E15.46645
G1 X118.914 Y127.264 E15.51969
G1 X118.656 Y128.603 E15.56504
G1 X118.39 Y130.112 E15.61601
G1 X118.145 Y131.648 E15.66774
G1 X117.947 Y133.051 E15.71487
G1 X117.761 Y134.532 E15.76451
G1 X117.598 Y136.032 E15.8147
G1 X117.464 Y137.482 E15.86313
G1 X117.354 Y138.947 E15.91199
G1 X117.266 Y140.439 E15.9617
G1 X117.202 Y141.939 E16.01164
G1 X117.164 Y143.42 E16.06091
G1 X117.149 Y144.97 E16.11247
G1 X117.101 Y145.717 E16.13736
G1 X116.974 Y146.454 E16.16224
G1 X116.77 Y147.173 E16.1871
G1 X116.489 Y147.867 E16.212
G1 X116.136 Y148.526 E16.23686
G1 X115.715 Y149.145 E16.26176
G1 X115.23 Y149.714 E16.28663
G1 X114.688 Y150.229 E16.3115
G1 X114.093 Y150.683 E16.33639
G1 X113.453 Y151.071 E16.36128
G1 X112.776 Y151.388 E16.38615
G1 X112.069 Y151.632 E16.41102
G1 X111.339 Y151.798 E16.43592
G1 X110.596 Y151.886 E16.46081
G1 X110.153 Y151.9 E16.47555
G1 X108.561 Y151.901 E16.5285
G1 X107.814 Y151.861 E16.55338
G1 X107.076 Y151.743 E16.57824
G1 X106.354 Y151.545 E16.60314
G1 X105.658 Y151.272 E16.628
G1 X104.994 Y150.927 E16.65289
G1 X104.372 Y150.512 E16.67776
G1 X103.797 Y150.033 E16.70265
G1 X103.276 Y149.496 E16.72754
G1 X102.822 Y148.914 E16.75209
G1 X101.515 Y147.046 E16.82792
G1 X101.119 Y146.411 E16.85281
G1 X100.794 Y145.737 E16.87769
G1 X100.542 Y145.033 E16.90256
G1 X100.367 Y144.306 E16.92743
G1 X100.27 Y143.564 E16.95232
G1 X100.25 Y143.033 E16.97
G1 X100.25 Y142.173 E16.9986
G1 X100.29 Y141.426 E17.02348
G1 X100.409 Y140.688 E17.04835
G1 X100.607 Y139.966 E17.07325
G1 X100.88 Y139.27 E17.09811
G1 X101.227 Y138.607 E17.123
G1 X101.642 Y137.984 E17.1479
G1 X101.749 Y137.856 E17.15345
G1 X101.75 Y82.143 E19.00647
G1 X101.428 Y81.714 E19.02431
G1 X101.047 Y81.071 E19.04917
G1 X100.736 Y80.39 E19.07407
G1 X100.5 Y79.681 E19.09892
G1 X100.341 Y78.95 E19.1238
G1 X100.26 Y78.206 E19.1487
G1 X100.25 Y77.83 E19.16121
G1 X100.249 Y75.102 E19.25194
G1 X100.289 Y74.355 E19.27682
G1 X100.408 Y73.616 E19.30172
G1 X100.605 Y72.894 E19.32661
G1 X100.878 Y72.198 E19.35147
G1 X101.224 Y71.535 E19.37635
G1 X101.639 Y70.912 E19.40125
G0 F6000 X102.036 Y71.051
G1 F1200 X102.513 Y70.503 E19.42541
G1 X103.046 Y70.01 E19.44956
G1 X103.631 Y69.579 E19.47373
G1 X104.26 Y69.215 E19.4979
G1 X104.924 Y68.922 E19.52204
G1 X105.617 Y68.704 E19.5462
G1 X106.33 Y68.563 E19.57037
G1 X107.25 Y68.499 E19.60105
G1 X112.751 Y68.5 E19.78401
G1 X113.476 Y68.54 E19.80816
G1 X114.193 Y68.66 E19.83234
G1 X114.892 Y68.857 E19.85649
G1 X115.565 Y69.13 E19.88065
G1 X116.204 Y69.476 E19.90482
G1 X116.801 Y69.889 E19.92896
G1 X117.349 Y70.366 E19.95313
G1 X117.841 Y70.9 E19.97728
G1 X118.272 Y71.485 E20.00145
G1 X118.636 Y72.114 E20.02562
G1 X118.928 Y72.779 E20.04977
G1 X119.146 Y73.472 E20.07394
G1 X119.286 Y74.184 E20.09807
G1 X119.35 Y75.1 E20.12861
G1 X119.351 Y122.687 E21.71136
G1 X119.311 Y123.412 E21.73551
G1 X119.187 Y124.149 E21.76037
G1 X118.832 Y125.712 E21.81368
G1 X118.541 Y127.093 E21.86062
G1 X118.253 Y128.586 E21.91119
G1 X117.995 Y130.046 E21.9605
G1 X117.75 Y131.585 E22.01234
G1 X117.549 Y133.011 E22.06023
G1 X117.362 Y134.496 E22.11001
G1 X117.203 Y135.955 E22.15883
G1 X117.064 Y137.473 E22.20953
G1 X116.957 Y138.889 E22.25676
G1 X116.863 Y140.487 E22.31
G1 X116.803 Y141.911 E22.35741
G1 X116.765 Y143.406 E22.40715
G1 X116.749 Y144.966 E22.45903
G1 X116.701 Y145.691 E22.4832
G1 X116.575 Y146.406 E22.50735
G1 X116.37 Y147.103 E22.53151
G1 X116.091 Y147.773 E22.55565
G1 X115.739 Y148.409 E22.57983
G1 X115.32 Y149.002 E22.60398
G1 X114.837 Y149.545 E22.62815
G1 X114.299 Y150.032 E22.65229
G1 X113.71 Y150.457 E22.67644
G1 X113.077 Y150.815 E22.70063
G1 X112.41 Y151.101 E22.72477
G1 X111.715 Y151.312 E22.74893
G1 X111 Y151.445 E22.77312
G1 X110.153 Y151.5 E22.80135
G1 X108.561 Y151.501 E22.8543
G1 X107.836 Y151.461 E22.87845
G1 X107.119 Y151.343 E22.90261
G1 X106.42 Y151.146 E22.92677
G1 X105.747 Y150.873 E22.95092
G1 X105.108 Y150.528 E22.97508
G1 X104.51 Y150.115 E22.99925
G1 X103.962 Y149.639 E23.02339
G1 X103.469 Y149.105 E23.04756
G1 X103.149 Y148.685 E23.06513
G1 X101.842 Y146.817 E23.14095
G1 X101.459 Y146.2 E23.16511
G1 X101.146 Y145.544 E23.18928
G1 X100.907 Y144.858 E23.21344
G1 X100.745 Y144.15 E23.2376
G1 X100.662 Y143.428 E23.26177
G1 X100.65 Y143.033 E23.27492
G1 X100.65 Y142.173 E23.30352
G1 X100.69 Y141.448 E23.32767
G1 X100.809 Y140.731 E23.35184
G1 X101.007 Y140.032 E23.37601
G1 X101.28 Y139.359 E23.40016
G1 X101.625 Y138.72 E23.42432
G1 X102.039 Y138.123 E23.44848
G1 X102.149 Y137.996 E23.45407
G1 X102.15 Y82.008 E25.31624
G1 X102.064 Y81.91 E25.32057
G1 X101.647 Y81.315 E25.34474
G1 X101.298 Y80.678 E25.3689
G1 X101.02 Y80.007 E25.39306
G1 X100.819 Y79.309 E25.41721
G1 X100.695 Y78.593 E25.44138
G1 X100.65 Y77.829 E25.46684
G1 X100.649 Y75.101 E25.55757
G1 X100.689 Y74.376 E25.58172
G1 X100.808 Y73.66 E25.60586
G1 X101.005 Y72.961 E25.63002
G1 X101.278 Y72.287 E25.6542
G1 X101.623 Y71.648 E25.67836
G1 X102.036 Y71.051 E25.7025
G0 F6000 X102.021 Y71.765
G1 F1200 X102.433 Y71.194 E25.72592
G1 X102.907 Y70.674 E25.74932
G1 X103.436 Y70.21 E25.77273
G1 X104.015 Y69.809 E25.79615
G1 X104.636 Y69.477 E25.81957
G1 X105.29 Y69.217 E25.84298
G1 X105.969 Y69.032 E25.86639
G1 X106.665 Y68.927 E25.8898
G1 X107.25 Y68.899 E25.90928
G1 X112.751 Y68.9 E26.09224
G1 X113.454 Y68.94 E26.11566
G1 X114.148 Y69.06 E26.13909
G1 X114.823 Y69.257 E26.16247
G1 X115.473 Y69.53 E26.18592
G1 X116.086 Y69.874 E26.2093
G1 X116.657 Y70.286 E26.23272
G1 X117.178 Y70.76 E26.25615
G1 X117.641 Y71.29 E26.27955
G1 X118.042 Y71.869 E26.30298
G1 X118.374 Y72.49 E26.3264
G1 X118.633 Y73.144 E26.3498
G1 X118.817 Y73.824 E26.37323
G1 X118.923 Y74.52 E26.39664
G1 X118.95 Y75.1 E26.41595
G1 X118.951 Y122.687 E27.99871
G1 X118.911 Y123.39 E28.02212
G1 X118.797 Y124.06 E28.04473
G1 X118.453 Y125.574 E28.09637
G1 X118.142 Y127.045 E28.14638
G1 X117.861 Y128.506 E28.19586
G1 X117.607 Y129.942 E28.24436
G1 X117.355 Y131.522 E28.29758
G1 X117.147 Y132.998 E28.34715
G1 X116.972 Y134.389 E28.39378
G1 X116.804 Y135.939 E28.44564
G1 X116.668 Y137.405 E28.49461
G1 X116.551 Y138.966 E28.54667
G1 X116.466 Y140.42 E28.59512
G1 X116.404 Y141.859 E28.64302
G1 X116.365 Y143.361 E28.69299
G1 X116.349 Y144.962 E28.74625
G1 X116.302 Y145.664 E28.76965
G1 X116.175 Y146.357 E28.79308
G1 X115.971 Y147.031 E28.8165
G1 X115.692 Y147.677 E28.83991
G1 X115.342 Y148.288 E28.86333
G1 X114.924 Y148.854 E28.88673
G1 X114.445 Y149.37 E28.91015
G1 X113.911 Y149.828 E28.93355
G1 X113.328 Y150.223 E28.95697
G1 X112.704 Y150.549 E28.98038
G1 X112.047 Y150.802 E29.0038
G1 X111.366 Y150.979 E29.0272
G1 X110.669 Y151.078 E29.05062
G1 X110.153 Y151.1 E29.06779
G1 X108.561 Y151.101 E29.12075
G1 X107.858 Y151.061 E29.14416
G1 X107.164 Y150.943 E29.16758
G1 X106.488 Y150.746 E29.191
G1 X105.839 Y150.473 E29.21442
G1 X105.225 Y150.129 E29.23782
G1 X104.654 Y149.718 E29.26122
G1 X104.133 Y149.244 E29.28465
G1 X103.477 Y148.455 E29.31878
G1 X102.17 Y146.587 E29.39461
G1 X101.8 Y145.989 E29.418
G1 X101.5 Y145.352 E29.44141
G1 X101.274 Y144.685 E29.46484
G1 X101.125 Y143.997 E29.48825
G1 X101.05 Y143.033 E29.52041
G1 X101.05 Y142.173 E29.54901
G1 X101.09 Y141.47 E29.57243
G1 X101.209 Y140.776 E29.59585
G1 X101.407 Y140.101 E29.61925
G1 X101.679 Y139.452 E29.64265
G1 X102.024 Y138.838 E29.66608
G1 X102.435 Y138.267 E29.68948
G1 X102.549 Y138.142 E29.69511
G1 X102.55 Y81.856 E31.56719
G1 X102.26 Y81.507 E31.58228
G1 X101.875 Y80.918 E31.60568
G1 X101.559 Y80.288 E31.62912
G1 X101.317 Y79.627 E31.65254
G1 X101.151 Y78.943 E31.67595
G1 X101.064 Y78.245 E31.69934
G1 X101.05 Y77.829 E31.71319
G1 X101.049 Y75.101 E31.80392
G1 X101.089 Y74.398 E31.82734
G1 X101.208 Y73.705 E31.85073
G1 X101.405 Y73.029 E31.87414
G1 X101.677 Y72.38 E31.89755
G1 X102.021 Y71.765 E31.92099
G0 F6000 X102.42 Y71.887
G1 F1200 X102.829 Y71.343 E31.94362
G1 X103.3 Y70.851 E31.96628
G1 X103.825 Y70.417 E31.98893
G1 X104.397 Y70.048 E32.01157
G1 X105.009 Y69.749 E32.03423
G1 X105.651 Y69.523 E32.05687
G1 X106.316 Y69.375 E32.07952
G1 X107.25 Y69.299 E32.11069
G1 X112.751 Y69.3 E32.29366
G1 X113.431 Y69.34 E32.31631
G1 X114.101 Y69.46 E32.33895
G1 X114.753 Y69.657 E32.3616
G1 X115.377 Y69.929 E32.38425
G1 X115.965 Y70.272 E32.40689
G1 X116.508 Y70.682 E32.42952
G1 X117 Y71.153 E32.45217
G1 X117.433 Y71.679 E32.47483
G1 X117.802 Y72.251 E32.49747
G1 X118.101 Y72.863 E32.52013
G1 X118.326 Y73.505 E32.54275
